/* XPM */
static char *_5875ca04c464747b667445cec833938lIku9segxqf7cAqK[] = {
/* columns rows colors chars-per-pixel */
"350 350 252 2 ",
"   c #030705",
".  c #050906",
"X  c #0A0A07",
"o  c #060A08",
"O  c #0A0C09",
"+  c #080706",
"@  c #130B06",
"#  c #1C0B06",
"$  c #140D09",
"%  c #1A0E09",
"&  c #1B0705",
"*  c #0D110D",
"=  c #13130E",
"-  c #1C120B",
";  c #1C1309",
":  c #0F1411",
">  c #131611",
",  c #191611",
"<  c #161914",
"1  c #1A1C16",
"2  c #1C1E19",
"3  c #171C18",
"4  c #240604",
"5  c #2B0604",
"6  c #230A06",
"7  c #2B0A05",
"8  c #240E09",
"9  c #2B0D09",
"0  c #350604",
"q  c #3C0603",
"w  c #340905",
"e  c #3C0905",
"r  c #370D09",
"t  c #241107",
"y  c #2B1207",
"u  c #24120A",
"i  c #2C150A",
"p  c #2D190D",
"a  c #24190F",
"s  c #331307",
"d  c #3B1507",
"f  c #34160A",
"g  c #3B1609",
"h  c #34190B",
"j  c #3C190B",
"k  c #3E1807",
"l  c #231B13",
"z  c #2C1B13",
"x  c #211F1A",
"c  c #241912",
"v  c #331D13",
"b  c #3C1D11",
"n  c #371712",
"m  c #1E211B",
"M  c #1C2017",
"N  c #22231D",
"B  c #2A251D",
"V  c #26281F",
"C  c #2A281F",
"Z  c #2B2116",
"A  c #342115",
"S  c #3C2315",
"D  c #33241A",
"F  c #3C2519",
"G  c #39291D",
"H  c #3C200F",
"J  c #1F2520",
"K  c #242621",
"L  c #292721",
"P  c #262922",
"I  c #2B2B23",
"U  c #2D2E28",
"Y  c #232C29",
"T  c #322E24",
"R  c #3D2D22",
"E  c #322F28",
"W  c #332721",
"Q  c #2E3026",
"!  c #2E3129",
"~  c #343126",
"^  c #393327",
"/  c #35332A",
"(  c #3A352B",
")  c #3C392E",
"_  c #37382F",
"`  c #3D3C32",
"'  c #373730",
"]  c #440703",
"[  c #4B0704",
"{  c #440904",
"}  c #4C0904",
"|  c #4A0E09",
" . c #520704",
".. c #5A0703",
"X. c #540A04",
"o. c #5B0B04",
"O. c #580E09",
"+. c #431407",
"@. c #4C1306",
"#. c #431907",
"$. c #4C1A07",
"%. c #431609",
"&. c #4B1509",
"*. c #441B0B",
"=. c #4B1C0B",
"-. c #541306",
";. c #5C1306",
":. c #531907",
">. c #5C1907",
",. c #531509",
"<. c #5B1509",
"1. c #531D0B",
"2. c #5B1D0A",
"3. c #431E11",
"4. c #4B1D11",
"5. c #471812",
"6. c #551C13",
"7. c #630C04",
"8. c #6C0D04",
"9. c #640904",
"0. c #730D03",
"q. c #7A0E03",
"w. c #641205",
"e. c #6B1205",
"r. c #641A07",
"t. c #6B1A06",
"y. c #631509",
"u. c #6B1509",
"i. c #631C0A",
"p. c #6B1C0A",
"a. c #731205",
"s. c #7B1204",
"d. c #731906",
"f. c #721509",
"g. c #731C0B",
"h. c #7B1E0B",
"j. c #7A1707",
"k. c #691D12",
"l. c #731D10",
"z. c #44210F",
"x. c #4D210E",
"c. c #54210D",
"v. c #5C220C",
"b. c #5B260D",
"n. c #442313",
"m. c #4C2312",
"M. c #4D2916",
"N. c #43251A",
"B. c #442A1B",
"V. c #4C2B1A",
"C. c #492619",
"Z. c #532411",
"A. c #5B2511",
"S. c #542914",
"D. c #5C2A13",
"F. c #532C1B",
"G. c #5B2B1B",
"H. c #58251B",
"J. c #55321E",
"K. c #5C321D",
"L. c #5E381D",
"P. c #4C301F",
"I. c #63240C",
"U. c #6A250C",
"Y. c #65290E",
"T. c #6C290E",
"R. c #73250C",
"E. c #7C230C",
"W. c #722A0E",
"Q. c #7B2D0E",
"!. c #782207",
"~. c #7C310F",
"^. c #76310F",
"/. c #632611",
"(. c #6B2611",
"). c #642A12",
"_. c #6C2B11",
"`. c #622D1A",
"'. c #682919",
"]. c #732C11",
"[. c #7B2D12",
"{. c #792713",
"}. c #63331C",
"|. c #6A341B",
" X c #673619",
".X c #753213",
"XX c #7C3312",
"oX c #773718",
"OX c #6C320F",
"+X c #442E23",
"@X c #562D23",
"#X c #443224",
"$X c #4B3424",
"%X c #45362A",
"&X c #4B3529",
"*X c #423B2D",
"=X c #4C3B2C",
"-X c #4D3927",
";X c #533423",
":X c #5B3423",
">X c #5C3A24",
",X c #533C2C",
"<X c #57392A",
"1X c #443E32",
"2X c #4C3E31",
"3X c #413F38",
"4X c #543E31",
"5X c #633C24",
"6X c #663923",
"7X c #713D22",
"8X c #3D4135",
"9X c #6B411E",
"0X c #464134",
"qX c #4A4336",
"wX c #464539",
"eX c #4C4639",
"rX c #4E493C",
"tX c #47483A",
"yX c #534334",
"uX c #51463A",
"iX c #524B3D",
"pX c #5A4939",
"aX c #55422F",
"sX c #694225",
"dX c #6D4228",
"fX c #4E4B40",
"gX c #544E41",
"hX c #584F42",
"jX c #565143",
"kX c #595245",
"lX c #5B5549",
"zX c #59554A",
"xX c #5F5A51",
"cX c #605A4F",
"vX c #821304",
"bX c #841C0A",
"nX c #840F03",
"mX c #82220D",
"MX c #822C0E",
"NX c #83350F",
"BX c #842511",
"VX c #832B14",
"CX c #882713",
"ZX c #833412",
"AX c #853A13",
"SX c #8B3C13",
"DX c #883515",
"FX c #913E14",
"GX c #8D4113",
"HX c #864013",
"JX c #914213",
"KX c #974317",
/* pixels */
". . .   . . . . . . . . . . . . .   .     . .   . . . .   . . . . o . .   . . . . . . . . . . . . . . .   . .   . . . . . . . .   . . .     . . . . . . . . . . . . .   . . . .   .   . . .   . . . . . . . . .   . .   . . . . . . . .   . . . . . . . .   . . . . . . . . . . .   . . .   . . . .     . . . o . . . .   .     . . . . .             . . . .     .   . . . . . . . . . . . . .   .   . . . . . . o . .         . . . . . . . . . . .           .     . . . . . .   . . . . . . . . .     . . . .   . . . . .     o o . . . .   . . . . . .     .   . . . . . . . . .     .   . . .   . . . . .   . . . . . .     o     .   . .         .     . .   . .           . .   . .       . . . .     .   . .       ",
". . . . .   . . . . . . . . . .     . .   .         . . . . o .   .     . . . . . . .   . . . . . . . . . . . . . .   . . .     . . . . . . . . . . . .   . . . . . . . . . . . . . . . . . . . . . . . . . . . .   . .   o . . .   . . .   . . . . . .     . .       . . . . . . . o . . . . . . .   . .   .   . . . . . . . . .   . . .   .       . . . .   .     . . . .   . . . . . .   . . . . . . . . . .     .       .     . . . .   .   .   . . . .     . . . .   . . o . . . . . . . . .   . . . . . . .   . . . . o . . .   .   . . . . . . .   .   . .       . . . . . . . .       .       .   . .   .     . .         . . . .   . .     . .   . . .   . . .         . . . .           .               .         ",
". . . . . .     . . . . . . . . .         . . . . . . . . . . . . . . . . . . . . . . . .   .   . .   . . . . . . . . . .   . . . . . . . . . . . . .   . . . . . . . . . . . . . . .   . . .   . . . . . . . .   . . . . . . . .   . . . .   .   . . .     . . . .   .   . . . .     . .   . . . . . . . . . . . . . . . . . .   . . . . .   . . . . . . .     .   . . . . . . . . . . .     . . . . .   . o o . . . . .         . . . .       .   . .       . . . . . . . . . .   . . . . . .     . . . . . . . . . . . .   . . .   . . . .   . .     .   . . .       . . . . . . . . .     . .     . . . .   .   . .     .   . .   . .   .         . . . . .     . . .           .   . .       . .   .     . .           ",
". . .   . . . . .   . . .   . . . .   .   . . . . . . .   . . . . . . .     . . . . . . . . o .   . . . . . . . . . . . . . . . . .   . . o . . . . .   . . . .     . .     . . . .   . . . . . . . . . . . . . . . . . . . . .   . . . . . o o . . . . . .   . . . . . . . . . . . . . . . . . . . . . . . . .   . . . . . . . . . . .     . . . . . . . o o . .   .   . . . . . . o . . . . . . . .   . . . o . o . . . . .     . . . . . . .   . . . o o   . . . . . . . . . . . . . . . . . .   .     .   . . . o .   .   . . . o   . .     . . . . . . .   . . . . . . . . . . . . . .   . . .   . . . .   . . . .   . . . . .     . . . .     .     .           . .   . .           . .           .   . . .       .   ",
"o . . . . . . . . . . . .   .   . . . . . . . . o . . . . . . . . . . . . . . . o . X . . . . o . . . . . . o     . . . . . . . . . . . . . . . . X . . . . .   . o . . . . . o . o . . o . . . . . . . . . . . . . . . . . o . . . o . . . o . . . . . . . . . . . . . . . . . . . . . . . . . . . . . .   . . . . . . . . . . . . . .   . . .   . . . . o . . . . .   . . . . . . . . . o . . . . . o o . . . . . . . . . . . . . o o . . . . . . . . . . . . . . . . . o . . . .   .   . o o .   . . . . . . . . . . . . . . . .   . . . . . . . . o . . . . . o o . . . . . . . . . . . . . . . . . . . . .   . . .     . . . . .   . . . .   . . . . . . . .     . . .     . . .   .       . .   . . . . . . . .   . . ",
"o . . . o . . .       . . . .         o . . . . . . . . . . . . . . .   . . .   . . . . . .   . .   . . . .   . .   . .   . . . . .   . . . . . . o .   . . . . . . . . o   . . .   . . . . . . . . . . . . . . . . . . . . . . . . . .   . . . .   . . .   . . . . . . . . o . . . .   . .     . o . . . . . . .     .   .     . .               . .   . . . .   . . . . . . o . . . . . . .   . . . . o . . . . . . . . . . . . . . . .   . .     . .     . .   . . . . . . . . . . . o . o . . . . .   . . . o . . . . . . .   .   . . . . . . . . . o . . . . . . . . . . . . . . . . . . . . . o . . . . . . . . . . . . . . . . . .   . .       . . . . . .   .     . .             .   . o .   .   o . .     . . .   ",
"p h h z z z z z z 1 < 1 1 1 1 < ~ ~ / U ~ Q E ~ U U Q ~ U / U U U U Q U U / ~ T ~ T Q ~ T ! U I I U U U U U U I U I I I I I I I P N 2 1 1 2 1 2 O X X X X X O : * > = = > < < < < < < N / / U / U I I I L I I I I I I I I L L I T T T / E ~ U / T U I T U U I I I I I I I I U T T U T U I I ~ I I U I I U I I I I I I I L O . . . . .   O * * O * * z v A A A v Z I I I V V N 1 1 < 2 < 1 < L I I I I I I I I I L C I V V V V V C A D D D G G h g g j j g A T I U T U I L V V V N V N M M M m M < . . . . . O > < < < < < 1 N N N N N N N N N M M N N N N N N N N N N N N N M N N N N N N N N N N N N N N N V N L N V C V L I I I I I I I I I L I I I U I I U U U I U P . . . . . .   .   . . . < 2 N N m m m N M M 2 2 2 2 ",
"M.M.M.C.M.M.C.C.C.I P L L P P N wXwXwXwXwXwXwX0XwX0X0XwX0X0X0X0X0X0XwX0XwXqXwXwXwXwXwXqXwXwXrXeXwXqXwXwXwXwXwXwXwXwXwXqXwXwXwXwXwX) U E Q U I U = @ X @ X @ = 2 2 2 2 2 m I I I I I I ( kXjXkXkXkXkXkXkXjXlXkXkXkXkXlXkXlXkXjXkXkXkXkXkXlXkXkXlXlXlXlXkXkXkXkXkXkXkXkXlXkXjXkXkXkXjXkXkXgXjXjXjXjXjXjXgXgXjXgXgXgXiXrXtXrXO . . .   . O 2 2 2 < < 2 F.J.;X;X;X;X-X0XwXqX0X0X` I U U ! U U I wXiXrXrXrXiXiXiXiXuXrXwX0X0X0X0X0X0X2X<X<X<X<X4XyXH.A.Z.Z.Z.1.$XrXrXgXgXgXfXrXiXiXrXrXrX0X) ` ) ' ) I . . . . . O N L K P P K / 1X0X0X0X0X1X0XwX0X0X0XwXwXwXwXwXwXrXwXwXqXrXrXrXwXtXtXwXwXrXwXwXeXwXwXrXwXeXwXwXwXwXwXwXwXwXqXwXwXwXwXwXwXwXwXwXwX0XwX0X0X0XwX0X0XwX0X0XwX` . . . .   .   . . . . . I ' ` ` ` ` 8X` ` ` 0X` ` ` ",
"M.M.V.C.C.M.C.V.B.I P L I P V N qXqXqXwXwXwXwX0X0XwXqX0XwX0XwXwXwXwXwXwXwXwXwXwXwXwXtXrXwXtXwXrXwXwXwXwXwXwXwXwXwXwXeXqXwXwXwXwXwX` U T / U I U > @ $ $ X O = 1 2 2 2 2 m I I I I I U ) jXjXjXkXjXkXlXkXkXkXkXkXkXlXkXkXkXkXkXlXkXlXkXkXkXjXkXjXkXkXkXgXkXkXjXkXkXkXkXkXkXkXkXkXkXkXkXkXjXgXgXjXjXgXgXgXgXiXiXiXiXrXrXfXfXO . . . . . O < < < < < 3 V.;XJ.J.;XJ.$X0XwX0X0X1X1XI I U U U U I 0XeXeXrXeXrXrXrXrXrXrXrX0X0X0X0X0X0X2X<X<X4X<X<XyXH.1.A.A.A.c.;XrXrXiXiXiXiXrXiXiXrXrXrX1X/ ) ) ) ) I . o o . . O N L L K P K _ ` 1X0X0X0X0X0X0X0X0XqXwXeXwXwXwXwXwXwXwXwXeXwXwXwXwXwXwXwXwXwXwXwXeXeXrXeXeXwXwXwXwXwXwXwXwXqXwXwXwXqXwXqXwXwXwXwXwX0XwX0XqX0X0X0X0X0X0X0X` o O o . . . .   . . .   Q ` ` 8X` 8X` 8X` 0X8X8X` ` ",
"S.S.V.V.V.M.C.V.C.I I I I L V V wXwXqX0XqXwXqX0XwXqXqXwXwXwXwXwX0XqXwX0XwXwXtXwXwXwXeXtXwXeXwXrXtXwXwXwXwXeXwX0XqXwXwXeXwXwXeXwXwX0XU U ~ U U U , @ $ $ @ $ = 2 2 M 2 2 M I I I I I I / kXkXkXkXkXlXkXkXkXkXkXlXkXlXkXkXkXkXkXlXkXkXkXkXkXkXkXkXkXkXkXkXkXjXjXkXjXjXjXkXkXkXkXjXkXkXkXkXjXjXjXgXgXgXgXiXgXgXiXiXiXrXgXfXfXO . . . . . O 1 < < < < < V.J.;XJ.J.J.;XwX0XwXqX0X1XU U U U U U I qXeXeXeXeXrXiXrXiXrXrXrX0XwX0XqXqX0XqX4X4X4X4X<X4XH.Z.A.Z.c.c.;XiXiXiXgXrXfXrXrXiXrXiXiX1X/ ) ( ( / I . O o o o O N K K L L K / ` 1X0X1X1X0X0X0XwXwXqXqXeXwXwXrXeXwXwXwXwXwXwXrXqXwXwXwXwXwXwXwXwXeXrXeXrXwXwXwXwXrXwXwXwXwXwXwXwXwXwXwXwXwXwXwXwXwXwXwXwXwXwXwX0XwX0X0XwX` O O o o . o . . .   . . U ` ` ` ` ` ` ` ` 0X0X8X` ` ",
"S.M.V.V.C.V.C.C.B.I L I I I I V 0X0X0XwXqXqXqX0X0XqXqXwXwXqXwXwXwXwXwXwXwXwXqXqXrXwXeXeXwXwXqXwXrXrXrXrXwXwXwXwXwXwXwXqXwXeXwXwX0X` U Q / U U ~ , $ $ $ $ $ , 2 2 2 2 2 m I L I I I I / kXkXkXkXkXkXkXkXkXkXkXkXkXkXlXkXkXkXkXkXkXkXkXkXkXkXkXkXkXjXkXkXkXjXjXlXkXjXjXkXkXkXkXkXkXlXkXkXkXjXkXgXgXgXgXjXgXjXiXgXiXiXrXgXrXO . . . . o O 1 2 1 < < < J.J.;XJ.;XJ.;XqXqXwXqXqX1XU I I U U U U qXeXrXiXuXiXiXrXrXrXrXeX0X0XqXwXqX0X2XyXaX<X4X4XyXA.Z.Z.Z.A.A.;XgXrXiXgXiXiXiXiXrXrXiXiX1X( ( ) ( ) I O O o . . O N P L L L K / ` 1X1X0X0X0XwXwXwXwXwXqXeXwXwXrXwXwXwXwXwXwXwXrXwXwXrXrXrXeXwXwXwXwXeXwXeXwXeXeXwXrXwXwXwXwXwXeXeXwXwXwXwXwXeXwXwXwXwXqXwXqXqXqXqXwXqX0X0X` O * O o . . .   . . . . ! ` ` ` 8X8X1X` ` ` ` 8X` ` ",
"F.F.M.C.C.B.V.V.B.I L I I P I L wXtXwXwXwXtXwXwXwXwXwXwXwXtXwXwXwXwXwXtXtXtXtXwXrXwXwXwXtXtXtXwXwXwXtXwXtXwXwXrXwXwXwXrXtXwXtXwXwX0XU U / ! U I , % $ $ $ O > 2 2 M 2 2 M I I I I I I ( kXzXjXjXzXkXkXlXkXkXkXkXkXlXlXlXlXlXkXkXkXkXkXkXlXkXkXlXlXkXkXkXjXjXkXlXlXkXkXkXkXkXkXlXkXkXhXjXhXjXjXgXgXgXgXgXgXgXiXiXrXwXtXrXrXO . . . o . * < 2 2 < 1 < $XJ.;X;X;X;X,XeXwXwXqX0X1XT U U U U U I wXeXtXrXrXrXrXrXrXrXtXwXtXrXrXeXwXwXqX4X4XaXaXaXuXG.Z.Z.Z.Z.Z.;XgXgXgXgXgXrXgXiXrXrXgXiX` / ( / / / U X O O o . O m K K N K V _ ` ` ` 0X1X0X0XwXwXwXwXwXeXeXwXrXwXwXqXwXrXrXrXrXrXtXrXtXrXrXrXeXtXwXrXrXrXwXwXwXrXrXwXtXrXwXwXqXwXwXwXwXwXwXwXwXwXwXwXwXwXwXwXwXwXwXwXwXwX8X* * O o o . . . . . . . U ` 0X8X8X8X` ` 8X` ` ` ` ` ",
"1.1.c.c.c.c.1.c.c.n.*.3.n.n.n.3.1.2.>.>.>.<.c.D.`.).).).`.).`.).D.D.D.D.D.D.D.A.D.`..X.X.X].OX_..X.XoX.XOX).(.).).).).D.Z.S.S.Z.Z.m.n.n.n.n.m.n.z x N x x x > O X O = = , C.n.n.n.n.m.m.M.M.S.S.C.H.H.A.D.A.A.G.H.H.H.H.H.H.G.`.6X:X6X:X6X`.}.}.}.}.G.`.`.`.`.}.`.`.@X6X7X7XdX7XdX7XdXdX7X|.7X7X7X7X7X|.7X|.7X|.|.7X6X5X>X< < > > < > O * * O O O O ,.<.<.<.w.<.<.<.2.6.2.6.2.c.A.A.H.A.S.S.K.G.`.D.`.`.`.G.G.G.G.G.H.A.A.Z.Z.H.A.i.<.<.<.<.2.y.w.w.w.o.7./.}.`.}.}.}.K.K.K.K.}.}.K.K.K.K.K.K.J.V.2 3 < < < < o O O * * * A }.}.}.}.}.}.G.}.}.}.`.).`.).}.}.D.`.V.C.C.C.B.B.V. X}. X).}.`.`.`.D.`.).`.`.`.).`.).`.`.|.oX.X.X.X|.|.oXoXoXoX.X|.oXoX|..XoXoXD.m.m.=.m.m.x.< 1 < < < < . .   .   . h n.n.n.z.n.z.x.c.Z.Z.Z.Z.Z.",
"c.c.c.c.c.c.c.v.v.c.=.x.x.x.x.=.y.y.r.y.y.w.I.].T.T.T.W.T.T.W.].T.T.T.Y.Y.I.Y.Y.(.W.ZXAXAXAXAXAXAXAXAXAXAXQ.R.R.R.R.U.U.c.c.c.A.A.v.c.c.A.c.c.v.S L I I I I < o . X O O ; c.Z.c.Z.Z.Z.c.c.c.c.c.Z.v.i.>.>.>.i.i.;.<.;.<.<.<.r.U.U.U.T.U.T.U.U.T.U.U.U.t.t.t.t.t.p.p.t.MXAXSXSXAXSXSXGXGXGXGXGXGXGXSXSXSXSXJXAXSXAXAXAXAXXXN P V N K V * . . o . O . ,.7.w.w.7.7.7.7.w.w.w.w.e.U.W.W.W.W.T.W.W.W.W.W.T.T.T.T.T._._.T.I.>.i.2.2.i.i.e.7.7.7.7.7.8.8.8.8.7.7.p._._.W.].].W.W._.T.W.W.T.ZXSXSXGXSXHXXXP I U U U V . . . . o o *.ZXXXXXZXAXXXW.].W.W.].Q.W.W.W.W.W.W.D.m.m.m.n.n.C..XXX[.W.W.].W.W.^.].W.].W.W.W.W.W.].W.AXSXSXSXAXSXAXSXAXSXAXAXSXAXAXSXAXSXSXT.c.c.c.c.c.=.m N m M m m . . o o . o h z.*.x.z.x.x.c.v.v.v.c.c.v.",
"c.1.1.2.c.c.c.c.c.=.x.x.x.m.z.=.w.;.;.y.y.y.i.W.W.T.W.W.T.T.].W.W.W.Y.Y.I.I.I.Y.Y.T.AXAXAXAXAXAXAXSXSXAXAXR.U.g.R.R.R.U.v.c.v.c.c.A.c.c.c.c.c.v.A I I I I I < . . X O O - c.c.Z.Z.Z.c.c.Z.c.c.c.Z.c.2.i.i.i.i.i.;.;.;.-.-.<.>.U.U.U.I.U.Y.U.T.T.U.U.U.U.p.t.u.t.t.t.u.AXAXSXSXSXSXSXSXGXSXGXSXSXSXSXSXSXSXSXSXAXSXAXSXSXAXN V V V K K O o . . . . o -.7.7.w.w.7.w.w.7.w.e.w.w.U.W.W.W.W.W.W.W.W.T.T.T._.T.W.T.T.T.W.I.>.>.2.2.i.i.w.8.7.7.7.7.8.8.7.8.8.7.p.T.W.].T.W.T.T.W.T.T.W.].ZXGXSXGXGXGXAXI T E T T L . . o o o o j AXAXAXAXZXXXQ.Q.Q.Q.Q.Q.W.W.].W.W.W.A.m.m.m.z.m.z.W..X[.W.].XX.X.X].W.W.W.W.].W.W.W.W.W.SXSXSXSXSXSXAXSXSXSXSXSXAXAXAXAXAXAXAXT.c.c.=.1.c.c.N m m m m M o o o o . o f *.=.z.z.z.x.c.v.c.Z.c.c.Z.",
"c.c.2.c.c.c.v.c.v.c.x.x.x.n.z.#.;.;.;.;.w.w.r.T.W.W.W.W.W.W.W.W.W.T.U.Y.Y.I.Y.Y.Y.W.AXAXAXAXAXAXAXAXSXSXAXQ.U.R.R.R.R.U.v.v.v.c.c.c.v.v.c.v.v.v.S I I I I I < . . . O O $ c.c.c.c.c.c.c.c.c.c.Z.c.c.>.i.>.2.2.>.;.<.;.<.;.<.>.U.U.U.U.U.U.U.U.U.T.T.U.U.p.t.t.t.t.t.p.ZXAXAXSXSXGXGXSXSXGXSXSXSXSXSXGXSXSXSXSXSXSXSXAXAXZXN L V P V N O . . . . . . -.7.w.7.7.7.w.w.7.7.w.w.w.U.T.W.W.W.W.W.T.T.T.T.W.T.T.W.T.T.T.T.I.2.2.2.>.i.i.w.8.8.8.7.7.8.8.8.8.7.7.p.].W.T.W.].T.W.T.W.W.].].ZXGXGXSXGXSXAXU T T T U L . . . o . . z.AXDXAXAXAXXXQ.].[.W.Q.Q.W.W.W.W.W.W.v.m.m.m.m.m.m.W.W.W.XX^.~.W.].W.W.].W.W.].W.W.].W.W.AXSXSXAXSXAXAXAXAXAXSXAXSXAXAXAXAXAXAXT.c.c.c.=.1.1.m m K N m M o . o o . o h *.*.n.z.z.m.Z.v.c.A.A.v.c.",
"c.c.c.v.c.v.v.v.v.1.=.x.x.x.m.$.o.o.o.;.;.;.i.T.W.].W.W.].T.W.].T.T.Y.I.Y.Y.Y.Y.U.T.AXAXAXAXAXAXSXAXAXSXAXQ.R.R.R.R.R.U.c.c.v.c.c.v.v.v.v.v.v.v.F I I T U I < o . . O O % c.c.c.Z.c.c.c.c.c.c.c.Z.c.i.>.i.>.i.>.<.<.<.<.-.<.>.U.U.Y.Y.U.U.U.U.U.T.U.U.U.p.t.t.t.t.t.t.NXAXSXSXSXSXSXSXSXSXGXSXGXSXSXSXSXSXSXAXAXAXSXSXSXZXN L V N L K * . . . . . . } w.w.7.w.w.w.w.w.w.w.w.w.U.W.W.W.W.T.].W.W.T.T.R.T.T.T.T.T.T.T.i.>.>.i.i.i.i.e.8.8.7.7.7.8.7.8.8.7.7.p.].T.W.T.T.W.T.W.].].W.].ZXGXSXSXSXSXXXU ~ T T U P . . . . o . z.ZXAXAXZXAXZX[.Q.W.W.~.[.W.W.].W.W.W.v.x.m.m.m.m.m.W.].^.W.^.^.W.W.].^.].W.W.].W.W.W.W.W.AXAXAXSXAXAXAXSXAXSXAXSXAXAXAXAXAXAXDXT.=.c.x.c.c.c.m N m N m M .     . o X h *.z.z.z.z.m.b.b.v.c.v.v.v.",
"v.v.v.v.v.v.v.v.v.x.c.x.x.x.=.@.o.o.o.o.o.;.i.W.W.].].W.].T.W.W.U.T.U.I.I.I.Y.Y.U.W.AXAXZXAXAXAXSXSXAXAXAXQ.U.R.R.R.R.U.c.v.c.c.v.v.c.v.v.v.c.v.F I I I I I < . . . . O % c.c.c.c.c.c.c.Z.c.c.c.Z.v.>.i.>.i.i.i.<.<.<.<.<.<.2.U.U.U.U.U.U.U.T.U.U.U.U.U.p.t.t.t.t.t.t.~.SXAXSXSXSXSXGXGXSXSXGXSXGXSXSXSXSXAXSXDXSXAXAXAXZXL V L V L P * . o . . . . } 7.7.7.7.7.w.7.w.w.w.u.u.T.W.W.W.W.W.W.W.W.T.T.T.U.T.W.T.T.T.W.I.>.i.i.i.i.i.e.8.8.8.8.7.8.8.8.7.w.8.U.W.T.W.W.W.W.W.].W.W.T.W.ZXGXGXSXSXSXXX! / / T E I . . . . o . 3.AXZXAXAXAXZX[.Q.Q.Q.Q.W.].W.W.W.W.W.v.x.m.m.m.m.m.W.XX]..XW.W.].].].]..XW.].W.W.].W.W.W.AXAXAXAXAXAXAXAXAXSXSXAXAXAXAXAXDXAXDXT.x.c.x.c.c.=.m K m K N N . .   o . . h z.z.z.z.m.m.c.v.A.v.v.v.v.",
"v.c.c.2.I.I.v.v.v.c.c.c.x.x.x.$.o.o.o.o.o.o.i.W.W.W.].].].T.W.T.W.T.I.I.Y.I.I.Y.Y.T.AXAXDXAXAXAXAXAXAXAXAXQ.R.R.R.R.R.U.c.v.c.v.v.v.c.v.c.v.v.v.D I I I I I < . O o . . % c.c.c.c.c.c.c.c.c.c.Z.c.c.i.i.>.>.>.r.;.<.<.<.<.:.2.U.U.U.U.U.U.U.T.U.U.R.T.p.p.u.t.t.u.u.r.ZXSXAXSXJXSXSXGXGXGXSXSXSXSXSXSXSXSXSXAXSXDXAXAXSXZXL P L L V K * o . . . . . | w.7.7.7.w.w.w.w.w.w.u.u.U.W.W.W.W.W.W.].W.W.W.T.T.T.T.T.T.T.T.i.>.>.>.i.i.i.w.8.8.8.8.e.7.8.8.7.7.7.U.T.].T.T.T.W.W.W.T..X].W.ZXSXSXSXSXSXXX/ ~ T / / I . . . . . . z.AXAXAXAXAXZXQ.Q.Q.Q.Q.Q.W.].W.W.W.W.A.m.m.m.m.m.m.W.W.^.W.W.W.].].W.W.W.].]..XW.W.W.W.W.ZXZXAXAXNXNXAXDXAXAXAXAXZXAXAXAXAXAXNXY.=.=.=.=.=.1.m N N K N m o o . . . . h z.z.n.n.m.x.c.A.v.v.v.A.v.",
"=.*.=.2.2.1.1.1.v.T.T.T.W.T.T.Y.I.I.I.i.v.I.v.c.c.c.c.c.c.I.Y.I.Y.I.Y.I.Y.I.I.I.Y.I.T.U.U.U.T.T.T.T.T.W.W.T.U.U.U.U.U.I.c.c.c.c.c.c.I.I.I.I.I.i.F I T I T I < X o O X . $ A.A.v.v.c.c._.W.W.W.W._.U.w.w.w.w.w.y.,.1.1.1.1.1.1.v.2.2.2.v.2.I.Y.I.I.U.U.U.r.;.r.i.>.>.>.v.v.v.c.v.c.I.U.T.Y.T.T.U.W.W.W.W.W.T.!.E.E.Q.Q.MXR.K P N V N N O o . . . . . %.$.,.,.1.1.1.i.i.i.i.I.I.v.I.v.v.v.v.v.v.v.v.v.v.v.I.T.T.U.T.U.U.U.U.T.U.T.R.R.E.E.R.E.R.p.p.U.p.U.U.T.T.T.T.T.T.T.T.T.].W.W.W.W.Q.XXQ.~.XX_.! / T T T I . . . . . . 3.).).)._.T.).v.A.A.c.Z.Z.A.A.D.Z.b.A._.W.W.].].].W.[.Q.XX~.Q.Q.[.XX~.~.XX~.[.W.W.W.W.W.W.U.Y.U.Y.I.v.v.c.c.c.c.c.c.T.W.].W.W.W.W.W.W.W.].W.(.N L K L L K o . . . . o j c.c.v.v.D.v.v.v.v.v.v.A.v.",
"*.#.#.1.1.1.1.1.v.W.T.W.W.T.T.U.I.I.I.I.I.I.c.x.c.c.c.c.c.v.I.I.I.I.I.I.I.Y.I.I.I.I.I.Y.I.I.I.Y.U.Y.Y.Y.U.Y.U.U.U.U.U.Y.c.c.v.c.c.c.I.I.I.U.U.t.F I I I I I < X . . . . = v.v.v.v.v.v.W.~.~.XXXXXXQ.8.7.8.e.w.w.1.,.1.$.1.1.1.2.v.1.2.2.c.v.I.I.I.I.Y.I.2.<.2.<.2.2.1.$.1.1.1.1.c.c.I.I.2.I.v.I.T.T.T.U.U.U.R.R.R.R.!.!.R.L N N V N N * . . . . o o *.=.=.=.=.=.1.I.I.I.I.I.v.c.c.c.c.c.c.c.c.Z.c.c.c.1.v.T.T.T.T.T.U.T.U.W.W.W.[.Q.Q.Q.Q.Q.Q.Q.W.W.W.W.W.T.T.W.T.T.T.W.W.W.W.].W.T.T.W.W.W.].].T.! ~ ~ ~ T I . . . . . . z.D.).).).).A.c.Z.Z.Z.Z.Z.A.D.A.A.b.D.W.~.Q.XX~.~.XXXXXXXX~.~.XXQ.~.XXXX~.~.Q.W.Q.W.W.Q.].U.U.U.I.Y.I.v.c.c.v.c.c.c.T.T.W.W.T.W.W.Q.Q.Q.[.[.W.N V K L K K o o o . . . j v.v.v.v.v.I.v.v.v.v.v.A.v.",
"=.*.=.1.1.1.1.1.c.T.T.W.T.T.T.I.I.I.I.I.I.I.c.=.x.=.=.x.c.I.I.I.I.I.Y.I.I.I.I.I.I.I.I.i.I.I.I.I.Y.Y.Y.Y.U.Y.I.U.U.U.U.I.c.c.c.c.v.c.I.U.I.I.U.p.F I I T I I < . . . . . $ A.v.v.v.I.v.W.NX~.ZXXX~.W.8.w.w.7.7.w.<.$.1.$.1.1.1.v.v.v.v.c.c.v.I.I.I.Y.I.I.2.;.2.2.2.2.1.=.=.=.=.=.x.v.v.2.2.v.v.I.U.T.U.U.U.U.R.R.R.R.R.R.R.m m N K N N * . . o . . . *.=.$.=.=.=.1.I.I.I.I.I.v.c.c.c.c.c.c.c.c.c.c.c.c.1.v.T.W.T.T.T.T.W.R.W.W.W.[.Q.[.Q.[.Q.Q.W.W.R.W.W.W.T.T.T.T.W.T.T.T.T._.W.W.W.T.].].W.].W.T.U ~ T T T I . . . . . . z.D.).).)./.A.Z.Z.Z.Z.Z.Z.A.A.A.A.D.D.W.XXXXXX~.XXXX~.~.XXXXXXXXQ.~.XX~.~.~.Q.W.W.W.W.W.W.T.U.U.I.I.Y.v.c.c.c.c.c.c.T.T.T.W.W.W.W.~.XXQ.~.[.Q.K L L V K N o o o . . . j v.v.c.v.D.v.v.v.v.v.b.A.A.",
"*.*.=.v.1.c.2.1.v.T.T.T.T._.T.Y.I.I.I.I.I.I.c.=.x.=.c.x.c.v.v.I.I.I.I.I.I.I.I.I.I.I.I.I.I.I.U.U.U.U.T.U.U.Y.Y.U.U.U.T.I.c.c.c.c.c.c.I.i.i.i.U.p.F T T T I I > o . . . . % v.v.v.v.I.v.W.XXQ.XXXXXXQ.8.e.e.w.8.e.<.1.1.,.1.1.1.2.v.c.v.2.2.v.v.I.I.I.I.I.>.<.2.2.<.>.>.=.=.=.=.=.1.2.v.v.v.v.v.I.U.T.U.U.T.U.R.R.R.E.R.R.R.K J m K N K * . . o o o . *.=.=.=.$.=.1.v.I.I.I.I.v.c.c.c.c.c.c.c.c.c.c.c.c.1.v.R.T.T.T.T.T.R.R.W.W.W.Q.Q.Q.Q.Q.Q.W.W.].W.W.W.W._.T.T.T.T.W.T.T._.T.T.T.T.W._.W.W.].T.).U T T T T C . . . . . . z.D.).).).).D.Z.Z.Z.Z.c.Z.A.A.A.D.A.c.W.Q.~.ZX~.~.ZXQ.Q.~.Q.XX~.~.~.Q.Q.Q.~.Q.Q.Q.Q.W.Q.].I.U.U.Y.Y.Y.A.c.c.c.v.c.c.T.T.W.W.W.T.].Q.Q.[.[.XXW.N V K V K m o . o . . . j v.v.v.A.v.v.v.v.v.v.I.Y.v.",
"*.*.=.1.2.1.2.1.v.T.T.T.T.T.T.I.I.I.I.I.i.I.c.=.=.=.=.=.c.I.I.I.I.I.I.I.I.I.I.I.I.I.I.I.I.I.I.U.U.U.U.Y.Y.I.I.U.U.U.U.Y.c.c.c.c.c.c.i.i.i.I.i.U.F I T T I I < o O X . O $ v.v.v.v.I.I.W.~.XXXXXXXXW.8.e.e.8.e.8.,.1.1.1.1.1.1.2.v.2.v.v.2.c.v.v.I.I.I.Y.2.<.2.1.<.2.1.=.=.=.=.=.=.v.v.i.2.v.v.v.U.U.U.T.U.U.R.R.R.R.E.R.R.V K N K N K * . . . .   o *.=.=.=.=.=.c.I.I.I.I.I.v.c.c.c.c.c.c.c.c.c.1.c.c.c.v.T.T.T.T.T.U.R.R.W.W.Q.Q.Q.Q.Q.W.W.Q.W.W.W.W.W.W.W.T.T.T.].T.T.T._.T.T.T.T.T.W.].W.].T.Y.U T T ~ T L . . . . . o n.D.).).).).A.Z.Z.Z.c.Z.Z.A.A.D.A.c.Z.W.~.~.XX~.XXXX~.XX[.Q.Q.Q.Q.XXQ.Q.~.Q.Q.~.Q.W.W.W.W.U.Y.Y.Y.Y./.v.A.c.v.c.c.c.T.W.W.W.T.W.W.Q.Q.~.XX[.W.N V N P N N o o o . . o j v.v.v.v.v.v.v.Y.I.I.Y.v./.",
"*.*.=.2.c.1.1.1.c.U.T.T.T.U.T.Y.I.I.I.I.i.I.v.=.=.=.x.=.1.I.I.I.Y.I.I.I.I.I.I.Y.I.I.I.I.I.I.I.U.I.U.T.U.U.U.U.U.U.U.T.I.c.c.c.c.c.c.I.i.i.i.i.r.D I I T I I > . . . . . $ v.v.v.v.v.v.W.~.~.XXQ.XXW.e.e.e.8.e.e.,.1.1.1.1.1.1.2.2.1.2.1.2.v.I.I.I.I.I.Y.I.>.2.<.<.2.1.=.=.=.=.=.=.2.2.2.v.2.v.I.U.U.U.U.I.Y.U.R.R.R.E.E.!.L N K L N N * . . . .   . *.=.=.=.=.=.1.I.v.I.I.I.v.c.c.c.c.c.c.c.c.c.c.c.c.c.v.T.T.T.U.U.T.W.R.R.W.Q.Q.Q.~.Q.Q.W.W.W.W.W.W.W.W.T.W.T.T.W.W.T.T.T._.T._.T.T.].W.W.W.W.).U T T T T V . .   . . o n.D.).).).Y.D.c.Z.Z.Z.c.c.D.D.A.v.c.Z.W.XXXXQ.~.XXQ.~.~.Q.Q.Q.Q.Q.Q.Q.~.ZX~.Q.Q.W.W.W.W.W.U.Y.U.I.Y.I.v.v.c.c.c.c.c.T.T.T.T.W.W.W.W.Q.[.~.XXW.N V N N N m o . . . . o g v.v.v.v.v.v.v.Y.v.I.I.I.v.",
"*.*.=.1.c.2.1.1.2.U.T.U.T.T.T.I.I.I.I.I.I.I.v.1.=.=.=.x.=.c.I.I.I.v.I.I.I.I.I.I.I.I.I.I.I.I.I.I.I.I.U.U.U.U.U.U.Y.U.U.I.c.c.c.c.c.c.i.i.i.i.i.r.D I I I I I > . o . . . $ v.v.v.I.I.I.].~.XXXXXXXXQ.8.e.e.8.8.7.,.1.1.1.1.:.1.2.2.2.2.1.1.2.v.I.I.v.I.Y.i.>.2.2.1.,.1.=.=.$.=.=.x.1.2.2.c.2.2.v.U.U.U.U.U.U.U.R.R.E.R.R.R.V L K K N K * o o . . . . k =.=.=.1.1.1.v.v.v.v.I.v.c.c.c.c.c.c.c.c.c.c.c.c.c.v.T.U.U.U.U.R.W.W.W.W.Q.Q.Q.Q.Q.Q.Q.Q.W.Q.Q.W.W.T.W.T.T.T.T.T.T.T.T._.T.T.U.T.W.W.W.W.W.Y.T T T T U L . . . . . . z.v.).).v.A.v.c.c.Z.Z.Z.c.D.D.D.Z.Z.D.].MX[.XXZX~.XXXXXXXX[.Q.Q.XXZXXXXXZXQ.[.W.W.].W.W.W.U.I.Y.T.T.I.v.v.c.c.v.c.c.W.W.W.W.W.W.W.Q.Q.Q.Q.Q.].N V L K K m . o o o . . g c.v.v.v.v.v.v.I.I.I.I.v.I.",
"h j j *.j *.*.*.*.*.#.#.*.=.=.1.2.v.2.2.v.v.I.I.I.I.I.I.I.Y.I.I.I.I.I.I.Y.I.I.I.I.I.I.I.I.I.I.U.U.U.I.I.I.v.v.c.c.c.c.v.U.U.T.U.U.U.y.o.;.;.w.w.A L I I L I > . . . . . @ =.1.x.=.c.=.c.v.I.v.v.I.I.u.t.u.t.r.r.<.-.-.;.;.<.;.w.;.;.w.w.;.i.I.Y.I.Y.Y.I.I.I.I.i.I.I.I.1.1.1.c.c.1.2.i.i.2.2.2.>.;.y.<.;.;.y.p.U.U.U.U.p.I.T T U E E / * o . . . . . j *.3.=.*.=.=.v.I.I.I.I.v.v.I.I.I.I.I.v.U.T.Y.U.U.Y.U.W.W.W.U.U.I.v.v.c.v.v.v.c.c.c.c.v.c.Y.U.U.U.T.U.U.Y.Y.U.I.Y.I.c.Z.c.Z.c.c.I.U.T.T.U.U.A.E T U U U V . . . . . . j A.A.D.Z.c.A./.I.I.I.I.I.y.w.w.u.e.w.w.w.7.w.w.w.u.w.w.w.w.w.7.X.O.X.X.X.X.;.R.T.W.W.W.W.T.T.T.T.W.R.I.I.v.I.I.I.v.T.W.W.W.W.W.W.W.W.W.W.W._.K N L L K N o o . . . . g c.c.1.1.c.c.I.I.v.I.I.I.Y.",
"f h g *.*.*.*.*.#.*.#.*.#.*.*.=.2.2.v.v.v.v.I.Y.Y.I.I.Y.Y.Y.I.I.I.Y.Y.I.I.Y.I.I.I.I.U.I.I.I.U.U.U.Y.Y.Y.U.v.2.c.1.c.c.c.W.].W.W.T.T.o.o.o.o.o.7.v C L C C I = o O . . . @ *.*.*.*.*.*.=.2.c.1.c.1.I.U.I.I.I.I.i.o.;.;.;.;.;.;.7.7.w.7.7.7.I.I.Y.I.I.U.Y.Y.U.U.U.Y.U.Y.c.c.v.2.v.v.v.i.I.I.i.i.<.;.o.o.o.o.o.r.p.U.U.U.U.U./ / / / / / * . . . . . . j *.=.=.4.=.=.c.I.Y.I.I.I.I.T.T.T.T.T.U.W.W.W.W.W.].W.W.W.W.W.R.I.2.2.c.c.c.Z.x.x.m.x.x.x.I.I.I.T.U.U.U.U.U.U.Y.U.v.3.4.m.m.z.n.v.T.T.T.T.T.v.U / T T U V . . . . . . j c.Z.c.c.Z.A.I.U.U.U.U.I.e.w.e.e.e.e.o.7.7.7.7.7.7.o.o.9.o.o.o.X.X.X.X.X.X.;.W.W.W.W.W.W.Q.W.W.W.Q.W.I.I.I.I.I.I.I.T.T.W.W.].W.].W.W.T.W.W.W.K V V P N m   . . . . . f 1.c.c.c.c.c.I./.I.I.Y.Y.I.",
"f h g *.*.*.j *.%.*.*.*.*.*.*.=.2.2.v.2.v.2.I.Y.Y.I.I.I.Y.Y.I.I.I.I.I.I.I.I.I.I.I.I.U.I.I.I.U.U.U.I.Y.I.I.v.v.v.1.c.c.v.W.W.W.T.].T.o.o.o.o.o.9.v C I I I I = o o o . O O *.*.*.*.3.3.x.1.1.1.2.c.I.U.Y.I.I.U.i.;.;.;.;.w.;.7.7.7.7.w.7.w.U.Y.I.I.I.I.I.I.I.I.I.Y.Y.Y.c.c.v.v.v.v.v.i.v.2.2.i.>.;.o.o.o.o.o.r.p.U.p.p.U.U./ / ~ ~ / / O . . . . . . j x.*.=.=.=.x.v.I.I.I.I.I.T.T.T.T.T.T.T.W.W.W.W.W.W.].W.W.W.W.W.I.v.v.c.c.c.c.m.m.x.x.x.x.v.U.T.U.T.U.U.U.U.U.Y.Y.v.4.m.x.x.x.x.c.U.U.U.T.T.A.U ~ T U U C o o . . . . S c.Z.Z.Z.Z.c.U.U.U.U.T.I.w.e.e.e.e.e.7.7.7.7.9.7.9.o.o.o.7.9.7.X.X.X.X.X.X.;.W.W.R.W.W.T.W.W.W.W.W.W.Y.I.I.I.v.v.I.W.T.W.W.].W.W.T.T.W.W.W._.m V K K L N . . . . . . f c.c.c.c.c.c.v.I.I.v.Y.I.I.",
"f f h *.*.*.*.*.*.#.#.*.*.*.*.*.2.2.v.v.v.v.I.I.I.I.I.I.I.I.I.I.I.I.I.I.I.I.I.v.I.I.U.I.U.I.U.Y.U.U.I.I.I.c.c.c.c.c.c.v.].W.].W.T.T.o.o.o.o.o.o.v D I L L I = . X o . . $ *.*.*.*.*.*.=.1.1.c.c.1.v.U.Y.Y.U.I.i.;.;.;.;.w.;.o.8.7.7.7.7.7.I.I.I.I.I.U.Y.Y.I.I.I.Y.U.v.c.c.c.v.v.v.I.i.v.i.2.2.2.;.;.o.;.o.o.r.p.p.p.p.p.p./ / ~ / / ( O O X . . . . j m.=.=.=.=.c.v.I.I.I.v.I.Y.T.T.T.T.U.U.W.W.W.W.W.W.].W.W.W.W.W.I.v.2.c.c.c.c.x.c.x.Z.x.x.I.U.U.U.U.U.U.U.T.I.Y.Y.v.x.x.m.m.m.x.v.T.U.U.T.W.v.T T T T U V . o . . . o b Z.c.c.Z.Z.c.I.U.U.U.U.U.u.e.e.e.e.8.7.7.o.o.9.7.9.o.o.o.o.9.o.X.X.X.X.X.X.;.W.U.T.W.W.T.W.W.W.W.W.W.Y.I.v.v.I.v.I.T.T.W.W.W.W.W.W.].W.].].T.N V N N L N . . o . . . h c.c.c.c.c.1.I.I.I.I.Y.Y.I.",
"h h h *.*.j *.j *.*.*.*.*.*.*.=.v.v.v.v.v.v.I.I.I.I.Y.I.I.I.I.Y.Y.I.I.I.I.I.I.I.Y.Y.I.I.I.I.U.I.I.I.I.I.I.v.c.c.c.c.A.v.T.W.W.].W.T.o.o.o.o.o.9.v I I L I I = . . . o o $ *.*.*.*.*.*.1.2.1.c.c.2.v.I.Y.I.I.I.i.o.o.;.;.;.w.7.7.7.7.7.7.7.I.I.Y.I.I.I.I.I.I.I.I.I.U.I.c.c.v.v.c.c.v.2.i.2.2.2.2.;.;.;.o.;.;.i.p.p.p.p.p.U.! / / / / / O . . . . . . j m.x.m.=.x.x.v.I.I.I.v.v.T.T.U.(.T.U.T.W.W.W.W.].W.W.W.W.W.W.W.I.v.c.v.v.c.c.m.x.x.x.x.x.I.U.U.U.U.U.I.U.U.U.I.I.v.x.x.x.x.x.m.v.(.T.T.T.T.v.T T T T T V o . . . O . j Z.c.c.Z.Z.c./.U.U.U.I.U.y.w.w.w.7.7.o.o.o.o.o.7.7.9.7.9.7.7.o.X.o.X.X.X.X.<.U.T.T.T.T.T.W.W.W.W.W.W.I.v.I.v.v.I.I.W.W.W.W.W.T.T.].].W.].]._.m N N L L N . . . . . . f =.=.c.c.c.1.I.I.I.I.v.v.I.",
"h h h *.*.*.*.*.j *.*.*.*.*.*.=.v.v.v.2.2.2.I.I.I.I.Y.I.I.Y.I.I.I.I.I.I.I.I.I.I.I.Y.Y.Y.I.I.I.I.I.I.I.I.I.c.c.c.c.c.c.c.T.T.T.R.T.T.o.o.o.o.o.7.v C L I I I * . . . o o = *.*.*.*.*.*.=.c.1.1.c.2.v.Y.I.Y.I.I.i.o.o.o.;.;.w.7.7.7.w.w.7.7.I.Y.I.Y.I.I.I.I.I.I.I.I.Y.I.c.c.2.v.v.c.2.2.2.I.2.2.<.;.;.;.;.;.;.p.p.p.p.p.p.I./ / / / / / * o . o . . . j m.x.=.=.x.=.c.I.I.I.I.v.U.U.T.T.U.U.T.W.].W.W.R.W.W.R.W.W.W.W.v.v.2.v.c.c.1.m.x.x.m.m.x.v.U.I.U.U.U.U.U.U.U.Y.U.c.=.x.x.x.x.m.v.T.T.T.T.T.A.T T T T U N . . . . . o b Z.c.Z.c.Z.v.Y.U.U.U.U.I.w.e.w.w.7.7.o.o.o.o.9.7.7.o.7.7.o.7.o.o...X.X.X.X.;.U.T.T.T.T.W.W.W.W.W.W.W.I.v.v.v.I.I.v.T.T.T.T.T.T.(.(.T.T.].T.T.m V N V P N . . . .   . f =.=.c.c.c.1.I.I.I.I.I.v.v.",
"h f h j j j j *.j *.*.*.*.*.*.=.2.v.v.c.v.v.v.I.v.I.I.I.I.Y.I.I.I.I.I.I.Y.I.I.Y.I.I.Y.I.I.I.I.I.I.Y.I.I.I.c.1.c.c.c.Z.c.T.T.U.U.T._.o.o.o.7.7.o.Z D I I I I = O O O O O = *.*.*.*.*.3.=.2.2.1.c.1.v.I.I.Y.Y.I.i.o.;.7.;.;.o.7.7.7.7.7.7.7.I.I.Y.I.I.I.I.Y.I.I.I.v.I.I.1.c.c.2.v.v.2.2.2.2.2.i.2.;.;.;.;.;.;.u.p.p.p.p.p.p.E ( / / / / * . . . . . X j x.4.x.=.=.c.c.v.v.c.v.c.Y.U.U.U.U.U.T.T.W.W.W.W.W.W.W.].W.W.W.v.v.2.v.c.c.1.x.=.=.m.m.=.2.U.U.U.U.I.Y.I.U.Y.Y.I.v.=.m.x.x.=.m.v.T.T.T.U.T.A.U T T T U N . . . O o . j x.c.x.m.m.c.I.I.I.I.I.I.w.e.w.e.e.w.o.o.o.o.o.9.7.o.o.o.o.o.o.X.X.X.X.X.} <._.T.T.T.T.U.W.W.W.W.W.W.I.v.v.v.I.v./.U.U.T.T.T.T.(.T.U.U.T.(.Y.N V V L V N . . . . o o f =.=.=.=.x.1.I.Y.I.Y.I.I.I.",
"i u i i u i i i i i i i f i f i g j *.#.*.#.=.*.*.=.=.=.1.=.=.=.1.1.1.1.1.1.1.1.1.1.c.1.1.c.1.2.c.1.1.1.c.=.=.=.=.=.*.=.1.c.c.Z.6.1.} } } } X.} 8 % 8 u u u - > > < > > = h h j h h j j *.*.*.*.*.=.1.c.1.1.2.2.8.e.8.8.8.8.8.8.8.8.7.7.7.i.v.v.c.v.v.2.v.2.v.v.c.2.c.=.1.1.c.c.1.2.2.2.2.2.2.1.1.>.<.2.2.>.i.i.i.i.i.i.2.A A v A A Z = O X . . . . f h g g g g j j j j g j g 1.1.1.c.v.v.Y.Y.U.I.U.U.U.U.T.T.U.U./.c.1.1.1.1.1.=.=.=.=.=.x.=.c.I.I.I.v.I.I.I.I.v.c.c.=.=.m.m.m.m.n.x.v.v.c.c.v.1.N N N N N < . . o . . . - u u u i i f -.X.X.O.X.-.8.8.8.8.8.e.o.o.o.o.o.o.X.+.k %.d d %.k j *.j j j *.c.v.v.I.v.v.v.I.I.v.v.v.c.1.c.c.c.x.6.=.=.*.=.=.=.=.=.1.1.1.=.=.N K N V N N . . . . . . u h f f h f j *.*.*.*.=.*.*.",
"i i i i u u i i u u u u i i i i i i i u i i i u u i i u u u u u u u u i u u t u i u i i i i i i f p p i f h f f f h f f i f i i f i } } } } } } 7 # # % 8 ; - > > < = > > h h h h h h h f h h f f g *.*.*.*.*.&.8.8.8.8.0.8.8.8.8.8.8.8.8.w u i i u u u i i i i s i i u u t t t u i f i i i f *.=.z.n.n.x.m.f t u t 8 8 8 y i u u t u % . X . . . O i f f h h f f f f f f f f f i i i i i f i i i i i p p f f f s f p i i i i f f f f f f f f f f f f f f f f f h g g j 3.3.j 3.n.z.3.*.$.=.=.*.*.< , , > > = X o . . . . - ; u u t u s } X.} X.X.-.8.8.8.8.8.8.o.X.o.o.o.o.X.k d g g d d g j j j j g g g f f f h h j g j g f j j *.*.*.*.*.*.*.*.*.*.*.*.=.$.=.$.$.=.*.N V V N V N . . . . . . u h h h f i h *.*.j j *.j j ",
"u u i i i i i i i i i i i i i i i i i i i i i i i u i i i i u i i i i i i i i i i i p i i i f f f i f i f f f f h f f f f f i f i i } } } } } } 7 # % % # % = > > > > > = h h h h f h h f h h f f g *.j *.*.*.&.0.8.8.8.8.8.8.8.8.8.8.8.8.r i i i i u y i i i i i i i i u i i u u f f f i i f *.m.z.n.z.x.x.h t t 8 8 8 8 y u t t u t % X . . . . . i h f f f f f f f f i f i f i i f f i f i i i i i i p f f i f f i i i i i i f f f f i i i f f f f f f f f f f f f f b j *.*.n.n.*.=.=.=.=.=.*.> , > > > = X o . o . . - u t u t u s @.} X.-.@.} 8.8.8.8.8.8.o.X.X.X.o.o.X.k g g g k d j j j j g g g j f f f f f j g j j f g j *.3.*.3.*.*.*.*.*.*.*.*.#.=.$.$.*.$.*.N N N V K M . . . . . o u i p f p p f j j j j *.j j ",
"u u u i i i i i i i i i i i u i i i i i i i i i p f i i i i i i i i i i i i i i i i i i p i i i i i f i f f i h f p i i i i i i i f [ } } } } } 7 # # # % % = > > > > < > h h h h f h h f f f f f g *.*.*.*.*.&.8.8.8.0.8.8.8.8.8.8.8.8.8.s y u i i u i i i i i i i p i i i u t i f f f f f f *.n.z.n.z.3.*.f t t 8 8 8 8 t t 8 8 t t % X o . . . . i h i h p f f f i f i i i i i i f i i i i i i i i i i f f i i i i i i i i i i i f i i i i f f f f f f f f f f h f h j j j b b 3.*.=.=.=.=.=.*.> > < > > = . . . O . . - u u u u u s } | } @.@.@.8.8.8.8.8.8.X.X.X.X.X.X.} k g g g g d j j j j j j g f f f f h h h j j j h h j *.*.*.*.z.*.*.*.*.*.*.j =.=.=.=.$.$.*.N V V V V M . . . . . . u i p i p i f j j j *.j j g ",
"u i i i i i i i i i i i u i i i p i i i i i i i i i i i i i i i i p i i i i u i i i i i i i i i i f f i f f i f p i i i i i i f f f X.} } } [ } 7 % # % % % - > < , > > < h h h h p h h h h f h f j *.*.*.*.*.&.8.8.8.8.8.8.8.8.8.8.8.8.8.s y y u i u u i i i i i i i i i i i t u f f i f f f *.z.n.n.3.*.n.f t t t t 8 8 t t t t t t % X X X . . o i h i f p f f f i i f i i i i i i i i i i i i i i i i i i i i i i i p i i i f f i i i f i f f f f f f f f h f f f j j j b b j 3.*.=.=.$.=.=.#.< , > > > = O X . o . o - u u u u u s } } } } @.@.8.8.8.8.8.8.X.X.X.X.X.X.} g g g g g k g j j j j j j f f h h f f f h f j h h j j *.*.*.*.*.*.*.*.*.j j =.=.=.=.=.*.*.N N V N N M . . o . . X u i i f i i f *.*.j j j j j ",
"i p p i i p i i i i i i i i i i p i i i i i i i i i p i i i p p i p i i i i i p i i i i p p i f f p f p p h f f h p h p f f h h f f } } } } }  .7 % # % % % - , , , > , , h h h h h h h h h f h i g j *.*.#.*.*.8.8.8.8.8.8.8.8.8.8.8.8.8.s i y y u y i i i i i i i i i i i i p p h f f f h f *.n.n.n.n.n.z.h t t t 8 8 8 8 y t t u t $ X X X . . O i f h f f i f f i f f f i i i h p i p f f f f f h f f h h h p p i p p i i f f i i p i i i f f f f f f j f f h h h h j j H H j 3.*.=.=.=.=.=.*.> > > > > > . . . . . O - u u u u u f X.X.O.X.X.-.8.8.8.8.8.7.o.O.X.X.X.O.} d d k g g g g j j j j j j f f f f f f f g h f g j j *.*.*.*.*.*.j j j *.*.*.*.$.=.=.1.1.=.m N V V N 2 . . o . . . t h p p h h h j j j j j b b ",
"O X O O X X . . . X X X X X X X X X X X X X X X X X X X X X X X X X X X X X X X X X X X X X X X X O X X X O X X X X $ $ $ @ @ X $ $ [ [ [ [ [ } 0 6 6 6 6 9 i 9 t u u t u 8 t t 8 t u t t 8 8 8 8 s +.%.+.&.&.,.8.8.8.8.8.8.8.8.8.8.8.8.8.w 9 8 8 8 8 t % $ % % % % % @ $ $ $ $ $ - $ % $ $ $ u u u u u u u # 8 8 6 6 6 & t t 8 8 8 # $ o X . X O . $ % $ % % = % $ % % $ $ $ % $ $ $ % $ $ $ $ $ % % % $ $ $ % $ $ $ $ $ $ $ % = $ $ $ $ $ $ % $ % - - % % % % % % % ; ; - - - ; u i S F F S F S 2 1 < < < > o . . . . o O $ $ $ = = % 8 9 7 6 8 6 w w w w 7 w 7 4 6 7 6 6 6 # # % $ # % $ $ $ = = $ $ $ $ $ $ % $ % $ $ $ % % $ % ; % % ; % $ $ % % - % i f f f f f z N N N N N 2 . . . . . o O $ = $ $ $ $ $ % % % % % $ ",
"  . .   . .         . . . .   .     . . . . . . . . . o .   . .       . . . o   . . . . . . . . . . . . . o .     . . . . . . . o X } [ [ [ [ } [ [ } [  .[ [ [ [ ] [ { e & & 4 4 4 & 6 4 4 4 4 4 ] 8.8.0.0.0.8.8.8.8.8.0.8.0.8.0.8.8.8.0.w 7 7 5 7 5 & o X . . . . . . . . . o o o o o O X o . X X . . . . & q q ] e e r P L L L V L 1 . o X . . . . o . . . . . . . . . . . . . . o . . . . . X . . . . . . o o o . . o . o . . . .     o . . . . . . . o . o o . . . . o o . . . > I T T U T T V L N V N 2   . . o . . . . o . . . . . . o X X . . o O O X X X X . . . X . . X . . . . o . . o . o . . . o . . X o o . . . . . . X o . . . . . . . O . - i i i i i a m N N N N 2 . .   . . . . . . . . . . . o . . . . . ",
". . . . . . . . . . . . . . . . . . . . . . . . . . . . . . . . . .   . . . . . . . . . . .   . . .   . o . . . . . . X . . . . . X } [ } [ [ } } [ } [ } } } } } } ] { q & & 6 & 6 6 4 4 4 4 5 4 { 8.8.8.8.8.8.8.8.8.8.0.8.8.8.0.8.8.0.8.5 5 5 7 7 w 6 X X . . . . o . . . . o . . o . . . . . . . . . . . # q q q q q r P P P V V L 1 o o o o . . o . . . . . . . . . . . . . . . . . . . . . . . . .   . . .     . . . . . . . . . . . . O . .     . .   o .     . . . . . . . o = U I U I T I N N N N N M . . . . . . . .   . . . . o . . . . . . . . o . . . . . . . . . . . . . . .     . . o . . . . . . .   . . . . . . o . . o . . . . o . . X o - i p u u u i N N N N N 2 . . . . . . . . . . . . . . o . . . . . ",
". . . . . . . . . . . .   . . . . . .     . . . . . o . . . . . . o . o . . . . . . . . . . . . . . . . . . . . . . . . . . o . X X } [ [ } } } [ [ [ [ [ } } { } [ ] ] q # & & & & & 4 4 4 4 5 4 } 8.8.8.0.0.8.8.8.8.8.8.8.0.0.0.8.8.8.0.w 7 5 5 7 5 6 X . . . X . o . . . . . . . . . . o . . X o . . . X # q q q q q w P I L L P V 3 . . . . . o . . . . . o . . o . . . . . . . . . . . . . . o . . . . . .   . . . . . . . . . . . . o o o . o . o . . . . . . . o . o . . . O * I I I I I I N N N N K M . . . . . . . . . o . o . o . . . . . o . . o O X . . . . . . . . . . . . . o . o o o o . . . X . .   . . . .   . o o . o .   . . . o . X . - i a u i i i N N N B N 2 . . . .   . . . . . . o . . . . . . . . ",
". . . . . . . . . . . . . . . . . . . o . . . . . . . . . .   . . . . . . . . . . . . . . . o . . . X . . . . . . X X . . . X X . O } [ } } } } [ } } } } } } } { { ] ] e # & & & 6 & 6 4 4 5 5 4 [ 8.0.0.0.8.8.8.8.8.8.8.8.8.8.8.8.8.8.8.7 5 5 5 5 5 6 .   . . . . . . . . . . o . . . o o . . X O X X . O & q q q q q r P L L L P P 2 . O . . . . . o . . . o o . o . . o . o o . . . . . . . . . . o . . o . . . o o . . . . . . . . . . . . . . . . o . . . . . . o o o o . o o * I I I I I I N N N N K m . . . . . o . . . . o o o . . . . . . . . . . o O . . . . . . . . . . . o . o . . o . . o . . . . . . . . . . . . . . . . . . . . . X X X . - i i i i i i N N N N M 2 . o o . . . . o . . . o . . . . . . . . ",
". . . . X X . . . o . . . . . O . . . o o . . . . . o . . . . o . . . . . . . . X . . . . o X X . o X X X . . X O X O X X X X X . o [ [ [  .} } [ [ [ [ } [ } [ [ { { { q # & & & & 6 4 4 5 5 5 5 } 8.8.8.8.8.8.8.8.8.8.8.8.8.8.8.8.8.8.8.0 7 5 5 5 5 4 . o X O   . . . . X . X O . o . o O X X O O X X X . & q q q q q r P P P P L K < . o . o O o O . . . X . o o o o o o o . . . . . o . o X . . . . . . . . . . . . . . . . o o o . . . X X o . . o X . X O . o o . . O . . . o * I I U I I I N N N N N 2 . . . o . . . O X o o o o . O o . O o . X o o . . . . . . . . . . . . . o o . . . o . O O . . . . . o . .   . . . . . . o o . . . . O X X X - a u a p p i N N N N m 2 . O . . o o . . . . . . . . . . . . . . ",
"O X O O O X O O O O O O O * O * O * * * O O O O O O O o o . . X X o . . . . . . . X O X @ @ $ $ % % % % % % % $ % - % % % % % $ % % } } [ } } } } } } } } } X.} } [ [ [ { & # # # & & 6 4 4 4 5 5 } 8.0.8.8.8.8.8.8.8.8.8.8.8.8.8.8.8.8.8.5 7 5 5 7 5 4 o o . . . . . X . O .   . . . . . . . . . .   . .   # q q 0 0 0 w K K P K J J < . . . . . . . . . .   .   . . X . . . . . .     . . . . . . . o o X O . . o o . . . . . o o o . . o . X . . . .     . . .       .       . . O P P I P I I M M m N M 2 . . . . . . . . . X . . . . . . . o . X X o . o o . . . . O . . . . . . . . . . . . O . .       . . . . .     . . . . . . .   . .   . . . X - u u u u t u 2 2 M M M < . o o     .   .       . . .         . o ",
"rXiXiXiXrXrXrXiXiXiXuXiXiXiXrXiXiXgXgXiXiX1XI I I I P I < < 3 2 2 1 O . . . . . o v.c.v.v.v.v.XXAXSXAXSXAXXXZXXXXXAXAXXXZXZXXXXXXXXXu.e.u.w.u.u.g.ZXVXVXVXVXVXy.o.o.o.o.X.wXrXiXgXiXgXF.o.o...o.X.7.8.0.0.8.8.8.0.8.8.8.8.8.8.8.8.8.8.8.8.7.7.7.8.8.8.9.o.o.X.X.X. .| ) rXeXrXrXeXeXeXwXrXrXrXrXwXwXeXeXeXqXC.,.,.,.,.&.,.tXrXrXrXrXrXrXrXrXeXrXrXrXwXrXrXwXrXrXrXrXrXeXrXrXrXrXrXtXrXrXrXrXrXrXrXiXrXrX/ U U ! ! U < o . . . o < L I I I P P 0XjXgXjXgXgXgXgXgXgXrXjXgXgXgXgXrXgXgXgXgXiXgXgXgXgXgXgXgXgXgXiXrXeXeXrXiXiXrXrXiXiXiXrXeXiXiXrXiXiXrXiXiXrXrXrXtXI U U U U I > . . . . o . < V P P L K U eXtXiXrXrXrXrXtXrXeXiXrXwXwXrXwXeXrXwXiXrXrXrXrXiXiXuXuXqXeXeXrXwXwXwXwXwXqX0X0XwXwX0X0X0X1X0X1X0X0X0X0X0X1X1X1X0X1X",
"iXiXiXiXiXiXrXrXiXiXuXiXiXuXiXiXiXiXiXuXuX*XI I I I P I < < 2 1 2 1 O . . . . . . I.v.v.v.v.v.ZXAXAXDXAXAXXXXXXXXXXXXXXXXXXXXXXXXXXXw.u.u.y.y.y.R.VXVXVXZXZXZX7.o.o.o.o.O.gXgXgXgXjXgX@Xo.o.o.o.o.7.0.0.0.0.8.8.8.8.8.8.8.8.8.8.8.8.8.8.8.8.8.8.8.8.8.7.9.o.o.o.9.9.o.qXhXkXhXhXhXhXhXgXgXjXgXgXgXgXjXgXjXjX@X,.,.,.,.,.,.gXiXgXjXgXjXjXjXhXgXjXjXjXjXjXgXgXgXjXjXjXjXgXjXgXjXgXgXjXgXjXgXiXgXiXiXiXiXiX/ / / / / ! M o o . . . < P I I I I I rXlXlXlXlXlXlXlXlXlXkXkXkXkXjXkXkXkXkXkXkXkXjXjXkXjXjXgXkXjXkXgXgXgXgXgXgXkXgXgXgXgXgXgXgXgXgXgXgXgXgXgXgXiXgXiXwXI I U I I I > . . . . o o < L L L L P / gXgXgXgXgXgXgXgXiXiXiXiXiXiXiXiXgXrXeXgXgXiXgXgXgXiXiXiXiXiXiXiXiXiXiXiXiXiXgXrXrXiXiXiXrXrXrXiXiXiXiXiXiXiXiXrXiXuX",
"iXiXiXiXiXiXrXuXiXiXrXiXiXiXiXiXiXiXuXiXiX1XI L I P L L < < < 2 1 2 * o . . . . . I.v.I.c.v.v.XXAXAXAXAXAXXXXXXXXXXXZXXXXXXXXXXXXXXXw.w.w.u.w.w.g.VXZXVXZXVXZX;.o.X.o.o.O.gXgXgXgXgXgX@X..o.o.o...7.0.0.8.8.8.8.8.8.8.8.8.8.8.8.8.8.8.8.8.8.8.8.8.8.8.7.o.9.o.9.9.9.9.qXiXgXhXhXjXkXkXgXjXhXgXhXjXjXjXhXjXjX@X1.,.,.,.,.,.rXgXjXjXjXkXgXgXhXjXjXjXjXjXjXjXkXjXjXjXjXjXgXjXgXjXkXjXjXjXjXgXiXgXiXiXiXiXiX/ / / / / ! M o o o o . < I I I I I I tXlXlXlXkXkXlXkXlXlXlXkXkXkXkXkXkXkXjXkXkXjXkXjXkXkXjXjXjXjXgXgXiXgXgXhXjXhXgXgXgXgXjXgXgXgXjXgXiXgXgXgXjXjXgXgXrXU U ! ! U U > o . o o o . < N L L L P / gXiXiXgXgXgXgXgXiXiXgXiXiXiXiXiXrXiXiXgXgXiXiXiXgXiXiXiXiXiXgXiXiXiXgXiXiXiXiXiXiXiXiXiXiXrXrXiXiXiXiXiXiXiXiXiXiXiX",
"iXiXiXiXiXiXrXuXiXiXiXuXiXiXiXiXiXiXiXuXiX*XI I I I I I < < < < 1 < * . . . . . . I.v.I.v.v.v.XXAXZXAXAXAXXXXXXXZXXXZXZXXXXXXXXXXXXXw.w.w.y.w.w.g.ZXVXZXZXVXZXo.o.X.o.o.O.gXgXjXgXgXgX@Xo.o.o.o.o.8.0.0.0.8.8.8.8.0.8.0.8.8.8.8.8.8.8.8.8.8.8.0.8.8.8.8.o.9.o.9.9.9.o.qXgXhXhXjXjXjXhXhXjXhXjXkXjXjXjXjXjXjX;X,.-.,.-.,.,.iXgXjXgXjXjXjXjXjXjXjXjXgXjXjXjXjXjXjXjXjXjXgXjXjXjXjXgXgXjXjXgXiXiXiXiXiXiXiX( / / / ! ! m o o o o o 1 I I U I I I tXlXlXlXlXlXlXlXlXlXkXkXlXkXlXlXlXkXkXkXkXkXkXkXjXkXkXjXkXjXjXgXgXgXhXhXgXgXjXgXgXjXjXhXiXgXjXjXgXjXgXgXgXgXgXiXrXI U U U U U > o . . . o . 1 V P I L P / gXgXgXgXgXjXiXgXgXiXiXgXgXiXiXiXiXiXiXjXiXgXjXgXiXiXiXiXgXgXiXiXiXiXiXiXiXiXiXgXiXiXiXiXiXiXiXiXrXiXiXiXiXiXiXiXiXiX",
"iXiXiXrXiXiXiXiXrXuXrXiXiXiXiXiXuXiXuXuXiX) I I I I I L < < < 1 < < * . . . . .   I.I.I.v.v.I.ZXAXAXAXDXZXXXXXXXXXXXXXXXXXXXXXXXXXXXw.w.y.y.y.u.g.ZXZXZXVX[.ZXO.X.o.o.o.O.fXgXgXjXgXgX;Xo.o.o.o.o.8.8.8.8.8.8.8.8.0.0.0.8.8.8.8.8.8.8.0.0.8.0.0.8.0.8.8.9.9.9.7.9.o.o.uXgXhXgXgXjXhXkXhXhXjXjXjXjXjXjXkXjXjX;X-.,.-.,.-.,.gXgXjXgXjXgXhXkXhXjXgXjXgXjXjXjXhXgXgXgXhXhXjXiXhXgXhXgXjXjXjXgXgXgXiXiXiXiXrX/ / / / / / M . o o o o M I I I I I P tXlXlXlXlXlXkXlXlXlXlXlXlXlXkXlXlXlXkXkXkXkXkXkXhXkXjXkXkXjXjXgXgXgXjXjXhXgXgXgXkXiXjXjXjXgXkXjXjXjXkXhXgXgXgXgXrXU U ! U U U > . . . . o o < V V P V K / gXgXjXgXgXgXgXgXiXgXgXgXiXgXiXiXiXgXiXgXgXgXjXjXgXgXgXgXiXgXgXiXgXiXgXiXiXiXiXiXiXiXiXiXiXrXiXiXiXiXiXiXiXiXiXiXiXrX",
"iXiXrXrXrXiXiXrXrXiXiXiXiXrXrXiXuXuXeXuXiX) L I L P L P < < 1 1 < < O . o . . . . I.I.I.I.I.I.ZXAXAXAXZXAXZXZXZXXXXXZXZXXXXXXXXXXXXXw.w.w.w.w.y.p.VXZXZXZXZXVX7.o.o.o.o.O.gXgXgXgXgXgX;X..o.o.o.o.8.0.8.8.8.8.8.8.0.8.8.8.8.8.8.8.8.8.0.0.0.0.0.8.8.8.8.9.7.7.7.9.o.o.uXgXjXgXhXgXjXjXhXjXjXkXkXkXjXkXjXjXgX;X-.@.-.-.,.,.gXgXgXgXgXgXgXjXjXjXgXgXjXjXjXjXjXgXgXjXjXjXjXjXjXjXjXjXjXjXiXgXgXiXiXiXiXiXrX/ / / / / U m . . o O o 3 I U U U U I tXlXlXlXlXlXlXlXlXlXlXlXlXkXkXlXlXlXkXkXkXkXkXjXkXkXkXjXjXkXkXgXhXhXjXjXgXjXjXjXjXjXkXjXjXjXjXjXjXgXgXgXgXgXgXiXrXU ! U U ! U > o . .   . O 3 V L L V K _ iXgXgXgXgXfXgXiXiXgXgXgXiXiXgXgXiXgXiXgXgXgXgXgXgXgXgXgXjXgXjXgXgXjXrXrXiXiXiXrXgXrXfXrXiXrXiXiXuXrXrXfXiXiXrXiXiXiX",
"A./.I.I.I.v./././.I.v.I./.I./.T.XXXXXXXXXXXX.X.X.X.XOXD.N V V V L V = . . . o . o I.Y.Y.Y.U.Y.I.v.v.c.v.v.v.c.v.c.v.c.c.x.1.c.=.1.1.X.X. .X.X.X.O.e.d.d.d.e.e.9.9.o.o.o.o.'.(.R.{.{.{.p.9.o.o.o.o.8.0.0.0.8.8.7.o.o.o.o.9.o.7.7.8.8.8.8.8.8.8.8.0.8.8.8.7.8.8.7.7.7.7.G.G.K.K.K.G.K.}.K.K.K.K.6X}.}.`.}. X}./.r.i.y.r.>.i.`.`.`.`.`.`.}.}.`. X`.`.}.`.}.).). X`.K.G.F.G.G.F.G.|.oXoXoXoX|.|.|.|.|.|.OX'.R ' / / / _ N o . . o X f 2.6.2.2.2.2.i./././.'./.).`.`.`.`.`.`.|.|.'.'.'.|.`.H.G.G.G.A.G.|.|.7X|.7XoX|.|.|.oX|.|.|.'.OX'.'.'.`.`.).).).).`.|.|.|.|.|.|.).'.'.'.`.).h 2 1 2 < 1 3 c h v b h j Z.oX.XoXoXoXoXoXXXoXoXoXoXS.S.M.M.M.S.M.oXAXAXAXAXAX[.g.g.g.l.g.g.oXAXoXAXAXXXoXHXoXoXoXoXoXA.A.2.A.A.A.G.`.D.`.`.).`.",
"v.I.v.I.I.v.v.v.v.I.I.v.I.I.I.W.ZX~.XXNXZX~.XXXXZXXXXXT.I I I I I U > o . . . o o Y.Y.U.U.T.U.I.v.v.c.c.v.c.c.1.c.c.c.1.=.x.=.x.=.1.O.X. .X.X.X.o.8.8.8.8.8.7.9.o.9.9.o.9.E.E.E.E.E.E.p.9.9.9.9.o.7.0.0.0.a.0.7.X.X.X.o.o.X.o.7.8.8.7.7.8.8.8.8.8.8.8.8.8.8.8.8.7.7.7.v.A.A.A.c.c.v.v.v.c.c.c.I.T.U.Y.U.U.U.T.T.T.T.T.W.T.(.T.U.T._.T.T.T.T._.U.Y.U.Y.U.T.U.U.I.A.A.Z.Z.A.Z.A.XXDXZXZXZXZXXX].W.W.W.W.W.B.' ) ` ) ( T . o . X . h 2.2.i.2.2.2.w.u.w.w.r.p.p.i.i.i.i.i.i.p.p.p.p.p.p.i.2.2.2.2.2.2.XXXXXXXXXXXXXXXXXXoX.XXXXX].W.T._.T.(._.(._._._._.XX.XXX.X.XoX].XXXX[.XXXXm.K K N N m m z j k j j j 1.ZXZXZXXXZXZXSXAXSXAXAXZXc.Z.M.M.M.Z.m.AXFXSXSXSXSXVXvXvXs.s.s.s.AXGXSXSXSXSXSXSXGXGXSXAXZXy.w.;.;.;.;.i.U.U.I.U.U.T.",
"v.I./.I.v.v.v.I.v.v.I.I.I.I.I.W.ZXNXZXZXNXXXXXXXXXXX~.T.I U I I I U < . . o . . . Y.I.T.Y.U.(.I.2.v.c.c.v.c.c.c.c.c.1.1.=.=.=.=.1.1.X.X.X.X.X.X.o.8.8.8.8.8.8.o.o.9.9.o.o.[.E.[.[.{.E.g.9.9.7.9.o.8.0.0.0.0.0.7...X.X.X.X.X.9.7.8.8.7.7.7.8.8.8.0.0.8.8.8.8.8.8.7.7.7.v.A.v.v.c.c.v.c.c.c.c.v.Y._.T.U.U.T.U.T.T.R.T.T.T.T.W.T.T.T.(.T._.T.T.U.T.U.(.U.T.T.Y.U.Y.A.Z.c.A.Z.Z.D.ZXZXAXDXZXZXXXT.].W.].].].B.` ` ) ' ) I . . . . . h 2.2.2.2.2.i.w.u.u.u.r.r.i.i.i.r.i.i.i.p.p.d.d.p.p.i.1.2.2.2.2.2.XXXXXX.XXX.XXXXXXXXX.XoX.XW.W.T.T._.(.T.(.T._._._.XXXX.X.XoX.X[.[.XXXXXXXXS.N K N K K N z j j j j *.2.ZXZXZXAXZXAXAXSXSXAXAXZXZ.M.x.M.c.S.m.AXSXSXSXSXSXMXs.j.s.s.s.s.SXGXSXGXSXSXSXGXSXSXSXSXZX;.;.;.;.;.<.I.U.U.U.U.U.U.",
"I.I.Y.Y.I.v.v.I.I.v.v.v.v.v.v.W.ZXZXZX~.ZXZXXXXXXXZXXXT.I I I I I I > . .   . . . Y.I.).T.T.T.v.v.v.c.v.v.c.1.c.c.1.1.1.=.1.1.x.x.1.X.X.X.} X.X.o.8.8.8.8.8.8.o.o.7.9.9.7.[.E.E.R.{.{.p.o.9.o.o.o.8.0.0.0.0.8.8.X.X.X.X.X.X.9.8.8.8.8.8.7.8.8.8.8.8.8.8.8.8.8.8.8.8.8.c.v./.c.c.v.v.v.v.2.2.i.Y.T.(.T.U.T.U.R.T.W.T.T.T.T.U._.T.T.T.T.T.T.U.U.T.T.T.T.U.U.Y.I.Y.v.Z.c.c.Z.Z.A.DXZXZXZXDXZXXXT.W._.W.W.W.+X( ' ) ' ) I o . o o o g 2.2.2.2.2.>.w.u.r.u.w.u.r.i.i.i.i.i.i.u.p.p.t.t.p.i.1.1.c.1.2.2.[.XXXXXXXX.X.XXX.X.XXX.X.X].]._._.T._._._.(._.(._.XXXXoXoX.XoX[.XXXXXXXXZXZ.N N K K K K p j h j j j v.ZXXXZXZXZXZXSXSXSXSXAXAXc.c.M.Z.Z.x.m.AXSXSXSXSXSXMXs.s.s.s.s.s.AXSXSXSXSXGXSXSXSXSXSXAXAX<.<.;.;.;.;.I.T.U.T.T.U.U.",
"I.I.I.I.I.v.v.I.v.v.v.I.v.v.I.W.~.NXZXZXZXZX~.XXXXXX~.(.I I I I I I > . . . . . . Y.Y.Y.Y.T.T.v.v.v.v.c.v.v.c.1.c.1.2.1.=.=.=.=.=.$.X.X.O.O.X.X.o.8.8.8.8.8.8.o.o.9.o.o.7.[.[.E.E.[.E.p.9.7.9.o.o.8.0.0.0.0.0.7.X.X.X.X.X.X.9.8.8.8.8.8.8.8.8.8.8.8.8.8.8.8.8.8.8.8.8.c.v.v.A.v.v.v.v.v.v.2.2.Y.T.T.T.T.T.U.T.U.T.T.R.T.T.W.T.T.T.].T.T.U.U.U.U.U.U.U.U.T.Y.U.Y.v.Z.c.Z.Z.Z.A.ZXZXZXZXAXDXXXW.W._.].W.].+X( ' ( ) ( I . . . . . f 2.2.2.2.2.2.y.u.t.u.y.t.r.i.i.i.r.r.i.u.u.p.t.p.u.i.1.1.1.1.1.2.[.XXXXXXXXXXXXXXXX.X.XXX[.].].].]._._._._._._.T._.XXXXoX.XoX.X[.ZXXXZXXXZXZ.J N K K K K z j j j j j v.ZXXXNXZXAXZXSXSXSXSXAXAXA.Z.M.x.M.M.M.AXSXSXSXSXSXMXs.s.s.s.s.q.AXSXSXSXSXSXSXSXSXSXSXAXAX<.;.;.;.;.;.i.U.U.U.U.T.T.",
"I.I.I.I.I.I.I.v.v.v.v.I.I.I.v.W.ZXZXZXZXZXXXXXXXXXXXXXY.I I I I I U < . . . . . . I.Y./.Y.Y.T.I.v.v.v.v.v.c.c.c.c.1.c.1.=.=.x.=.c.1.X.X.X.X.X.X.o.8.8.8.8.8.7.o.9.9.9.o.w.[.[.E.{.[.[.p.o.o.o.o.o.8.0.0.0.0.0.7.X.X.X.X. . .9.7.8.8.8.8.8.8.8.8.8.8.0.8.8.8.8.8.8.8.8.A.A.v.v.A.A.v.v.2.2.2.2.I.U.U.T.U.U.U.U.T.T.T.T.U.T.T.U.W.T.T.U.T.T.U.T.T.T.T.T.U.T.Y.U.Y.v.c.c.Z.c.Z.A.XXZXZXZXAXAXXXW.].W.].T.W.+X) ) ) ' ) I o o o . o h 2.2.>.2.2.2.w.u.u.u.w.w.r.i.i.r.r.r.i.u.t.t.p.p.u.i.2.1.1.1.1.2.XX[.XXXXXXXXXXXXXX[.XXXX[.].].]._._.T._._.T._.T._.XXXXoXXXXX.X[.XXXXXXXXXXH.J N K K K K p j j j j j c.NX~.~.ZXZXZXSXSXSXSXAXAXv.Z.Z.Z.Z.Z.m.SXFXSXSXSXSXMXs.s.s.s.s.q.AXSXSXSXSXSXSXSXSXSXAXAXZXw.w.;.;.;.;.I.U.T.U.U.T.T.",
"v.I.I.v.v.I.I.v.v.v.v.I.v.v.I.T.~.~.~.~.ZXXXXXXXXXXX.XY.U U I I U U < . o . . . o I.I.I.I.Y.Y.I.v.v.v.v.v.c.c.c.c.1.c.1.x.=.=.=.=.1.X.X.X.X.} } X.8.8.8.8.8.7.9.9.7.9.o.7.R.R.g.R.R.E.u.o.o.9.o.o.8.0.0.0.0.8.9.X.X. . . . .9.7.8.8.8.8.8.8.8.8.8.0.8.8.8.8.8.8.8.8.e.c.A.A.c.c.v.v.2.2.c.2.2.I.T.Y.U.T.U.T.T.T.T.T.T.U.T.T.T.U.T.T.T.T.T.T.T.T.T.T.U.U.U.U.U.Y.v.Z.c.Z.Z.Z.Z.ZXDXZXZXZXAXXXW.].W.T.T.T.+X) ) ) ) ` I o . o o . g 2.>.>.>.2.2.y.w.u.w.w.u.i.i.i.r.r.r.i.p.t.t.t.p.p.i.2.1.1.1.1.2.[.[.XX~.XXXXXX[.[.[.].].].W.].W.T._.T._._._._.T.T.XX.XoXoXoX.X[.XXXXXXXX[.Z.K K K K K K u t i i i i =.Q.NXZXZXZXZXSXSXSXSXAXAXc.c.x.x.x.x.M.DXFXFXSXAXSXE.q.s.q.s.a.0.[.ZXZXZXAXAXAXAXAXAXZXNX[.w.w.;.;.;.y.I.U.U.T.U.U.U.",
"v.v.I.I.I.v.I.I.v.I.I.v.I.v.v.v.c.c.v.v.v.Y._.T._._._.D.I I I I U U < . o . . o . c.c.c.c.c.c.U.T.U.U.U.U.I.U.U.U.U.U.I.v.2.v.2.2.2.X.X.X.X.X.} X.9.o.o.o.o.o.o.o.X.X.o.o.9.7.7.8.7.7.9.o.o.9.7.9.7.7.7.7.7.7.o.} [ } [ [ }  . .} } } [ [ 9.9.9.9.9.9.8.8.0.0.0.8.8.8.i.y.y.e.e.w.U.T.T.U.Y.U.v.c.c.c.c.c.c.T.T.T.U.U.U.U.T.T.T.U.T.T.T.U.U.T.U.T.U.U.U.U.U.U.T.Y.v.v.v.v.v.I.U.U.U.U.Y.Y.T.].].W.].].W.+X( ) ( ) ( U o o . . o j I.U.U.U.I.U.T.U.U.U.U.U./.I.I.I.I.I.v._.W.W.W.R.W.T._.]._._.].].R.R.h.!.h.g.u.p.u.d.d.p.a.a.e.a.a.j.w.o.o.o.o.9.7.e.8.0.8.0.0.a.j.j.j.a.j.,.K L L K K K O . . . .   8 1.1.2.2.2.2.T.T.T.]._.W.T.R.U.U.T.T.Y.,.,.,.,.-.-.} [ }  .[ [  . . . .[ } [ X.o.o.o.o.o.;.t.t.r.u.u.w.U.U.T.T.U.U.U.",
"v.v.v.I.v.v.v.v.I.v.I./.I.v.v.c.c.c.v.A.v.Y._.(.(.(.T.D.I I I T I I < . . . . .   =.=.=.c.c.c.U.T.U.T.T.U.U.T.T.T.T.T.I.I.Y.I.I.I.I.O.X.X.X.X.X.X.o.o.o.o.o.o.o.o.X.X.X.X.9.7.7.8.7.7.9.o.o.o.9.o.7.8.7.7.7.7.o.} [ [ [ [ [ } } [ } [ } [ 9.9.9.o...9.8.0.0.0.0.0.8.8.8.8.8.8.e.8.W.W.W.W.W.W.v.c.Z.Z.Z.c.v._.T.T.T.T.T.T.W.U.T.T.T.U.T.T.T.T.U.U.U.U.I.U.U.U.T.U.Y.Y.Y.Y.Y.I.I.I.I.I.I.I.Y.].].].].W.W.+X) ( ) ) ` I . o o . . *.Y.U.T.T.T.U.T.T.T.U.U.U.I.I.v.I.v./.I.T.W.].].].].]..X].].].].].h.h.h.h.h.d.u.u.d.d.d.d.a.a.a.a.a.a.7.o.o.o.o.o.9.8.8.8.0.0.0.j.j.j.j.j.j.1.K N K K K K O . . . . X 8 1.1.1.1.2.2.T.T.T.W.W.W.W.W.W.W.W.R.U.&.@.@.@.@.@.} [ [ } [ } [  .} X.} [ } X.X.X.o.X.o.o.u.p.r.u.t.u.U.U.T.U.U.U.U.",
"v.v.v.v.v.v.v.v.v.I.I.I.v.v.v.v.c.c.c.c.v.Y.(.(.T._._.A.I I T T U U < . . o . . . c.x.m.c.c.c.U.T.T.U.U.T.U.U.T.T.T.U.U.Y.Y.Y.I.I.i.O.X.X.X.X.X.X.o.o.o.o.o.o...X.X.X.o.X.9.9.7.7.7.7.9.o.7.9.9.o.7.7.7.9.7.7.o.[ } [ [ [ } [ [ [ } } [ [ 9.9.9.9...o.8.8.8.0.0.0.8.8.8.8.8.e.e.8.W.W.].W.W.W.I.Z.c.c.c.Z.c.T.T.T.T.T.T.T.T.T.T.T.T.T.W.T.T.T.T.U.U.Y.U.T.U.T.T.Y.I.U.I.Y.I.I.I.I.I.I.I.I.Y.W.W.].].W.W.B.) ) ( ( ) L . o O X O *.I.(.T.U.U.U.U.U.U.U.Y.U.v.v.A.I.v.I.I.].W.R.].].].].].]..X.X].].E.h.h.h.h.j.u.u.u.d.d.u.a.a.a.a.a.a.7.o.o.o.o.o.o.0.8.8.0.0.8.j.j.j.j.j.j.,.K K K K K N O . . . . X 9 1.:.2.1.2.2.T.T.T.W.W.T.W.W.W.W.W.R.U.&.@.&.@.@.@.} [ [ [ [ [ [ }  . .} } }  .X.X.X.X.o.o.p.u.u.u.t.u.U.T.U.U.U.U.U.",
"v.v.v.v.v.v.v.c.v.v.I.I.I.I.v.c.c.Z.Z.Z.v.)._._._._._.).I T U U U U < . . o . . o =.=.=.c.c.c.Y.T.U.T.U.U.U.T.U.T.U.U.U.I.I.I.I.I.i.O.X.X.X.X.X.X.o.o.o.o.o.o.o.o.X.o.o.o.9.9.9.9.7.7.9.o.o.o.9.9.7.7.9.7.7.9.o.} } } } [ [ [ } [ } } [ [ o.9.9.o.o.o.8.0.8.0.0.0.0.8.8.8.8.8.e.8.].W.W.W.W.W.I.c.c.Z.Z.c.c.T.T.T.T.T.U.(.T.T.T.W.T.T.T.T.T.U.T.T.T.U.U.T.U.U.U.U.I.I.I.I.I.Y.I.I.I.I.v.I.I.W.W.].].W.W.+X) ) ) ) ( I o o O . . *.Y.T.U.U.U.T.U.U.U.U.U.T.I.I.v.v.v.v.I._.T.].W.].W.W.].].]..X].W.h.h.h.h.h.h.u.u.u.u.d.d.a.a.a.0.a.a.o.o.o.o.o.o.o.8.8.0.0.0.8.j.j.j.j.s.j.1.K L P K P L X . . . . X 9 1.2.2.:.>.2.T.W.T.T.W.T.W.W.W.W.W.W.U.&.&.@.@.@.@.} [ } } } [ } } X.X.} } } X.X.X.X.X.o.o.t.u.p.t.t.w.U.T.U.U.U.R.U.",
"v.v.v.v.v.v.v.v.v.I.I.v.v.c.v.c.Z.c.Z.Z.c.)._._._.].T./.I T I I I U < o . . . . . x.=.x.=.x.x.Y.U.U.T.T.T.U.T.U.T.T.U.U.I.I.Y.I.I.I.o.o.X.o.o.o.o.o.o.o.o.o.X.o.o.o.o.o.o.9.9.9.9.9.7.9.o.9.9.9.9.9.7.9.9.9.9.o.[ [ [ [ } [ } } } [ [ [ [ o...o...o.o.8.0.0.0.0.0.0.8.8.8.8.8.8.8.W.W.W.W.].W./.Z.Z.Z.c.Z.Z.T._.T.T.T.T.T.W.T.].T.T.T.T.T.T.U.U.Y.U.U.U.U.U.U.U.Y.I.I.U.Y.I.I.I.v.v.v.I.I.I.].W.T.W.].R.^ ) ( ( ) ) L o o o o . =.Y.T.U.T.U.T.U.U.U.U.U.Y.v.v.v.v.v.c.I.W.R.R.W.W.].].].].].].].].E.h.h.h.h.g.e.e.a.f.a.e.8.0.0.0.0.0.o.X.X.X.o.o.o.8.8.0.0.0.8.j.j.j.j.a.j.1.P P L K P L O . . . . O 8 1.1.2.>.2.2.T.T.W.W.T.T.W.W.W.W.W.R.T.&.&.@.&.&.&.} [ } [ [ [ [ } }  .X. .[ X.X.X.X.X.X.o.p.p.t.t.t.u.U.U.T.U.U.U.U.",
"c.v.v.v.v.v.v.v.I.I.v.v.c.v.v.c.c.c.c.c.c.)._._._._._./.I T I I I I 1 o . . . . . x.=.x.=.x.x.U.U.T.U.U.I.U.U.T.T.U.U.U.Y.Y.I.I.I.I.o.o.o.o.o.X.X.o.o.o.o.o.X.X.o.o.o.o.o.9.9.9.7.9.7.9.9.9.9.9.9.9.7.7.7.9.9.o.[ } } [ [ [ } } } } [ } [ o.o.o.o.o.o.8.0.0.0.0.0.0.8.8.8.8.8.8.8.W.W.W.].].W.I.Z.Z.Z.Z.Z.Z.U._._.T.T.T.T.W.].T.T.W.T.T.U.U.U.U.U.U.U.U.U.U.U.U.Y.I.Y.Y.Y.Y.Y.v.v.v.v.I.I.Y.W.W.W.W.].W.R ( ( ) ) ( I . o . o o =.Y.Y.U.T.T.U.U.Y.Y.U.U.U.v.c.v.A.v.v.Y.R.W.W.W.W.W.W.].].].].].W.E.E.h.!.!.d.u.e.e.a.8.e.8.0.0.a.0.0.o.o.X.X.o.o.o.8.0.8.8.0.0.j.j.j.j.j.j.,.P P P L L K O O . o o O 8 1.1.2.2.>.:.T.T.W.T.T.U.W.W.W.W.W.W.U.&.&.&.&.&.&.} } [ [ [ [ } [ } } } } } [ X.X.X.X.X.o.t.p.t.t.t.u.U.U.U.T.U.U.U.",
"c.c.c.v.v.v.c.v.v.v.v.v.c.c.c.c.c.Z.Z.c.c.Y.T._.T.T.T.c.U T I U I I < o o . . . . x.x.=.=.=.x.Y.W.U.U.I.U.U.T.U.U.U.T.U.Y.Y.Y.Y.I.I.o.o.o.o.o.X.X.o.o.o.o.o.X.X.X. .X.X.X.9.9.9.7.7.7.9.7.o.9.9.9.9.7.7.7.7.9.o.[ [ [ } } [ }  .[ [ [ [ [ o.o.o.o.o.o.8.0.0.0.0.0.0.8.8.8.8.8.8.8.W.W.W.].].]./.Z.c.Z.Z.Z.c.U._.T.T.T.T.T.T.T.T.T.T.T.T.U.U.U.Y.U.U.U.U.U.U.U.U.Y.I.I.Y.I.Y.I.I.I.I.I.I.I.I.].W.W.].].T.R ( ( ( ) ( I o o o . o *.Y.T.T.T.U.U.U.Y.Y.U.U.U.I.v.I.v.v.v.I.W.W.W.].W.]._.].].].].].].E.h.h.g.E.d.u.e.e.8.8.8.a.a.a.a.0.0.o... .X.o.o.o.0.0.0.0.0.0.s.j.j.j.j.j.,.K P L P P K O X . O O O 8 1.2.2.2.2.2.U.T.T.T.T.T.T.W.W.W.W.T.U.&.&.&.&.&.&.| } [ [ [ [ [ } [  .[ [ }  .X.o.o.o.o.w.p.r.t.p.t.u.p.U.U.U.U.U.U.",
"v.v.I.I.I.I.I.I.I.I.Y.I.I.I.I.I.I.I.v.I.v.v.I.I.Y.I.I.c.I I I I I I < . . . . . o 4.=.x.m.x.x.=.c.c.c.c.c.c.c.c.c.Z.Z.Z.c.c.c.1.c.1.o.X.X.X.X.X.o.o.X.o.o.o.X.X.X.X.X.X.X.9.9.7.9.7.o.o.o.o.o.7.9.o.9.9.o.9.o.X.0 w 7 7 w 0 0 0 5 7 7 7 7 ] ] { ] ] [ 7.8.8.8.8.8.8.8.8.8.8.8.7.7.p.p.U.p.U.p.c.Z.Z.Z.Z.Z.Z.c.v.c.c.v.v.v.v.v.A.v.c.2.v.Y.Y.Y.I.I.I.I.I.Y.Y.I.I.I.I.I.Y.Y.I.I.Y.I.U.I.I.Y.I.(.T.T.U.(.U.R ) ) ( ( ( L o o O o . f =.=.1.1.1.2.>.i.r.i.i.i.2.c.c.c.c.v.c.y.w.y.y.w.u.w.r.u.r.r.i.u.j.j.j.j.d.j.a.0.a.a.0.a.u.r.r.i.i.i.1.=.=.=.=.=.,...o.o...o.o.o.7.7.7.7.7.-.b b b b b b 7 5 7 7 7 6 s 2.<.>.>.>.2.I.I.U.U.U.U.y.;.y.i.y.i.;.;.o.;.o.o.o.} q q q q q q =.=.=.=.=.=.v.T.T.T.(.T.U.r.i.;.r.r.y.2.2.2.2.2.2.2.",
"I.I.Y.Y.I.I.I.I.I.I.Y.Y.I.I.I.I.Y.Y.I.I.I.I.I.I.I.v.I.v.I I I I T I 1 . . X . . . =.4.x.x.x.x.x.=.=.x.=.x.x.x.x.m.x.x.x.x.x.x.x.=.=.o.X.o.o.o.o.X.o.o.X.X.o.o.o.X.X.o.o.o.9.7.7.7.7.7.o.o.o.o.o.o.o.o.o.o.o.o.} X X X O @ @ & & @ @ @ @ @ 0 0 q 0 q q 9.8.8.8.8.8.8.8.8.8.8.7.8.7.7.8.7.7.7.7.2.Z.c.Z.Z.Z.Z.*.x.=.*.*.*.*.4.=.*.*.*.=.=.v.v.I.I.I.I.I.I.Y.U.Y.I.Y.I.I.I.Y.I.Y.U.U.U.U.U.I.T.T.T.Y.Y.Y.U.R ) ) / ( ) C o . . o o f =.=.=.x.=.1.>.;.>.>.r.i.c.c.c.Z.c.c.1.o.o.7.7.7.7.o.o.o.o.;.;.8.s.s.j.j.j.a.a.a.a.a.a.a.u.A.v./././.Z.Z.M.M.Z.m.1.X...X.X.X.o.o.o.o.o.o.o.o.8.8.8.8.8.8.o.o.o.o.o.X.o.;.;.;.;.>.>.I.I.U.I.U.U.;.o.o.o.o.o.o.7.7.7.7.7.7.[ w 0 e w q e =.4.=.m.=.=.A._.T.Y.T.T.U.y.y.;.;.<.y.1.2.1.1.1.1.1.",
"I.I.I.I.I.v.I.I.I.Y.Y.I.I.I.I.I.Y.Y.I.I.I.I.I.I.I.I.I.v.I T T U I I 2 . . . . . . 1.=.x.x.x.m.x.x.=.x.=.x.x.=.x.x.=.=.x.x.x.x.=.=.*.X.X.X.o.X.o.X.o.o.o.X.o.X.o.o.X.o.o.o.9.7.7.7.7.7.o.o.o.o.o.o.o.o.o.o.o.o.{ X O X X X @ @ & @ @ @ X X 0 w 0 0 q 0 o.8.8.8.8.8.8.8.8.8.8.8.7.7.9.7.7.7.7.7.2.c.Z.Z.Z.Z.c.*.=.=.*.*.=.*.3.*.*.*.*.=.=.I.I.I.I.I.Y.I.I.Y.Y.I.I.I.I.I.I.I.Y.I.U.U.U.U.I.Y.U.U.U.(.U.I.U.R ( ( ( / ( V . . . . o f =.x.=.=.=.1.>.>.>.>.>.;.1.c.v.c.v.c.1.o.o.7.7.7.7.o.o.o.o.o.o.e.s.s.s.s.s.a.a.a.a.a.a.a.p./.v./.v.A.Z.M.M.M.M.M.x.X.....X.o.o.o.o.o.o.o.o.9.8.8.8.8.8.8.o.o.X.X.X.X.X.<.;.;.;.;.r.I.I.I.I.I.i.;.o.o.o.o.o.o.o.7.7.w.7.7.} 0 w 0 0 0 e x.=.m.4.=.=.c.T.(.Y.(.T.U.<.r.y.;.;.;.2.1.1.1.1.1.1.",
"I.I.I.I.I.I.v.I.I.Y.Y.I.I.I.I.I.I.v.I.I.I.v.I.I.I.I.I.v.I T T T U U 2 o o .   . . 1.m.x.x.Z.x.x.=.x.x.x.x.x.=.x.x.=.=.x.*.x.x.x.x.*.X.X.X.X...o.X.X...o.o.o.X.o.X.X.o.o.X.9.7.7.7.7.7.o.o.o.o.o.o.o.o.o.o.o.o.} X X X O X @ @ & @ @ @ X X 0 0 0 0 0 0 o.8.8.8.8.8.8.8.7.8.8.7.7.7.7.7.7.7.7.7.1.Z.Z.Z.Z.Z.Z.*.*.=.=.=.*.3.*.3.=.*.*.=.=.I.I.v.I.I.I.I.I.I.I.I.I.I.Y.v.v.I.I.Y.U.U.Y.Y.U.U.U.T.U.Y.Y.Y.U.R ( ( ( ( / N o . . . o f =.=.=.=.1.1.2.>.>.>.>.>.2.c.c.c.c.c.2.o.o.7.7.7.7.o.o.o.o.o.o.e.s.a.s.s.s.s.a.a.a.a.a.a.u.v.v.A.c.A.Z.m.M.M.M.M.c.X.X...o.o.o.o.o.o.9.o.o.o.8.7.8.8.8.7.o.o.X.X.X.X.O.<.<.<.<.;.;.I.Y.I.I.I.I.;.;.;.o.o.o.o.o.7.7.7.7.9.[ 0 0 0 e e e =.=.x.4.=.x.Z.T.(.Y.U.Y.U.i.i.i.;.;.;.1.1.1.1.1.1.=.",
"I.v.I.I.I.v.v.v.I.Y.I.I.I.I.I.Y.I./.I.I.I.v.I.I.I.I.I.v.I I T T U U 2 X X . . o . 1.x.m.x.x.=.=.x.x.x.x.x.x.x.*.=.z.x.x.x.x.x.x.x.*.X.X.X.X.X.o...o.o.o.o.o.X.X.X.....o.X.9.9.7.7.7.7.9.o.9.9.o.o.o.o.o.o.o.o.{ X X + X X @ # & @ @ @ X @ w q q q q 0 o.8.8.8.8.8.0.8.7.7.7.7.7.7.7.7.7.7.7.7.1.Z.Z.Z.Z.Z.Z.=.*.=.*.*.=.*.=.*.=.*.*.*.=.I.I.I.I.I.I.I.I.Y.I.I.I.I.I.v.I.I.I.I.Y.U.U.I.I.U.U.U.T.U.U.(.U.R / ( ( ( / N o . . . X f =.=.$.=.=.1.>.>.>.>.>.<.1.c.v.Z.c.c.1.o.o.o.o.7.7.;.o.o.o.o.o.8.j.s.s.s.j.s.a.a.a.a.a.a.u.A.v.A.v.A.Z.m.m.M.M.M.1.X.o.o.X.o.o.o.o.o.o.o.o.o.8.8.8.8.8.8.o.o.o.X...X.O.;.;.<.<.;.;.I.I.I.I.I.I.;.o.o.;.o.o.;.o.7.w.7.7.7.} 0 e w w e e =.=.x.=.=.=.c./.(.U.U.(.I.;.;.i.;.<.>.1.1.1.1.1.1.=.",
"I.I.I.I.I.v.v.v.I.Y.Y.Y.Y.I.I.I.I.I.I.v.v.I.I.I.v.I.I.2.L T T T U U 1 . o . o . . c.Z.x.Z.c.x.m.x.x.m.m.x.x.m.x.=.x.x.x.m.x.x.x.=.=.o.X.o.o.o.X.o.X.o.o.o.o.o.X...o.o.o.X.9.9.7.8.8.7.o.o.o.9.9.9.o.o.o.o.o.9.} X X X X X X # & & & & @ @ 0 q q q q q 9.8.8.8.8.8.0.8.7.7.9.9.7.7.9.7.7.7.7.7.<.Z.c.Z.Z.Z.Z.x.=.=.*.*.*.=.=.*.*.*.m.m.=.v.v.v.v.v.v.v.v.v.I.v.I.I.I.I.I.I.I.I.Y.Y.Y.I.Y.U.U.T.U.T.U.U.U.R / ( ( ( / V O o o . . f =.=.=.=.=.1.>.2.>.;.>.r.1.c.c.c.c.c.1.o.o.7.o.7.7.o.o.7.o.o.o.7.a.j.s.j.s.a.a.a.a.a.a.0.t.A.A.v.A.v.Z.Z.Z.Z.M.M.1.o.o.o.o.o.o.o.9.o.9.o.o.o.8.8.7.7.7.7...o.o.X.o.X.o.;.;.;.;.;.;.I.I.I.I.I.I.;.o.o.;.;.O.o.7.w.7.7.w.7.} e e e q e e m.=.x.=.=.=.A./.Y.Y.Y.Y.i.<.<.;.<.;.;.1.1.1.1.1.=.$.",
"v.I.I.I.v.v.I.I.I.Y.Y.I.Y.Y./.I.Y.I.v.v.v.v.I.I.I.Y.I.v.I T U I U U 1 . . . o . o 1.Z.Z.Z.c.Z.Z.c.c.x.m.m.x.x.x.x.x.x.Z.x.=.x.m.=.=.o.o.o.o.o.o.X.o.o.o.o.o.X. .X.X.X.X.X.7.7.7.7.8.7.o.o.9.o.o.o.o.o.o.o.9.o.} O X X X X @ @ & # & & & # q q q q q q o.8.8.8.0.8.8.8.7.7.9.7.7.7.7.7.7.7.9.o.2.Z.A.Z.Z.S.c.x.x.=.=.*.=.=.x.=.=.=.=.x.x.I.I.I.I.Y.Y.I.I.I.I.I.I.I.I.I.I.I.Y.I.U.U.U.U.U.T.T.R.T.W.T.T.R.R ( ( / / ( N o o . . . f 1.c.1.1.1.1.i.r.r.i.w.w.2.v.c.c.c.c.c.o.9.o.o.7.o.9.9.7.7.o.o.8.0.s.s.s.s.s.a.a.0.0.0.s.u.)./.Y././.A.Z.Z.H.S.Z.c.o.o.o.9.7.7.9.9.7.7.o.o.o.7.7.7.8.7.7.o.9.o.o.o.o.o.y.w.y.y.w.y.i.I.I.U.U.U.;.;.o.7.7.;.;.7.8.8.7.7.7.} e e { e q e =.x.=.1.=.1.v.T.(.T.T.U.i.;.>.>.;.y.i.c.c.1.c.c.1.=.",
"O X O X X X O O X X $ X O X $ @ O O X X X O X O X O $ X L V K L N N < . . . o o o O $ X X O O O O X X O X X X X X X @ @ X $ $ $ @ @ # # % # @ @ 0 [ [ [ [ [ } X.X.X.X.X.X.7.8.8.8.8.8.9.o.o.o.o.o. .} } X.[ [ w O . . . X . o X . X + . + 4 5 4 4 5 5 o.8.8.8.0.0.0.8.7.7.7.7.7.7.[ [ } } [ [ w $ % $ = % % $ @ $ $ $ @ @ $ @ X @ $ $ $ % % % $ $ % % % $ % $ $ % $ $ $ $ % $ % $ % % % % % % # ; - ; u N U U U U U 2 o o . . . O @ O X $ $ $ $ @ @ @ @ @ @ @ @ @ @ $ % [ [ } [ } [ & @ @ @ # # } 8.8.8.8.8.7.@ $ $ @ @ # # $ $ % $ $ $ % $ $ $ $ $ @ @ @ @ @ @ # @ @ @ @ @ { 9.9.9.9.o.X.# # @ @ @ % # # $ @ $ $ @ % % $ $ $ $ $ # # @ $ # # # # @ @ @ @ @ X X X X X @ @ @ X @ $ $ @ % % % % % % @ % # % % % $ $ % % $ $ $ ",
"o O O X . . . . o X X X o . . . . . . . o . . o o o o . N V N V N V 2 . . . o o o o O . . . o . . . . . . O . . X X . X . . . . X X X X O X X X 6 } [ [ [ } } X.X.X.X.X.X.8.0.0.0.0.0.9.o.o.o.o.o.} } [ [ [ } 0 . . . . . . .   . . X . . 6 4 5 5 5 4 o.8.8.8.8.8.8.8.7.7.9.7.7.7.] [ [ } } ] 7 O O X X X X O X . o o o . X X . O O O o X . . . X O X X . X O X X X o . O O . . o O . X X X X O X X X O 2 I U U U I 2 . o X . X . . . . o . o X . X X X O X X X X O O O [ ] } { { { # X X X X X } 8.8.8.8.8.7.O X O X . O o o X X X O X O O X X X . . . X X X X X X X X X X { 9.9.9.9.o.} . . X . . X X X X X . X . O X X . X . X . . o X X X X X X X O X X X . . . . X . O o . . . . . . . . X X X . . O X X X X X . . . . ",
"o o X . . . . . . X . . . . . . . . . . . . . . . o o . N V N N L V 2   . . o O . . X O . o o . o . . . . . o o . . . O . o o o . . . o X X X X & [ } } } } } X.o.X.X.X.X.7.0.0.0.0.0.9.o.o.o.o.o.[ } [ [ [ [ 0 o . . X . . . . . . . . . 4 5 5 5 5 5 o.8.8.8.8.8.8.8.9.7.7.7.7.7.[ [ } } } ] 7 X O O X X X . o . . o o . . . . o o o o . . O X O o X O O . o . O X o o o o O O o o O O X O O O O X O O 2 I I U I U 2 . . . . . o o . . . . o . . . X O O X X X O X X $ [ [ [ { { } @ X X X X X [ 7.8.8.8.8.o.O . . . . o . o . X . . o O O X o o . X o O O X O o X X X X O { 9.o.o.o.9.} . o X . . . X X X X . . . X X X X X X O O O X . o X X . X o o X X X . . . . . o . o . . . . . . . o . . o . . . . . o . X . . . . ",
". . X O . . . o . . . . o . . . o X X . . . . . . o o . m N N N L V 2   . . o o o X O X . o . . . . o . . . o O . X o o . . . o o . X . X . X O # } [ [ } }  .X.X.X.X.X.X.8.0.0.0.0.0.9.o.o.o...o.[ [ [ } [ } 0 . . . X . . . . . . . . X 6 4 5 5 5 5 o.8.8.8.8.8.8.8.7.7.9.7.7.7.[ } { { { ] 6 O X X X X X . . . . . o o . . . . o o o . O o . . X O O O o . o O O o O O O O O o . O O O O O O O O O O 2 I I U U U 2 O X o o . . . . . O . . . . X X . . X X X X O X $ [ ] { ] ] ] @ X O X X O } 8.8.8.8.8.9.X . . . . o . o O X . X X X X X o O o X X . X X X . X X X X O { 9.o.o.o.9.} . X X . . . . X o O O O . X X X . X . X o . . . o . X . . . X . . X X . . . . . . . . . . .   . . . . . . . . . . . X . . o . . . ",
". . O . X . . . . o X . . . . . o . . . o . . . o O O X N N N N N V 2 . . . o . o . . . o . o o o o . . . . . o . . o o o O o o . . . O . O X X # { ] } } }  .X.X.X.X.X.X.8.8.8.0.0.0.9.o.o.o.o.o. .} [ } } } q . . . . . . . . . . . . X 4 4 5 5 5 5 o.0.8.8.8.8.8.8.7.7.7.7.7.8.[ [ [ ] ] ] 6 X O O O . O . . . o o X . . o o X O O o . o o O o X O O O O X O O o O O O X O o O o . o o O X X O O O O < I I U U U 2 X X X O . o o . . . . X o . . O X X O X X X O O $ [ ] e { ] ] @ O X . X X { 9.8.8.7.8.9.+ o . . X O . X o o X . X O X O O O X . X . X O X X X X @ O X e 9.9.9.o.o.{ X X X X . . X X O X X O X X X O . X X X X . o o o X X X O . O X X X . . . . . . . . . . . . . .     o O o . . . o . . . o o . . O ",
". . O . . . . . . . . . .   . X X . . . . . . . . . X . N L N N N N 1 . . . . . o . . . . . o . . .   . . . o . . . . . X . . . . . . o X X . . X q [ [ }  .X.X.X.X.X. .X.7.8.8.8.0.0.7.o.o.o.o.o. . .X. . .X.w   . . . . . . . . . . . X & 4 5 5 4 4 o.8.8.8.8.8.8.8.7.7.9.7.7.7.[ ] ] { { ] 6 O O O X X . . o . . . X . . . . O . . o . . o o O O X X X O X X X o X O O O O O O O O O O O O X X X O O < I I I I I 2 O O . . X . o . o . . . o . X X . . X X X O O O % [ [ ] { { q $ X . X X . e 7.9.9.9.9.} o . . . . . . . . X X . . . X X . X X X X X X X X X X X @ X X { 9.o.o.o.9.] o X O X X X X X O X X O X . . . . . X X X . . O X X o o . . . X X o . . . . . . . . . . . . . . . . o . o X . . . . . . .   . o X ",
"N N K V V L P L L L I I P L V / ` ` ) 1X1X) ) ) 1X) ` ) ) ) ) ) *X1X` ` ` *X1X1X0X1X0X0X0X0X0X0X0X0X0X0X1X1X1X1X` ` 1XU N V N L P 2 1 2 M 2 M 1 O O O O O O w X.X.X.....X.8.8.8.8.8.0.9.9.7.7.7.7.7 @ @ @ @ @ O     . . . . o o . . . . X 6 5 0 5 7 5 o.8.0.0.0.0.8.8.9.9.7.7.9.9.g.{.{.E.{.E.=.v j h j b p < 2 2 2 2 < * o O O O X o 1 I P P I I I ` wXrXrXrXrXeXrXrXrXrXwXeXrXiXrXrXiXrXrXqXqXqXwXqX0XqXwXwXwXqXrXwX0X0X1X0X0X0X0X1X0X0X0X0X0X0X0X0X0X1X0XwXwXwXwXwX' I I U U I I * . . . X X O = < < 1 1 x I P I I I I I eXeXiXrXrXrXeXrXeXwXwXwXrXwXwXrXrXwXG.U.U.i.U.(.d.a.a.8.0.e.e.X.} { e e w e OXOXOXOXOXOXOXOXOXOXOXOX_.).).).).).).).b.).).Y.Y.x.# 8 8 8 8 8 = > = > > = . . . . . X = m N N N N 2 / ) ) ` 1X1X*X",
"L P L P P I I P I U U U U U I / 0X0X0X0X0X1X0X0X0X1X0X0X1X0X0X1X0X0X0X1X1X1X0X0X0X0X1X0XwXqXqX0XqX0XqXqX0X1X*X1X0X0X1XU N K V P P m m M m m m m O O o o O X 7 X.X.X... .X.8.8.8.8.8.8.7.7.7.7.7.7.6 . . . . o X .     . . . . . . . . o . 7 w w 5 5 7 X.8.0.0.0.0.0.8.9.7.7.8.7.9.VXDXZXZXDXDXA.m.m.M.M.m.n.x m N m 2 M > O O o o . X < I U U I U I 0XgXiXgXjXiXiXiXiXiXiXiXiXiXiXiXiXgXiXiXiXiXiXiXiXuXiXiXrXrXuXiXrXrXiXuXrXrXuXuXuXeXrXeXrXrXrXrXeXrXrXuXiXiXiXiXiX0XI U U Q U U * . . . X . O < 2 2 x x N I U U U T U E hXgXjXjXgXiXiXiXiXiXiXgXgXgXgXjXgXiX|.VXVXVXVXVXbXs.s.s.s.s.a.8.7.o.X.} } -.JXSXSXSXGXSXSXSXJXJXJXJXAXSXSXGXAXSXAXAXAXAXAXAXAXT.t y y y 9 9 < < < 1 < < . . . . . o < I I U U I I 1XeXrXrXuXrXuX",
"P P P P P I I I I I Q U Q U U / 0XqX0XwXqX0X0X0X0X1XqX0X0X0X0X0X1X0X0X0X1X0XqXqX0X0X0X0XqX0XqX1X0XqXqX0X0XqX0X1X1X0X1XI V L L L L m m m m m m M X O o o . X 6 X. . .X.X.X.8.8.8.0.8.a.7.8.7.8.7.7.6 . . X . O o .   . . . . . o o . o . . 7 0 0 0 5 5 X.0.0.0.0.0.0.8.7.8.7.7.7.7.VXDXVXZXDXDXv.m.M.M.M.M.n.2 N m N N M > O o . O o X < I I U I U I 1XiXiXiXiXiXjXiXiXiXiXjXgXiXiXiXiXgXiXiXiXiXiXiXiXiXiXiXiXiXrXiXiXiXrXeXeXeXrXrXrXiXrXrXrXeXeXeXeXiXrXuXiXiXiXiXiXwXI U U / U I * . X X X . O 2 2 2 2 M N I U Q U U Q ~ jXjXjXjXjXjXgXiXgXgXiXjXgXgXgXgXiXiX6XVXVXVXVXVXBXs.s.s.j.s.j.a.7.o.X.} } ;.JXSXGXGXSXGXSXJXJXSXJXGXSXSXSXSXSXAXHXAXHXAXGXAXHXT.i y u y 9 8 > , < < < < . . . . . O < I I I I I I 1XuXeXeXuXrXiX",
"P L P I I I I I U U U U U U U / qXwX0XqX0XqXqXqX0XwX0XqX0XqXqXqXqXqXqX0XqX0XqXqX1X0XqX0XqXqX0XqXqXqXqXqX0XqXqX0XwX0X0XU L L P L L N m N m m m M O X . . . X 6 X. . .X.X.X.8.8.8.0.8.8.7.8.7.8.7.7.7 X . . . X O . .   . . . o O . X . X X 0 0 0 0 0 q X.8.0.0.0.0.0.8.7.7.7.7.7.9.VXZXZXDXDXDXI.M.Z.S.M.M.n.M N m m m m > o o o o o o < I I I I I I ` iXgXiXiXiXiXiXiXiXiXiXiXiXiXiXiXiXgXiXiXiXiXiXrXiXiXuXiXuXiXiXiXiXiXeXrXiXrXrXuXuXeXeXeXrXrXeXrXuXrXiXiXuXiXiXiXqXI T U U I I * X . . O X O 2 2 x 2 x N I U ~ / T / / gXjXgXjXjXgXgXgXhXjXgXjXgXgXgXgXjXiX|.VXVXVXVXVXMXs.j.j.j.j.j.a.e.o.X.X.X.;.JXGXGXFXSXSXGXGXJXJXJXGXSXSXSXSXSXSXSXAXAXAXHXSXAXY.y y y u y 9 < < < < < < . . . . o o < I U U I I I 1XrXeXrXrXrXeX",
"P L I I I I I I I U U U I I U ( 0X0XqX0X0XqX0X0X0X0X0XqXqX0X0X0X0XqX0X0X0X0XqXqX0X0XqX0XqXqXqXqXqXqX0XqXqXqXqXqXqX0X0XT L P L P L N m m m m m m O o o X o X 6 X.X.X.X.X.X.7.8.8.8.8.8.8.7.7.7.7.7.7 O X O X X O . . . o . . o . . . . . X 5 0 0 0 0 0 X.0.0.8.8.0.8.8.7.7.7.9.7.9.VXZXDXDXDXDX/.M.S.S.M.M.n.M M m 2 M m < o O . o . . 1 U I I I I I ` iXgXiXiXiXiXgXiXgXiXiXiXiXiXiXgXgXjXiXiXiXiXiXuXiXiXiXiXiXiXiXiXiXrXuXiXrXrXeXuXeXeXeXeXrXeXeXuXrXrXuXiXiXiXgXiXwXI U U U I I * X . X o O O 2 x 2 2 2 N I U U U U U E gXgXiXgXjXjXgXgXgXgXjXgXgXgXgXgXiXuXoXVXVXVXVXVXE.j.s.j.j.j.a.a.e.o.X.X.X.;.JXSXGXSXAXSXGXJXJXJXJXSXSXSXSXSXSXAXSXAXZXAXAXAXAXT.y u u y y y < < < < < < o . . . . . > I I I I I I 1XeXrXeXrXiXuX",
"L L I I I I I I I U U I I I U / 0X0X0XqXqX0X0X0X0XqX0X0XqX0X0XqX0XqX0X0X0X0X0X0XqXqX0XqXqXqXqXqXqX0X0X0XqXqXqX0XqXqX0X/ L P P P I N M M m M m N o . o . . O 6 X.} X.X.X.X.8.8.8.8.8.8.7.7.7.7.7.8.7 O O X X O . . X . . . .   . . . . X X 0 0 0 0 0 0 X.0.0.0.0.8.8.8.7.7.7.7.7.9.[.DXZXVXDXDXD.M.S.S.Z.M.n.m M M 2 2 2 > o O o o . . 1 I I U I U I ` gXiXrXiXiXiXiXiXiXgXiXiXiXiXiXgXgXgXiXiXgXiXiXiXiXiXiXrXrXrXiXuXrXrXrXrXrXeXeXeXeXrXeXwXeXrXrXrXtXrXiXiXiXgXgXiXqXL I I I I P * X . . o X * 2 M 2 2 2 M I U U U U E / iXjXjXjXgXjXgXiXiXgXgXhXiXgXgXiXiXrXoXVXVXVXVXVXBXj.s.j.j.j.j.a.u.o.X.X.X.<.JXFXGXSXSXSXSXGXGXGXGXSXSXSXSXAXHXAXAXZXAXAXAXSXAXT.i y i i y y < < < < < < o . . . o . > I I I I I L 1XeXeXuXrXuXrX",
"B B 3.3.3.3.3.3.S.F.G.D.D.D.D.F.K.K.K.K.K.:X;X;XJ.;XJ.J.J.J.J.;XJ.;XF.F.M.F.C.F.M.F.:XK.K.K.K.:X:XK.K.K.}.}.K.K.K.:X:XJ.S.S.S.M.S.v N N M m m N o . o o . o 6 } } } } X.X.o.o.o.o.o.o.9.7.9.9.9.9.} e e e e e e 6 6 6 6 6 6 & @ @ & & 6 & }  .X. .X. .9.0.0.8.0.0.0.0.7.8.8.8.7.9.l.E.E.E.E.BX/.D.D.D.D.D.C.m N N N N N < . . . . . o p n.n.N.n.n.S K.}. X|.|.|.|.|.|.|.|. X|.|.|.|.|.|.|.}.}. X}.}.}.|.|.}.}.}.}.}.G.G.G.G.G.G.K.K.J.:XK.K.K.K.K.K.K.K.K.L.>X>X>X:XJ.;X) 0X1X` ' ' 2 > > > 1 2 < > > > > > > F C.M.M.M.V.C.;XJ.;X;X;X:X6X5X>X>X>X>X<X-X,X,X,X=Xi.d.d.g.g.g.d.a.a.a.a.a.f.e.e.o.X.X.X.<.AXAXAXAXZXAXZXZXAXAXZXNX~.~.~.Q.[.^.XXW.W.W.W.XXXXU.v.v.c.:.1.*.< < 1 1 < < o . . o o . c N.n.N.N.N.n.@X;X;XJ.:XJ.K.",
"v v o.o.o.o.o.o.[.XXXX~.XX~.XXR.W.T.T.T.T.U.U.T.Y.Y.Y.I.Y.I.I.I.Y.I.I.<.<.<.<.<.<.i.].W.W.].W.].[.[.W.W.].R.R.W.W.W.W.W.[.XXQ.[.~.m.m m N N N M o . X . . O 6  .[ [ X.X.X.X.....X.o.o.8.7.8.7.8.9.8.8.8.8.0.8.8.] ] ] ] { ] 5 0 0 0 q q q 8.0.0.0.8.0.0.0.8.8.0.8.0.8.8.8.8.8.8.8.e.8.e.8.8.0.ZXGXSXGXGXSXZXI I I I I I < . o . . . . f c.1.c.x.c.c.^.XXXXXXXXXX.XXXW.W.W.[.].[.].W.].].].].].W.].].W.W..X]..X.X.X].Y.Y.Y././.Y.U.).).Y.I.v./.Y./.c.=.A._._.).).`.'.).).zXlXxXlXlXcX( L L I I L L . . o . X X c.Y.Y.Y.Y.U.I.c.1.1.c.c.v.R.W.R.T.T.W.Z.M.Z.Z.Z.c.y.e.a.8.8.8.7.X. .X. .X...9.7.o.o.o.X.;.T.U.U.T.U.U.I.I.I.Y.Y.i.X.} X.X.X. .X.X.X.X.X.X.X.R.JXJXJXJXJXAX3 m M M M 2 . . . . . o g I.i.I.i.I.I.I.I.I.Y.I.Y.Y.",
"A A O.O.o.o.o.o.[.XXXXXXXXXXZXW.T.T.T.T.T.U.T.(.U.I.U.Y.I.I.Y.Y.Y.Y.i.1.<.,.,.<.<.i.W.W.W.T.W.].[.[.W.W.Q.W.W.W.W.W.T.].XX[.XXXX[.n.N M M m m m O . . . . O 7 X.[  . .X.X.X.X.X.X.X.o.8.8.8.8.7.8.7.8.8.8.8.8.8.q ] { ] { q 0 0 0 0 q 0 0 8.0.0.0.8.0.8.0.8.0.8.0.0.8.8.8.8.8.8.8.8.8.e.8.8.a.ZXSXGXSXGXGXZXL U U I I I < o o . . . . h m.x.c.x.x.Z.XXXXXXXXXX~.XX[.W.W.W.].].].].W.].].].].].W.W.W.W.].].].]..XW.].Y./.Y.Y.Y.U.Y./.)./.c.*.*.i a c i a x.OX).).). X).).lXlXzXxXlXlX( C L L L C C   . . X X O c.I.Y.).Y.T.v.1.1.1.c.c.v.W.R.W.T.T.T.S.Z.M.Z.S.Z.r.e.a.0.8.0.7.X.X. .X.X.X.9.9.o.7.7.X.<.T.T.T.T.T.T.I.Y.Y.Y.Y.I.X. .X.X. .X.X.X.X.X.X.o.X.R.JXJXJXJXGXSX2 M 2 2 2 2 O . . . . . g v.I.I.v.v.I.I.I.I.I.I.I.Y.",
"A A O.o.o.o.o.o.[.XXXXZXXXXXXXW.T.T.T.T.T.T.U.U.T.U.U.U.Y.Y.Y.I.Y.I.i.<.<.<.<.-.,.2.W.W.W.W.W.W.[.XX[.[.XXW.R.R.R.W.W.].XXXXXX[.XXn.N M M m m m O . . o o O 7 X.[  .[  .X.X.o.o.o.X.o.7.8.8.8.7.8.8.8.8.8.8.8.7.q q { q e { q 0 q 0 q q q 8.8.0.0.0.0.8.0.8.8.8.0.0.8.8.8.8.8.8.8.8.8.e.e.8.0.AXGXSXGXSXGXAXI T I U U I < o . o .   o f x.m.m.m.M.m.W.XXXX~.XXXXXXW.].].].W.].W.].W.W.].W.W.W.].W.].W.W.W.].W.].W.].Y.Y.Y.Y.Y.(.Y.v.v.j a a t u u u u - u ).).).). X).D.zXxXzXlXlXlX( C L C C L V   o o o . X 1.I./.Y.Y.U.v.1.c.c.1.c.I.W.W.W.W.T.W.Z.Z.S.Z.S.Z.r.a.a.a.e.0.7. .X.X.X.X...o.9.o.9.7.o.;.T.T.T.T.T.T.I.I.Y.I.I.I.X.} X.} X.X.X.X.X.X.X.X.X.R.JXJXJXSXJXAX2 M M 2 2 2 O . . . . o j I.I.I.v.I.I.I.Y.I.Y.Y.I.I.",
"A A O.o.o.o.o.o.{.XXXXXXXXXXXXR.T.T.T.T.U.U.Y.U.Y.Y.U.Y.I.Y.I.I.I.Y.I.<.<.<.<.<.,.i.W.W.W.W.W.].[.XXXXXXQ.R.W.R.R.W.W.W.~.[.[.[.XX=.m N N m m M O . o o . X 7 X.X.X.X. . .o.o.o.o.o.X.8.8.8.8.8.8.8.8.8.8.0.8.7.{ { q ] ] ] q q 0 q q q q 8.0.8.0.0.0.8.0.0.0.8.0.0.8.8.8.8.8.8.8.8.8.e.e.8.e.ZXGXGXGXGXJXAXP I I I I T < . . . . . . f x.m.Z.x.x.=.[.XXXXXX~.~.[.Q.].].].].].].].W.W.W.W.W.W.W.W.].W.].W.].].].W.].Y.I.Y.Y.Y.Y.I.v.f ; ; ; u u ; ; ; - ; Z.).).). X XD.lXlXxXlXlXlX( C L C C L V . . . o o X c.Y.Y./.Y.Y.v.c.1.1.1.c.v.T.T.W.W.W.T.Z.Z.Z.Z.Z.Z.r.a.0.a.e.0.9. .X. .X.X.X.9.9.7.9.o.o.;.T.T.T.T.T.T.I.I.I.I.I.I.X.X.X.X. .X.X.X.X.X.X.X.X.R.JXJXJXJXJXSX2 M m 2 2 1 o . . o . O j I.v.2.v.I.i.I.I.Y.I.Y.I.I.",
"A A O.o.o.o.o.o.[.XXXXXXXXXXXXR.T.T.T.T.T.T.T.U.Y.Y.Y.Y.I.Y.I.I.U.U.2.<.-.<.<.<.<.2.W.R.R.W.R.W.[..X].].Q.W.W.W.W.W.W.W.XXXXQ.XXXXx.N N N N M M O . X X X O 7 X.X.X. . .X.o.o.X.o.o...7.8.8.8.8.8.8.8.0.8.0.0.8.] ] ] ] { ] ] q q q q q q 7.0.8.8.8.8.0.0.0.8.8.0.0.8.8.8.8.8.8.8.8.8.e.e.e.e.NXGXGXGXGXJXSXI T T T T U 1 O . o o . . f m.m.m.m.x.m.].XXXXXXXX[.[.Q.].].W.].].W.].W.W.W.W.W.].W.T.W.].].].].].W.W.W.U.Y.Y.).Y.U.Y.=.u ; - ; u u - - - ; - j '.).).).).).lXlXzXxXlXxX` C L L I L L   o o . X O v.I.I.Y.Y.T.I.1.1.c.Z.c.v.T.W.].W.W.T.S.Z.S.S.Z.S.r.a.j.a.a.a.7. .X.X.X.X.X.7.7.o.9.o.o.<.T.U.U.T.T.T.I.v.I.I.I.i.X.X.X.}  .} X.X.o.o.X.X.o.R.JXGXJXKXJXAXm 2 2 M 2 2 O . . o . . g c.v.v.I.I.v.I.I.Y.I.I.I.I.",
"v v O.o.o.o.o.o.[.XXXXXXXXZXXXW.T.T.T.U.U.I.U.U.U.Y.Y.I.I.Y.I.I.I.I.2.<.<.<.<.<.,.i.W.T.W.R.R.W.[.W.XXW.[.W.W.W.W.W.R.W.W.].].XXXXm.m N N m N m o . . o O O 6 X.X.X.X.X.X.X.o.o.o.X.X.9.8.8.8.8.8.8.8.0.8.0.0.8.{ { ] ] ] ] { q q q q q q 7.8.8.0.8.8.0.0.8.8.8.0.0.8.8.8.8.8.8.8.8.e.e.e.a.e.ZXGXGXSXGXJXSXT T T T U U 2 . o o o o . h x.m.m.x.x.M.].~.~.[.XXQ.Q.Q.W.W.W.].W.W.].W.W.W.W.W.W.W.W.W.W.W.W.W.W.].].W.T.U.U.T.T.U.I.p u ; - ; u u ; - - ; - h ).). X X).).jXzXzXzXzXxX` C L I L L V   o X . X O I.I.Y.Y.).Y.I.c.1.1.c.c.c.W.T.W.W.R.W.S.S.Z.S.S.S.r.a.a.a.a.a.8.X.X.X.X.X.X.o.7.9.7.o.o.<.T.U.T.T.T.T.v.v.I.I.I.v.X.X.X.} }  .X.X.o.X.o.o.o.R.JXJXJXJXGXAXm m 2 2 2 2 O . . . . o j v.I.v.v.I.i.I.I.I.I.I.I.I.",
"i u -.-.-.-.-.-.I.Y.I.Y.U.Y.>.} } } X.} } i.U.T.Y.U.I.U.I.I.Y.I.I.I.I.i.>.i.i.i.>.I.R.T.T.T.T.W.W.W.W.W.W.Q.!.R.E.W.R.R.R.g.g.R.R.=.N N m m m m o X . O X O 6 X.X.[  .X. .X.X.X.X.X.X.o.o.o.9.o.o.o.o.o.o.o.o.X.0.q.q.q.s.q.q.q.q.q.q.0.0.0.0.0.0.0.0.8.8.0.0.8.0.0.8.8.8.8.8.8.8.7.7.8.8.8.u.[.ZXZXZXZXAXXXT T T T T T M . o o . . . i *.*.3.n.*.*.I.Y.I.Y.Y.I.Y.T.W.T.W.T.T.T._.T.W.W.T.W.T.W.T.T.T.T.T.W.W.W.W.W.1.*.*.=.=.=.=.c - = $ $ $ $ O O $ $ $ - A v S C.M.S.K.K.J.K.K.J.G I I I I I I . . . X X O x.c.c.c.c.A.1.} X.X.-.-.:.T.T.T.T.U.T.T.T._._._._.r.e.8.e.e.e.7.X.X.X.X.X.X.X.o.o.X.X.o.<.Z.Z.A.v.D.D.I.I.I.I.I.Y.r.i.i.i.i.i.i.i.i.i.i.i.I.W.~.ZXNXZXZX[.2 m m M M m O . . o o . s ;.;.;.;.;.;.;.;.;.;.;.o.;.",
"u t -.-.-.-.-.O.i.U.U.U.U.T.<.} X.} } } } i.U.U.U.I.Y.I.I.I.Y.Y.I.Y.U.U.R.U.U.U.T.T.U.U.U.T.T.W.W.W.W.W.W.R.E.!.!.!.R.a.a.a.a.a.e.&.N N N N N m O . . X X X 7  . .X.} X.X.X.X.X.X.X.X. .[  . . .X.X.X.[ X.} X.X.0.q.s.s.s.s.q.q.q.q.q.q.q.0.0.q.0.0.0.8.8.0.0.0.0.0.8.8.8.8.8.8.7.7.7.7.7.7.7.p._.U.Y.Y.Y.U.W / ~ T ~ T M . o o o o . y j *.*.3.j *.v.v.c.c.v.v.v._.T.T.T.T.T.T.T.T.T.T.T.T.T.T.T.T.T.T.T.T.W.T.W.W.*.h f h j g f 2 * . . . o . o o X o . o O O O = = u S.D.D.D.D.D.B./ / / / / / . . . . o X x.Z.Z.c.Z.Z.1.} X.X.X.X.<._.U.T.T.T.W.].].].].].W.e.8.8.8.8.8.9.X.X.X.X.X.X.X.X.X.X. . .,.M.M.M.M.M.Z.U.U.T.T.U.U.T.T.W.W.W.W.].Y././.).).).T.Q.MXQ.MXMXQ.2 m 2 M M M o . X . .   e X.o.o.o.o.o.X.X.X.O.o.X.O.",
"u u -.-.-.-.-.O.I.U.U.U.U.T.2.} } } } } } i.T.T.U.U.I.I.I.I.I.I.I.I.U.T.R.R.U.T.U.T.U.T.T.T.T.W.W.W.W.W.W.R.!.!.!.!.E.a.e.e.e.e.e.&.N N N M N N O . . o X X 7  .X.} X.} } X.X. .X.X.X. .X.X. . .X.X.}  .X. .X.} 0.q.q.s.s.s.q.q.q.q.q.q.q.q.q.q.0.q.0.0.0.a.8.8.0.0.8.8.8.8.8.8.8.7.7.7.7.7.7.i.(.U.T.T.Y.U.G ~ ~ ~ T / M . . . o o o i j j j j j j c.v.v.c.c.c.v.T.T.T._.T.U.T._._.(.T.T.T.T.T.T.T.T.T.T.T.T.T.T.T.#.g g g j g h : O o o o o . o o . o o . O O O O $ ; D.D.D.D.D.D.B./ ( / / / / . . . o o X m.Z.c.Z.Z.c.,.X.X.X.X.} <.T.T.T.T.T.T.W.T._.].].].u.8.8.e.8.e.7.X.X.X.X.X. .X.X.X.X. .X.,.M.m.m.M.M.Z.U.U.T.T.U.T._.W.T.W.W.T.T./.).).).).).].Q.ZXQ.Q.Q.Q.2 2 M M M M O . . . . . r X.O.o.X.X.o.X.X.O.X.X.O.O.",
"u u X.-.-.-.X.O.I.U.U.U.T.T.<.} } } } } } >.U.T.U.U.U.I.I.I.I.I.I.I.I.U.T.U.T.T.T.U.T.T.T.T.T.W.W.W.W.W.W.R.g.h.!.!.R.d.a.a.a.a.e.&.m M m m N N X . . . . X 7 [ X.} } }  .X.X.X.X.X.X.X.X. . . .X. . .X.X.X.[ [ 0.q.s.s.vXq.s.s.q.s.s.q.q.s.0.q.0.0.0.8.8.8.8.8.8.0.8.8.8.8.8.8.8.7.7.7.7.7.7.i.T.T.U.(.Y.U.W T / / / / M . . . o o o i *.j *.*.*.j c.v.c.v.v.v.I.T.T.T.T.T.T.T.T.T.T.T.T.T.T.T.T.T.U.T.T._.T.T.T.T.*.j g j g g h : O . o . . O . . . . . . O O O O = ; S.D.D.D.D.D.B./ / / ( / / . . . o o O x.x.c.Z.c.Z.,.} X.} X.} <.T.T.T.U.T.T.].W.].].].].u.8.e.e.8.e.7.X.X.X.X.X.X.X.X.X. . . .,.C.m.m.M.M.M.U.U.U.U.U.U.T.W.].W.W.W.T.I.).).).).).W.VXQ.Q.Q.Q.Q.2 N N N M M o . . . . . w o.o.O.X.o.O.X.O.X.O.X.X.X.",
"u u -.-.-.-.X.X.Y.U.U.T.T.U.<.} } } } } } i.U.U.U.U.I.I.I.U.I.U.I.I.I.U.T.U.T.U.U.T.T.T.T.T.T.W.W.W.W.].W.h.j.h.d.g.R.d.a.a.a.a.e.&.N N m N N N X O . X . o 6  .} } } } } X.X.X.X. .X.X.X. .X.X.X.X.X.[ X.X.[ [ a.s.q.s.q.s.s.s.s.s.q.q.q.a.0.0.0.0.0.8.8.8.8.8.0.0.0.8.8.8.8.8.8.7.7.7.7.7.7.r.U.U.T.U.Y.U.T E ( / / ~ N . O o . o o i *.j *.j 3.*.c.v.v.v.v.c.I.T.U.T.T.T.T.T.T.T.T.U.U.T.T.T.T.T.T.T.U.T.T.T.T.T.*.g g j j j j : O o o . . . . o . . .   o O O O O ; D.D.D.D.D.).B./ / ( / / / o o . o . X x.Z.c.Z.Z.Z.1.} } X.X.X.<.Y.Y.U.T.T.T._.W.W.].].].p.8.8.e.e.e.7.X.X.X.X.X.X.X.X. . .X.X.&.C.C.m.m.M.M.Y.U.U.U.U.T.T.W.W.W.T.T.T.Y.).).).).).W.Q.[.Q.Q.MX{.M m m M M M o . . . . . w O.o.o.o.o.O.O.O.X.X. .X.X.",
"u u -.-.-.-.X.O.U.T.T.T.U.T.>.} } } } } [ i.Y.U.U.U.U.I.U.Y.I.I.I.I.I.U.T.T.T.U.U.T.T.U.U.T.T.W.W.W.W.W.W.g.g.h.j.d.!.a.a.a.a.a.a.&.N N m N m m . O X O o . 6 } } [ } [ X.X.X.X.X.X. .X.X.X.X.X.X.X.X. .X.} }  .0.q.q.s.s.s.s.q.s.q.s.s.q.a.a.0.0.0.0.8.8.8.8.8.0.0.0.8.8.8.8.8.8.9.7.7.7.7.7.r.U.U.T.U.Y.U.T ~ / / T T M . . . . o o i *.*.3.*.*.3.c.v.v.c.c.c.Y.T.T.T.U.T.T.T.T.T.T.U.T.U.T.T.T.T.T.U.U.T.U.T.T.T.=.g g g k j g : O O o . . . o . . . . . o O O O O - D.D.D.D.D.D.B./ / / / / / o o o o X O m.Z.Z.Z.Z.Z.,.X.} X.X.X.,.Y.I.T.U.T._.W.W.].W.W.W.t.8.e.8.e.e.7.X.X.X.X.X.X.X.X.X.X.X.X.@.C.C.m.m.m.m.Y.U.U.U.U.T.W.W.W.W.W.W.T.I.).).).).).].Q.Q.Q.Q.Q.Q.2 N M M m N o     . o . w X.o.X.X.X.X.X.X.X.O.X.X.X.",
"i u @.-.-.-.X.O.p.R.T.T.W.T.;.} } } } [ } i.U.U.T.U.I.I.U.U.U.U.I.U.I.U.T.T.T.T.U.U.U.T.U.U.T.W.W.W.W.W.W.g.g.d.j.d.g.a.a.a.a.d.a.=.N N m m N m O . . X . o 7  .} } } } } X. . . .X.X.X.X.X.X.X.X. .X.X. .X.}  .0.s.q.q.q.nXvXq.q.q.s.q.q.0.a.0.0.0.0.8.8.8.8.8.8.8.0.8.8.e.8.8.8.7.7.7.7.7.7.i.U.T.T.T.U.U.W / / / T / N o . o . . . i *.*.*.*.n.n.c.v.c.v.v.c.I.T.U.T.T.U.U.U.T.U.U.T.T.U.U.U.U.T.U.T.U.U.T.T.T.W.*.j j j j k f > = O o . . O . . . . o o . O O O * - Z.D.D.D.D.D.B.( / ( / / / . o . . O $ Z.c.Z.c.c.Z.,.X.} X.X.X.,.Y.Y.T.T.W.T.].W.W.W.].].u.8.e.e.e.e.7.X.X.X. . . .X.X. .X.X.X.@.C.C.m.C.C.M.Y.U.T.U.U.T.T.W.W.T.T.W.].Y.).Y.).).Y._.Q.Q.Q.Q.Q.Q.3 N m M m N o . . . . . w o.o.o.o.o.o.X.X.o.o.X.X.X.",
"y y @.@.@.X.} X.&.=.=.=.=.=.$.@.&.&.+.&.&.$.1.1.1.2.2.2.v.v.v.2.2.v.v.1.=.1.1.=.=.=.=.x.=.=.=.1.c.c.c.c.c.t.g.d.d.t.d.e.w.w.7.w.o.g N M m m m N O . O . . O 6 } [ } [ [ }  . . .} [ } o.o.X.o.o.o.X.X.X.X.} } [ o.7.o.o.o.o.7.0.0.0.0.0.0.0.0.0.0.0.0.8.8.8.8.8.8.8.8.8.e.8.8.7.8.7.7.7.7.7.o.2.I.Y.I.Y.I.I.T E T / ~ T x . o . . . . i j *.j *.*.*.c.c.v.v.v.c.v.U.I.U.I.I.Y.c.c.c.c.c.c.I.I.Y.I.I.I.Y.c.=.c.c.c.c.*.j j j g g h 2 < 3 < < > . . . . .   . o O O < < V m.C.M.m.M.Z.R ( / / / / / . o o . O X *.z.*.*.*.*.-.X.X.X. .X.,.=.=.=.=.=.1.e.8.e.e.8.e.8.8.0.8.8.8.7.X.X.X.X. .} } } [ } } } } @.@.@.@.@.@.1.2.1.1.1.1.p.p.U.p.p.p.u.y.i.i.i.i.>.u.p.p.r.u.u.u.3 m m M m m o . . . . . 9 +.+.+.+.&.&.O.o.o.o.X.o.O.",
"u y @.@.@.} } } %.#.#.*.*.#.*.#.=.=.=.=.=.=.1.1.=.1.1.1.1.1.c.1.1.1.1.#.#.*.*.*.#.*.*.*.*.*.*.*.z.*.*.*.*.i.t.g.d.t.t.y.o.o.o.;.o.f 2 2 m m m m o . . o o o 6 [ } [ [ [ }  .} X.} } } 7.7.9.7.7.9.o. .X.} X.} } } } } [ [ [ o.8.0.0.0.0.8.0.0.0.0.0.a.8.8.8.8.8.8.8.8.8.8.8.e.e.e.7.w.w.w.w.o.2.A.A.A.v.A.v.C L I L L L , . . . . . o i j j j j j j c.c.c.A.v.c.I.I.Y.Y.I.Y.Y.x.x.x.x.x.=.v.I.Y.I.Y.Y.I.x.x.x.x.x.=.*.k j k j j v P P P P P m . . o . . . . O O = M I I n.m.C.m.C.C.G / / ( / / / . o . . . X j j *.*.*.3.@. .X.X.X.X.-.=.*.*.*.*.$.8.8.8.8.8.8.0.0.0.0.0.0.8.X.} [ } } } } } } } } } } } } } [ } | *.*.*.j *.*.r.t.t.t.u.t.u.w.w.w.e.w.w.7.7.7.7.7.7.7.M m m m M m o . . . . . u g g j j k k o.o.o.o.o.;.o.",
"t t @.@.@.} } } *.#.=.*.#.#.#.=.=.=.=.=.=.=.=.=.1.1.1.1.1.v.1.1.1.1.1.#.#.#.*.*.*.*.*.*.*.*.*.*.*.*.*.*.*.i.t.t.t.p.t.y.o.o.o.o.o.g M N m m m M o . . . o O 6 } [ } [ [ [ } } } [ } } 9.7.7.7.9.7.o.} X. .X.} } [ [ [ [ [ [ X.8.0.8.0.0.0.0.0.0.8.0.0.7.8.8.8.8.8.8.8.8.8.e.8.8.8.7.o.o.o.w.;.2.A.A.A.A.v.v.P I I L L I < . . o . o o i j j j j j j m.c.v.v.c.c.v.I.Y.I.Y.I.I.c.c.x.x.x.=.I.I.Y.I.I.I.I.c.x.c.x.c.c.*.j k k j k v P P P I P N . . . . . . . o O > N V C n.m.m.C.M.M.G / / / / / / . . X . . X j S 3.*.*.j @.X.X.X.X.X.,.=.*.*.*.*.&.8.8.8.8.8.8.8.a.a.0.0.0.8.[  . .X.} X.} } } } } } } } } } [ } | *.j j *.*.*.w.u.d.a.a.d.t.e.w.w.8.e.e.7.7.7.7.7.9.7.2 M m m M M o . . . . . 9 k j k j %.*.o.;.o.o.o.o.o.",
"u t | @.@.@.} } #.*.*.#.#.#.#.*.*.=.=.=.=.*.c.=.=.1.$.=.1.1.1.1.1.1.1.#.#.*.*.*.*.j *.*.*.*.*.*.*.*.*.*.*.2.r.t.t.t.t.w.o.o.o.o.o.g M M M M m N o . . o . X 6 [ [ } } } [ [ [ } [ [ [ 9.7.7.9.7.7.o.[ X.}  .} } [ [ } [ } } X.8.0.0.0.0.0.0.0.0.0.0.0.7.8.8.8.8.8.8.8.8.8.8.8.8.8.7.7.o.o.o.o.2.A.v.A.v.v.v.I I I P L P < . . . . . o a j j j j j j 4.c.c.c.c.c.I.Y.I.I.I.I.I.c.c.x.c.c.=.v.I.I.Y.I.I.I.c.=.x.=.c.c.*.k g g j g v I I K I P N o . o o . X o O = N C I C n.m.m.m.m.M.G / / / / / / . o o . . O j b S *.3.*.@.X.X.X.X.o.&.*.=.*.*.*.&.8.8.8.8.8.8.8.a.0.0.0.a.8. .X.X.} } } } } } [ } } [ } } } } } | j j j *.*.*.y.u.a.j.a.d.a.8.w.e.e.e.e.7.7.o.;.o.7.9.M m m m 2 M O . . . . X 8 k j j %.*.j O.o.o.o.;.;.o.",
"u u | } @.} } X.*.*.*.*.*.=.=.*.*.=.=.=.*.=.x.=.=.$.1.1.1.1.1.1.1.1.1.#.#.#.*.#.#.j j *.j *.*.*.*.*.*.*.*.i.r.r.t.t.t.w.o.o.o.o.o.g 2 m m N m M o . . . . X 6 } } } } [ [ } } } } } [ 9.7.7.7.7.7.o.X.X.X.X.} } [ [ [ [ } } o.8.0.0.0.0.8.0.0.0.0.0.0.8.8.8.8.8.8.8.8.8.8.8.8.8.8.7.7.o.o.o.;.2.v.A.v.A.v.v.P I I I I P < . . o o . o a j j j j j j =.c.c.c.c.c.v.I.I.I.I.I.I.x.1.=.c.c.c.I.I.I.I.I.I.I.c.x.x.c.x.c.*.k g g g g v P P P P P N . . X . . X = 1 C C T C C n.C.m.m.m.m.G / / / / / / . o . . . O j j j *.n.z.@.X.X.X.o.o.,.=.=.*.*.*.&.8.8.8.8.8.8.a.0.a.0.0.0.8.X.X.X.} } } [ [ [ } } [ [ [ } } } } | j *.j j *.*.w.u.a.a.a.d.u.e.e.e.e.e.e.o.7.7.7.o.7.7.M m m m M M O o . . . O 8 k j *.*.*.*.O.o.o.o.o.;.o.",
"y y +.} @.X.X.X.#.*.*.*.*.=.#.=.=.=.=.=.=.=.=.=.=.1.1.1.c.v.c.c.c.c.1.*.*.#.#.#.*.*.*.*.j j *.*.*.*.*.*.*.>.w.r.r.t.r.y.7.7.o.;.o.g M M M m M 2 . . . . . o 6 } } } } [ [ [ } [ } } } 7.7.8.7.7.7.9.} } } } [ [ [ [ [ [ [ } X.8.8.0.0.0.8.0.0.0.0.0.0.8.8.8.8.8.8.8.8.0.0.a.e.e.8.o.o.7.o.o.o.2.D.A.A.v.v.v.V I I L L L < . o . . . o u j j j j j *.1.1.c.c.c.c.v.I.v.I.I.I.I.c.=.1.c.c.Z.v.I.I.I.I.I.v.c.c.c.1.c.c.#.j g k g g h P I P P P N X O * O O O 2 C I C C C C n.m.m.n.m.m.G / / / / / / . X X . . O j z.j n.n.n.,.o.o.X.o.o.-.*.*.*.*.=.$.8.0.0.0.8.8.0.0.0.0.0.0.8.X.X.X.X.X.X.} } } } } } [ } [ } } } | *.*.j *.*.*.e.a.a.j.a.a.a.w.e.e.e.e.u.7.7.w.7.w.w.7.2 M m M M M O . . . . o u *.#.*.*.*.*.O.o.o.O.-.;.o.",
"i u +.@.@.X.X.X.=.*.=.*.*.=.#.*.=.=.=.=.*.=.=.=.1.1.1.1.1.2.1.1.c.c.1.*.*.#.*.*.*.j *.*.*.j *.*.*.*.*.*.z.>.w.t.t.r.r.w.7.7.7.o.7.%.2 2 2 2 2 2 o .   . X X & [ [ } } [ [ [ } } } } [ 7.7.7.7.7.7.7.} [ } } } } [ [ } [ [ [ } 7.8.8.0.0.0.0.0.8.0.a.0.8.8.8.8.8.0.8.8.0.0.0.e.e.8.o.;.o.o.o.o.2.Z.Z.A.A.A.v.V I P L P P < . . . . . . t j j j j j j =.1.c.c.c.2.v.v.v.I.v.I.I.c.=.c.x.1.c.I.I.I.I.I.I.v.c.Z.c.c.c.c.#.*.*.k g k h P P P N P K O X O O O O C I T T I I C m.m.n.n.n.n.G / / / / E ~ . . o X X O j z.j z.*.3.@.O.X.X.o.o.O.x.*.*.*.*.&.0.0.8.0.8.8.0.0.0.0.0.0.8.X.X.X.X.X.X.} } } } [ } } } } } } [ } *.*.j *.*.#.e.a.j.a.a.a.t.w.u.e.e.e.8.7.w.7.7.;.;.7.M M M m 2 M o . . . . o u *.*.*.*.*.*.O.o.o.o.o.;.-.",
"$ $ 8 8 9 9 8 6 8 8 u u u u u t t 8 t t u t t t u u i i i i i i y y u 8 8 % 8 u u u ; 8 8 u u u 8 8 u u 8 i w s w 9 w w w 7 7 7 7 - < 2 < < 3 < . . . . X O X 6 6 6 6 6 7 [ } } [ } [ X.X.X. .X. .o.7.9.9.o.o.o.{ [ } } [ [ } o.9.9.7.8.7.0.0.8.8.0.a.8.8.8.8.8.8.8.7.O.| | } @.X.} } } { } { d h h h g f g N L P K L N < o o o o o o $ ; - ; ; ; % 8 t t t t 8 t t t t t t t u t 8 u t u t t t t t y t u t u t t t u u u u u t ; < < < < J P 2 < > < 3 2 M 2 N x x 2 1 u u u - - - 2 I I I U U I . o . . o O h b j j *.b | } [ [ [ } e ; ; ; u % 8 r e r e w w e e { | { | } } } } } } } ] { [ ] } } [ } } } } } } g s s f s s { { | | | [ | | } } | | } X.o.o.o.o.o.7.M N N M 2 2 o . . . . . % i i f f i f w r r r w e r ",
". X . . . . X O o X . . X o O o . . X . . O . . X X X X X . . . . . o . . . . . . . . o o o o . . . . . o O X . . . . X . . o . . O > < < < < < . . o . . . O O X X O X # } } [ [ } [ [ } X.X.} } o.8.8.8.8.8.7.[ [ [ [ } } } } } } } X.[ 0.0.0.0.0.0.8.8.8.8.8.8.8.9.u , c l a z 0 w 0 0 0 0 # X O X X . O 2 m m m m m > o . . o o . . . o o o o . O . . . . X . . . . X . X X . o o . o O . . . X o o o o . X X X . . . . . . . . . . . = K U ! U U U I O . . . . . . . o . o . . > I I I I U P . . . . . O h S z.z.z.z.+.] { { { { w @ @ @ @ @ @ % % $ O O X X X @ X X X 4 q q q { ] { { { } } [ { { } } } } } [ 7 7 7 5 5 7 @ . . X X . . . X X X + o e  .X.X.X.X.o.2 N M 2 2 1 o . . . . . . . . . . . . .   . . . . . ",
". . X X . o O . . . o . . . . . . . . X . X . . . . . . . . . . . . o . . . . . . . . . . o . . . . . . o . . . X . . O X O O . . O < < < < < < X . . . . X X O X O O X # [ [ [ [ } [ } [ X.X. .} X.8.8.8.8.7.8.} [ [ } [ } } } } X.X.X.X.0.a.0.0.0.0.8.8.8.8.8.8.8.7.c c l c l a w w w 0 0 0 & O O O O X O 1 M m N N N > . o . . . . . o o o . o o . o o . . . . . o . . . . . o . . . . o . . . . o o o . . o o . . . o . . . . o . . . . M ! I ! I I I O . . X X o . . X X . O O < I I I I I P . X . o . X h n.z.*.n.z.+.[ } { { { w $ $ @ @ @ @ % % $ O X X X X O X O @ 6 q q q { ] ] ] ] } } [ { } } } } } } } 5 7 7 5 5 5 @ X O X X X X . X O X . X w X.X.X.X.X.o.2 M 2 2 2 < . . . . . .   . . . o O O . . o o O X . ",
"X X . X X . . . . . . . . . . . . . . . . . . . . o . o o . . . X o . . . . . . . X o . . . o . . . . . . o . . . . X . X O . . . O < < < < < < o . . . . X X X X X O X # [ [ [ } } } } X.X.X.X.[ o.8.8.8.7.7.7.} [ } } } } } X.} } X.} X.0.0.0.0.0.0.8.8.8.8.8.8.8.7.c c c c c l w 0 0 0 w 0 & O O O O X X < N N N N N > o . . . . . . . o o o o o o o o . o o . . . o o . . . X . o . o . . . . . o o . . . . X o . . . . . X . . . . . . 1 I ! ! I I I O o . X X . . . X X X O o > I I U I I I . O . . . O h S z.*.z.n.%.[ } } { { r @ @ @ @ @ @ % % $ X X X X X O X X X 6 q q q { { ] { } } ] { [ } X.} } } [ } w 7 7 5 7 0 @ X X . X . . X X . O O O w X.X.X.X.X...1 1 2 2 1 2 o o . . . . . . . . . . . . . O X X X X ",
"o . . . . . . o . . o o . . . . . . . . . X o o . . o o o . o o . . o . . . . . o . . . . . o o o o . . . . o . . . . o O O . . . O < < < < < < . . . O o . X O X O O X # [ } [ ] { ] } } X. .} [ ..7.7.7.7.7.7.X.X.} } } [ } X.X.} [ X.X.0.0.0.0.a.0.8.8.8.8.8.8.8.7.l c l l 2 l e w 0 0 0 q # X O O O X X 1 N N m N N > o . o . . . O o o . o . o o . . . . X . . o . . o X O O O o . o . . . . . . . o o . . . o . o . . o . o . o . . . 2 ! I ! ! I I * O O X X . o . . o O O X > I I U U U I o X O o O O h H z.z.z.z.+.} { { { { e @ @ @ @ @ # % % @ @ X X @ X X X $ @ 6 q e q { ] ] { } { } [ [ [ } } } } } } w 7 5 5 w 5 @ O O X X . o o O O X X O 7 X.X.X.X.X.X.3 2 2 2 2 1 o . o o . o o . . . . . . . . . X O . X ",
"X . . X . o o o X X o . O o X O X . o . O O . . . X . . . o . . . . . . . . . . . . . . X X o . O . . o O o o . O o o O O . . X . O < < < < < > o . . . . . X O X X O O # [ [ { { { [ [ X.} } } [ X.9.9.9.7.7.7. .X.} } [ } X.X.X.X.} X.} 0.0.0.0.a.0.8.8.8.8.8.8.8.7.x l x x x Z e w 0 0 q q & X O X X X O 2 N N N N N > . . o . . . o . . o . . . o . X o O o . . . . . O O O O O . . . o . . o o o . . . . . . . X . o . o o X . . . X . 1 U I I I I I O X O X X X . . . . o O X > I I U U U I X X X O O O h H z.*.*.z.+.] { { { { e @ @ @ @ @ & & & # @ @ $ @ X X X X $ 6 ] q ] ] ] { { { ] } } } } } X.} } X.} w w 0 7 5 7 @ O X X X X X . o X X . o 7  . .X.X.X.X.3 2 2 1 < < o . X O o o X X O . . . X . o . X O . X ",
". . . O O O X . O O o o O O O O O O O O O O O O . O . . . O . . . . .           . . . . . . o X X o O O O O O O O O O O O O O O O * > > > > = > O O O @ @ X X O O O $ = # [ } } } } } } X.[  . .X.9.7.7.9.7.7.7.} } } } [ } X.} X.} } } } 0.0.0.0.0.0.8.8.8.8.8.8.8.7.z N N N V N r e e 0 0 0 % . X X X .   M N N N N m < o O X O O O O O O O O O O O O O O O O * * * O * * O = = = = = * O o o o . . . . . . o o . . o . . o . o o . .   . = 2 < 2 3 < > O . . . . .   . .   . o . < I I I I I Y X X o X o O g *.*.j j 3.&.} } | { | e & # & & 4 5 5 7 7 7 7 7 6 # @ @ @ @ 6 { ] ] ] ] ] e e q q e e { } } } } [ } w w 0 0 0 0 & X   . X . . . . . X + . w } } } } } X.1 2 M 1 1 < o o . o o . O o . . . . . . . . . .   X ",
"wXrXwXrXiXiXrXrXrXrXrXrXiXiXgXrXrXrXiXgXiX/ I I P I I N . o . . . o O < < < 2 2 2 U ! / ~ / / 0XwXqXqXeXeXeXrXrXrXrXiXrXrXrXrXeXeXeXwXwXeXuXrXrXu.0.0.0.0.0.k.5X5X5X5X5XK.8.0.0.0.0.0.s.s.q.q.vXs.0.0.0.0.0.0.0. . .} } [ } } } } } } X.X.q.q.q.q.q.q.0.0.0.0.0.0.a.0.qXjXkXhXkXlXk.9.7.7.9.9.$XrXiXiXuXrXuXiXrXrXuXiXiXgXiXgXiXgXiXiXiXiXgXiXiXiXiXiXiXgXgXiXgXgXiXiXiXiXiXuXiXrXuXuXrXuXT O O O O O O . . . o . . < P P I I I U 0XwXgXrXrXiXgXgXgXiXrXiXiXiXiXiXiXgXiXgXiXgXiXgXrX'.{.{.{.{.{.{.a.a.s.s.s.a.q.q.q.q.q.0.j.E.E.BXBXE.h.0.0.0.0.0.0.BXCXCXCXBXVXe.9.9.9.o.o.o.] ] ] ] ] { 7 6 6 6 6 6 e  . .X.} } } X.} X. .} }  .} X.X.X.} %.wXqXwXwXwXwX4.o.9.9.9.9.9.8.8.8.8.8.8.w.p.y.y.i.i.y.1XwXwXwXwXwXwXwXwXwXwXwX0X",
"iXrXiXiXiXiXrXiXiXiXiXgXiXiXgXiXrXrXgXiXiX/ P I I I I P X O . X O O O 1 1 1 3 2 1 U ~ U / / / 0XeXwXqXeXrXrXrXrXrXrXeXrXrXrXeXqXeXqXwXqXqXeXeXeXu.0.0.0.0.0.k.sX5X5X5X5XK.8.8.0.0.0.0.q.s.q.q.s.s.q.0.0.0.0.0.0.}  .} } [ [ } } } } } X.X.q.q.q.q.0.q.0.a.0.0.0.0.0.8.uXkXkXkXkXlX/.9.7.9.7.9.,XiXgXgXgXiXhXiXgXgXiXiXgXgXiXgXiXgXiXiXiXiXiXiXiXiXiXuXiXiXiXiXiXiXiXiXiXuXuXuXuXuXuXuXeXeX~ O O O O O O . . o . o . 1 I I I U U T gXjXjXjXgXgXkXkXlXkXkXkXkXkXlXkXlXlXjXlXkXkXlXkXlXoXVXVXVXVXVXVXj.s.s.s.q.q.0.q.q.0.q.0.j.E.E.E.E.mXE.8.8.8.0.0.0.BXBXCXCXBXVXu.o.o.o.o.o.o.] ] ] { ] ] 7 6 6 6 6 7 w } } } } X.[ X.X. .X.X. .X.o.o.o.o.o.6.iXgXgXiXgXfXH.o.o.9.9.9.9.0.0.0.0.0.0.f.g.p.u.p.k.d.uXgXgXgXiXiXiXiXgXgXgXgXiX",
"iXiXiXiXrXiXiXiXrXrXgXiXiXiXgXiXrXgXiXiXgX_ I I I I I P o O O X O O * 1 < 1 < 1 < I U ~ ~ / T 1XwXeXeXeXrXeXrXrXeXuXrXeXuXeXeXwXqXqXqXqXqXqXqXqXe.0.0.0.0.0.(.5X5X5X5X>X>X8.8.8.8.8.0.q.s.s.q.q.q.q.0.0.0.0.0.0.X.} [ } } [ } X. .X.} } } 0.0.q.0.0.0.0.0.0.0.0.0.0.0.iXjXkXlXlXkX`.7.7.9.9.o.-XjXgXgXiXgXgXgXiXgXgXiXgXgXgXgXiXgXgXgXiXiXiXiXiXiXiXiXiXiXiXiXiXuXiXiXiXuXuXiXuXuXuXuXqXeX~ O O O O O O o . . . . o < U U I U I / gXgXgXkXkXkXkXkXkXjXkXkXkXkXkXkXkXkXkXlXlXjXkXkXkXoXVXVXVXVXVX{.j.s.s.s.s.s.q.q.q.0.q.0.d.E.{.E.E.E.l.8.8.8.8.8.0.BXBXCXBXBXBXu.o.o.o.o.o.o.{ ] ] ] ] ] 7 7 7 7 6 7 w } [ [ } } } } } X.X.X.X.X.o.o.o.o.o.6.gXiXiXgXgXgXH.o.o.9.9.7.9.8.0.8.0.8.8.d.l.g.p.g.l.g.yXgXgXiXgXiXiXgXgXiXiXgXgX",
"rXrXrXiXiXiXrXiXiXiXiXiXgXiXiXiXgXgXgXgXgX_ I I I I I P X O O O O O * 1 < 2 1 < < U U ~ / / / 1XwXeXwXeXeXeXeXuXrXuXuXeXuXrXeXwXqXqXqXqXqXqXqXqXu.0.0.0.0.0.k.5X5X5X5X>X:X8.8.8.8.8.8.s.vXq.q.s.q.q.0.0.0.0.0.0.X.} [ } [ } } X. .} X.} } 0.q.a.q.q.0.0.0.0.0.0.0.0.e.iXkXkXkXkXkXH.9.9.9.9.9.-XjXgXiXiXgXhXhXgXiXgXiXiXgXjXgXiXiXgXiXgXgXiXiXiXiXiXuXiXiXiXiXiXiXgXiXiXuXuXiXuXuXuXeXeXeXT $ O O O O * O . . o . o 1 U I U I T / gXgXgXkXjXjXlXkXkXkXkXkXkXkXkXjXkXkXkXlXlXkXkXkXjXoXVXVXVXVXVX{.j.j.s.s.s.s.q.0.0.0.0.0.f.E.{.E.E.E.h.8.8.8.8.8.0.BXBXBXBXBXBX7.....o.o.9.o.] ] ] ] ] { 7 7 7 7 5 7 0 } } } } } } } } [  . .X.X.o.o.o.o.o.6.gXiXiXiXgXgXH.o.o.o.9.7.7.8.8.8.8.8.8.f.g.g.l.g.k.g.yXgXgXgXjXgXgXgXgXgXiXgXgX",
"rXrXgXiXiXiXiXiXiXiXiXgXgXiXgXiXgXgXiXiXiX/ I I I I I L X O O O O O = < < < 3 1 < I U / ~ / ~ 1XqXqXqXeXeXeXeXeXuXrXuXuXeXeXeXeXeXqXqXeXqXqXqXqXu.0.0.0.0.0.k.5X5X5X>X5X>X8.8.8.8.8.8.q.s.q.q.q.s.0.0.0.0.0.0.0.X. .[ } } [ } X.[ [ X.X.} 0.q.s.q.0.0.0.0.0.0.0.0.0.8.pXkXkXlXkXkXH.9.9.9.9.7.<XiXgXiXiXhXiXiXiXiXiXiXiXgXgXgXiXiXiXiXiXgXiXiXiXiXuXuXuXiXiXiXiXiXiXuXuXiXuXgXuXuXuXuXeXeXI $ O O O O O o . O o . . 2 I I I U I / jXgXgXkXjXkXkXkXlXkXkXkXkXkXkXkXkXkXlXlXlXkXkXkXjX{.VXVXVXVXVX{.j.j.j.j.s.s.0.0.0.q.0.0.d.R.l.g.E.E.l.8.8.8.8.8.0.BXBXBXBXVXBXu.o.o.o.o.9.o.] ] ] { ] ] 5 7 7 7 5 5 w } } } } } } } } } X.X.X.X.X.o.o.o.o.6.jXiXiXgXfXgXH.o.o.9.9.9.7.8.0.8.8.8.8.f.l.l.l.k.l.l.yXgXgXgXgXgXgXgXgXgXiXgXiX",
"rXiXiXiXiXiXrXiXiXrXrXiXiXiXiXiXgXgXgXgXgX/ I I I U I P O O O O O X O 3 3 < 2 1 3 I U / / / / 1XeXrXrXrXeXeXeXrXrXuXuXrXeXeXrXwXeXwXqXqXeXeXeXqXy.0.0.0.a.0.k.5X5X5X>X>X5X8.8.8.8.8.8.q.q.q.q.q.s.0.0.0.0.0.0.0. . .} } } [ } X.X.} } } } 0.q.q.0.0.0.0.0.0.0.0.0.0.8.pXkXjXlXkXkXH.7.7.9.9.7.<XiXgXgXgXgXgXgXgXiXgXpXiXiXiXiXiXiXhXhXgXiXiXuXuXuXuXuXuXiXuXiXiXuXuXiXiXiXiXiXuXeXeXuXuXeXI * $ O O * O . . X . . o 2 I U U T I / gXhXkXjXkXgXhXlXkXkXkXkXkXkXkXkXjXjXkXkXkXkXkXkXjX{.VXVXVXVXVXVXs.j.j.j.j.s.0.0.q.0.0.0.h.{.g.h.E.E.h.8.8.8.8.8.0.BXCXmXBXMXVX7.o.o.o.o.o.o.] ] ] { ] ] 7 6 7 7 5 5 0 [ } } } } } } } } } } X.X.X.o.o.o.o.6.gXgXgXgXgXgXH.o.o.o.9.9.7.8.0.8.0.8.8.f.l.{.l.l.g.g.yXgXgXgXgXgXiXgXjXgXgXgXiX",
"#X$X$X@X@X@XF.V.@X;X;XJ.;XJ.;X;X;XJ.:X@XJ.C.n.3.n.n.N.3.= = > = = = O * = * * * O C.V.V.V.V.V.F.F.V.C.V.V.M.C.C.M.M.S.C.M.C.V.C.V.B.B.B.B.B.B.C.O.o.o.o.o.o.1.V.F.M.F.F.S.o.o.o.o.X.X.o.o.X.o...X.7.0.0.0.0.0.0. .} [ [ [ } o.8.8.8.8.7.8.q.q.0.q.q.s.9.o.9.9.o.9.9.o.:X5X<X5X<X>X<.9.7.9.9.7.A.;X:X@X:X:X;X>X>X:X>X:X5X6X5X:X6X:X6XK.K.K.K.}.}.}.}.K.}.}.}.}.}.}.}.}.}.}.}.}.6XK.}.K.>X:XG 2 N N N N N O . o . . . z n.N.C.C.n.C.:X:X:X:X;X<X5X5X5X5X>X>X5X>X>X5X:X<X:X:X:X:X<X:X:Xk.g.p.p.p.p.u.7.7.7.7.7.7.0.0.8.8.8.8.8.u.e.e.e.e.8.7.7.7.7.7.8.y.w.y.y.w.y.} [ } [ } } } 7 6 6 4 4 6 & 6 6 6 4 7 w } [ [ } } [ } [ } } [ }  . .X.X. .X.,.2X4X4XqXqXqX6. .X.X.X.o.o.u.e.e.8.8.8.p.p.U.p.U.(.p.;X<X,X<X4X<X<X<X,X4X,X,XyX",
"n.z.&.,.1.,.1.1.1.c.c.c.v.c.A.c.1.c.1.1.2.2.>.>.>.>.>.;.1 1 1 1 2 2 O . o o . .   I.U.(.).U.).2.,.-.&.@.@.@.@.-.-.-.@.&.=.x.m.n.m.n.n.n.n.n.n.n.O.o.X.X.X.o.=.M.M.V.S.M.M.X.X.X. .X...X.X.X.X.X.X.7.0.0.0.0.0.0.[ X.} X.X.} o.8.8.8.0.0.0.q.q.s.q.a.q. .} } } X.X.X.X.w.8.e.8.8.8.7.7.7.9.9.7.o.o.X.o.o.o.o.I.Y.Y.I.Y.Y.I././.Y.Y.Y.Y.Y.U.U.Y.I.T.Y.Y.U.U.U.U.U.U.T._.T.T.T.T..X.X.X]._.T.M./ T / E / / = . . . . o f c.1.c.c.c.c.i.i.2.2.2.v.U._.T._._._.I.I.I.i.i.i.<.;.<.<.<.>.;.,.X.X.X.X.X.X.}  .} } } X.8.8.0.8.8.8.8.7.7.7.7.8.7.9.9.7.7.7.7.o.X.X.X...X.{ q q q ] { 7 @ X X X X X & 6 8 6 6 4 w { { ] { ] { X.X. . .X.X. .X.X.X. .X. .} } [ [ [ [ [ [ }  . . .X.XXXXXXXXXXXXXX_.OX.X.XOX_._.).T.).Y._.).).).)./.).).",
"n.3.,.1.1.,.,.,.1.c.c.c.v.v.c.2.2.1.1.2.2.2.>.>.>.i.>.w.1 1 1 1 < 1 O . . .   . . I.U.U.T.Y.U.2.,.,.@.@.@.@.} } } @.X.@.m.m.4.m.m.m.n.n.n.n.n.n.O.X.o.o.o.X.1.S.C.V.M.M.m.X.X.X.X.X.X.X.X.X.X.X.X.7.0.0.0.0.0.0. .X.X.X.[ [ o.8.8.8.8.8.8.q.q.q.s.0.q.X.} } X.X.X.X.X.7.e.8.8.8.8.7.7.7.o.o.o.o.o.X.X.X.X.o.I.I.I.I.I.Y.Y.I.Y.U.I.I.Y.I.U.U.T.U.Y.Y.Y.U.T.U.Y.U.Y.T.T.T.T.(.U.]..X[.].]._.M.^ ~ / ~ / / = O . . X o h c.c.c.c.c.c.i.i.2.2.2.2.U._._.T.T._.I.I.I.r.i.i.<.;.<.>.<.<.;.O.X.X.X.X.X.X.}  . .} X.X.8.8.0.8.8.8.8.8.8.8.8.8.7.7.7.7.9.9.8.X. .X. .X.X.{ q q q ] q 6 X X X X X X # 6 # 8 6 8 7 } { { { { { } X.X. . .X.X.X.X.X.X.X. .} } } } } } } [ }  .X.X.X.XXXXXXXXXXXX.X].W.].]._.T.T._._._.).).D.D.).v.A.).).",
"S *.&.1.1.,.,.:.1.c.c.c.c.c.c.c.c.1.c.1.1.>.>.>.;.;.>.w.1 < 1 1 2 2 O . . . . X X Y.Y.Y.Y.U.U.2.,.@.@.-.-.} } } } X.} &.m.m.m.m.m.n.n.z.n.n.n.n.O.o.X.X...o.1.M.M.M.M.M.M.X.X.X.X.X.X.X...X.X.X.X.7.0.0.0.0.0.0. .X.X.X.X. .9.8.8.8.8.0.0.q.q.q.q.q.q.o.} } X.X.X.X.X.e.8.8.8.8.8.7.7.o.7.o.7.o.O.X.O.X.O.;.I.I.I.I.I.Y.Y.I.Y.Y.Y.Y.Y.I.Y.U.I.U.U.Y.U.U.U.U.U.Y.U.T.T.T.T.T.T.].XX].W.]._.S.( / / / / / $ . . . X o h c.c.c.c.c.c.r.>.i.i.2.I.U._._.T.T.T.Y.i.i.i.y.i.;.<.<.<.;.<.<.X.} X.X.X.X.X. .[  .X.X. .8.8.8.0.8.8.8.8.8.7.7.8.7.9.7.7.9.9.9.X.X.X...X.X.] q e q e 0 @ O X X X X . & 6 6 6 6 8 7 ] { { { { { } [ X. . .} X.X. .X. .X. .} } } } } } } } }  .X.X.X.XX~.XXXXXXXX.X].].].].]._.(.(.(.).Y._.).D.D.D.v.A.).",
"z.*.1.1.,.1.,.1.,.c.c.c.c.v.v.2.2.1.1.1.c.>.>.i.>.i.>.y.1 1 , < 1 1 O . . . . . . Y.U.U.U.U.Y.v.-.@.X.} -.} } X.} } } @.4.m.m.m.m.m.n.n.m.m.m.m.O.X.o.X.X.X.,.M.M.M.M.m.m.X.X.X.X.X.X.X.X.X.X.X.X.7.0.0.0.0.0.0.} } } X.[ } o.8.8.8.0.0.0.q.q.q.s.s.q.X.} X.X.X.X.X.X.e.e.8.8.8.8.7.o.o.o.o.7.o.O.O.o.O.O.o.I.I.I.I.I.Y.I.I.I.I.Y.I./.I.I.U.U.I.I.I.I.Y.Y.Y.U.Y.Y._._.T.U.U.U.]..X].].].].S./ / / / / / = . O X . X j c.c.v.c.c.2.i.i.i.i.2.i.U.T._.T.T._.I.I.i.i.y.y.;.;.<.<.<.<.;.O.} } } X.X. .[ [ X.X.[ X.9.8.8.8.8.8.8.8.7.7.8.8.7.9.9.7.7.7.9.........X.X.] q q q 0 0 X . . X . X X # & 6 6 6 6 7 ] ] { { { ] X.X.X.X. .X.X.X.X.X.X.X. .[ } [ } } } [ X.X.}  .X.X.XXXXXXXX.XXX.X].].]._.]._.(.(._._._.(.v.v.v.I.v.c.v.",
"3.*.&.,.1.,.,.1.1.c.c.c.c.v.v.c.1.c.1.2.1.>.i.r.>.i.>.w., , 1 , 1 1 $ . . o o . . I.U.U.Y.U.U.I.-.-.@.} @.} X.} X.X.} @.x.x.m.m.m.m.n.n.n.m.m.m.-.X.X.X.X.X.,.M.m.x.m.M.m. .X.X.X.X.X.X.X.X.X.X.X.9.0.0.0.0.0.0.} } } }  .X.o.8.8.8.8.0.0.q.q.q.q.q.q.X.X.X.X.X.X.X. .7.7.8.8.8.8.o.o.o.o.o.o.o.O.O.O.X.o.o.I.I.I.I.I.I.I.I.I.I.I.I.I.I.I.I.U.I.I.I.Y.Y.I.I.U.Y.I.(.T._.U.(.U.].].].]..XW.S.~ / / / / / = . . . o X j c.c.c.c.c.2.i.i.i.2.>.2.T.T.T._.T.T.I.i.i.i.y.>.y.;.>.<.<.;.;.X.} } }  . .X.} X.X. .X.} 7.8.8.8.8.8.7.8.7.7.7.8.7.9.7.9.7.7.9.X.X.X.X.X.X.] q q q 0 5 . . . X . X X # & 6 6 6 6 7 { { ] { { {  .} X.X.X.X.X.X.X.X.X.X.X.[ } } } } } } X.X. .} X.X.XXXX.XXX.X.X.XT.].].]._._.(.Y._._._.(.v.A.v.A.v.v.A.",
"*.j $.,.,.&.,.:.1.v.c.v.v.c.v.c.2.2.2.1.1.2.>.>.>.i.;.w., , < 1 , < O . . . . . . I.Y.T.T.T.U.I.,.@.-.-.-.-.} X.X.X.} @.m.m.x.x.m.m.n.n.n.n.m.x.X...X.X.X.X.,.M.m.m.x.m.x. .X.X.X.X.X.X.X.X.X.X.X.o.0.0.0.0.0.0.[ } } [  .} o.8.8.8.0.0.0.0.q.s.q.q.q.o.X.} X.X.} X.X.7.7.8.8.7.7.o.o.o.o.o.o.o.X.O.O.O.o.X.I.I.I.I.I.I.I.I.I.I.I.I.I.I.Y.I.Y.I.I.I.U.I.I.I.Y.Y.Y.U.T.T.Y.U.Y.].].].].].].F.T ~ / / / / > o . o . . j c.c.c.c.c.2.>.i.i.2.2.2.T.T.T.Y.T.T.I.I.I.i.i.;.y.<.2.<.<.;.;.X.} } } [ [ X.} X.} X.} X.7.7.8.8.7.7.7.7.7.9.7.7.9.7.7.7.7.7.9.o...o.o.....] q q e 0 6 X X X X X X X % & 6 6 6 6 5 ] ] ] { ] ] X.}  .X.X.X.X.X.X.X. .X.X.[ } [ [ } } } X.}  . . .X.XXXXXXXXXXXX].W.W..X].]._.).)._.(.(.(.Y.v.v.v.v.A./.",
"*.*.-.-.-.-.-.-.,.v.v.v.c.v.v.2.2.v.c.2.1.y.w.w.w.w.w.w.x 2 2 N N x * . . . . . . c.Y.I.Y.Y.I.2.O.O.-.O.O.O.-.-.-.-.-.,.=.=.=.=.=.x.c.c.c.c.c.c.i.r.i.i.r.r.i.I.I.I.v.v.c.X.X.X.X.X.X.7.7.8.8.8.8.8.0.0.0.0.0.0.[ } [ X. . .X.o.o...o.o.9.0.0.0.q.q.s.X.X.X.X.X.}  .} ;.<.;.w.w.w.9.7.7.o.o.9.;.1.<.<.<.<.<.v.v.v.2.I.v.v.v.2.2.2.2.v.2.1.1.1.1.1.1.1.1.1.1.1.1.2.>.>.2.2.>.2.i.i.i.i.I.I.4.~ ~ ~ T T / = . . . o o j c.c.c.v.c.I.W.W.R.W.W.W.W.R.W.R.R.T.y.y.w.w.w.w.w.u.u.p.u.u.u.7.o.o.o.o.o.o.o.o.o.o.o.o.o.o.9.7.9.9.9.9.7.7.8.7.9.o.o.o.o...o.@ @ @ @ @ @ X X X X X X . . . . . . . X X X X X O X 6 & 6 6 6 6 X. .} X.X.X.X.X.X.X.X.X.} } } } } [ } ] { { [ ] [ } M.M.M.M.M.Z.A.T.U.U.U.U.Y.u.u.t.p.u.U.v.c.c.c.c.c.v.",
"z.*.-.-.;.o.;.o.;.v.v.v.v.v.v.v.2.v.v.2.2.y.e.e.e.e.e.e.N N N N N V * . . .   . . c.I.Y.U.U.I.y.w.o.;.;.;.-.<.<.:.<.<.,.=.=.=.=.=.=.v.2.c.c.c.c.I.U.I.p.p.I.I.I.I.I.v.v.v.X.X.X.X.X.X.8.8.8.8.8.8.8.0.0.0.0.0.0.[ [ X. . .X.X.X.X.X.X.X...0.0.0.q.q.q.X.} } } X.} X.X.<.>.>.y.y.w.7.7.7.7.7.7.i.v.I.I.v.I.v.v.v.v.v.v.v.v.v.v.v.v.v.v.c.1.$.1.$.1.$.,.1.1.1.,.:.<.<.<.<.<.,.<.i.i.i.i.i.i.m.T ~ T T ~ / = . . o X . j c.v.v.v.v.I.Q.Q.~.[.XXXXW.W.R.W.W.R.e.e.e.e.e.e.e.d.d.d.d.g.g.e.8.7.7.7.7.9.o.o.o.o.o.o.o.9.9.7.9.7.9.9.9.7.7.7.9.o.o.o.o.o.X.O X O X X O o . . . . . . . . . . . . o . o X X X X 6 6 6 & & 6 X.X.X.X.X.X.X.X.X.X.X. . .} } } } } } } ] ] { { [ ] S n.n.n.n.n.c.Y.Y.Y.Y./.I.e.e.e.u.e.u.v.c.v.A.A.A.A.",
"z.*.<.o.;.;.o.o.<.v.v.v.2.v.c.2.2.2.2.2.v.r.e.e.e.8.e.e.N N N N N N * . . . . . . c.Y.I.I.Y.I.r.w.w.;.o.;.<.1.>.<.<.<.,.=.=.=.=.=.=.v.c.v.c.v.c.i.U.U.U.U.U.I.I.v.I.I.I.v.X.X.X.X.X.X.8.8.8.8.8.8.8.0.0.0.0.0.0.X.}  .X. .X. .X.X.X.X.X.o.0.q.q.q.q.q.X.} } } X.X.X.X.<.;.<.y.;.w.w.7.7.7.7.7.i.I.v.I.I.I.I.v.v.I.2.v.v.v.2.v.v.v.v.v.v.1.1.1.1.1.$.,.,.1.1.1.<.,.<.<.-.<.<.<.i.i.I.i.I.I.m.T E E E ~ / * . o o . . j c.A.c.v.v.I.Q.Q.[.[.Q.[.W.W.R.W.W.R.e.e.e.a.e.8.8.g.g.d.d.g.g.8.8.7.7.7.7.7.o.o.7.o.o.o.o.9.7.7.7.7.9.7.7.8.8.7.9.o.o.9.o.9.o.X X X X X X . . . . . . . . . . . o . o . . . . . @ 6 6 6 & 6 6 X.X.X.X.X.X.X.X.X.X.X.X.} } } } } [ } } { { ] } { { S n.n.n.n.C.Z.Y.Y.T.(.Y.Y.e.e.e.e.e.u.v.v.c.c.c.A.c.",
"z.z.<.;.o.;.o.o.<.c.c.c.c.1.2.2.v.1.1.1.c.y.8.e.e.e.8.e.m N N N N N * . .   . . . c.U.I.Y.I.I.>.;.w.;.o.;.<.<.,.<.<.<.1.=.=.=.=.=.=.c.c.c.v.c.c.i.U.U.U.U.p.I.I.v.v.I.I.v. .X.X.X.X.X.8.8.0.8.8.8.8.0.0.0.0.0.0.X.} }  . .} X.X.o.o.o.o.o.q.q.q.q.q.q.X.} } } } X.} } <.;.;.;.;.r.7.9.7.7.7.7.i.I.I.I.I.I.v.I.2.v.v.v.i.v.2.v.v.2.v.v.v.,.1.1.1.1.1.1.&.1.$.,.,.<.<.<.<.<.<.:.i.i.i.i.I.I.m.T E ~ T T E O O . X . . j Z.A.c.v.v./.Q.[.[.XX[.[.W.R.W.W.W.W.e.e.0.a.a.a.e.g.d.d.d.g.p.u.8.8.7.7.7.7.o.o.7.o.o.o.7.7.7.7.9.7.9.7.7.8.7.7.9.o.o.o.o.o.X.X X X X + + X X . .   . . . . . . . . . . . . . . @ 6 6 6 6 6 6 X.X.X.X. .X.X.X.X.X.X.X.} } [ } } } } [ [ ] ] [ { { n.n.n.n.n.C.Z.Y.Y.Y.U.T.Y.8.u.u.e.u.u.c.v.v.c.c.c.c.",
"n.x.-.;.o.;.o.o.<.c.2.c.v.v.v.c.2.1.1.1.1.y.8.e.e.8.e.e.m m N m N N * . . . . . . c.Y.I.I.I.I.r.;.;.o.o.;.-.1.<.<.<.,.1.=.=.=.=.=.x.c.c.v.c.c.c.i.t.U.U.U.U.i.I.I.v.I.I.v.X.X.X.X.X.X.8.0.8.0.0.8.8.0.0.0.0.0.0.X.} } [ [ [ X.o.o.o.o.o.o.0.q.q.q.q.q.X.} } X.} X.X.} <.;.;.<.<.y.w.7.7.7.8.7.i.I.Y.I.I.I.I.I.2.v.v.v.v.v.v.v.v.v.v.c.v.$.1.1.1.1.$.1.,.$.$.,.,.,.-.<.<.<.<.<.2.i.i.I.I.i.m.T ~ T T T / * X . . X . g c.A.v.v.v.Y.XXMXVXQ.[.Q.W.W.W.W.W.W.e.a.a.a.a.a.e.g.d.d.g.d.g.e.7.7.7.7.7.9.o.o.9.o.o.o.o.9.7.7.7.9.7.7.7.7.7.7.9.o.9.o.o.o.X.X X X O X X O X X . O . . . . . . . . . . . . . . @ 6 4 6 6 6 6 X.X.X.X.X.X.X.X.X.X.X.X.} } } } } } } ] ] ] ] } [ { n.n.n.n.n.C.Z.Y.Y.Y.Y.U.Y.e.e.e.e.e.u.v.c.A.v.Z.Z.A.",
"n.x.-.;.;.;.o.o.<.c.c.2.v.2.c.1.v.1.2.1.1.y.8.8.8.8.8.e.N m K N N N * . . . . . . c.U.U.I.I.I.>.;.;.o.o.o.O.1.1.1.<.1.1.=.=.=.x.=.=.c.c.c.c.c.c.U.p.U.U.U.U.I.I.I.I.I.I.v.X.X.X.X.X.} 8.0.0.8.0.0.8.0.0.0.0.0.0.[ [ [ } [  .X.o.o.o.o.9.9.q.q.q.q.q.q.X.X.X.X.} } } } ;.w.y.w.w.y.7.7.7.7.7.7.i.I.I.v.v.v.v.v.v.2.v.v.v.v.v.v.v.2.v.v.c.$.$.$.$.$.&.$.@.$.$.,.,.,.<.<.<.<.<.>.i.i.i.i.i.I.Z.T T T T ~ ~ O o O O O . j c.c.c.c.c.Y.[.~.XXQ.[.[.W.W.W.R.W.W.e.a.a.a.a.a.e.d.d.g.d.d.d.e.8.7.7.8.7.7.7.9.9.9.9.o.o.7.7.7.7.7.7.8.7.7.7.7.9.9.9.9.o.9.o.X @ X O X X + . . . . . .   . . . . . . . . . . X @ 6 & 6 & 6 6 X.X.X.X.X. . .X. .X.X. .} [ } [ [ [ } ] ] ] ] { { { S n.n.n.n.C.Z.Y.T.Y.U.Y.Y.w.e.e.e.e.u.c.A.A.A.Z.c.c.",
"*.x.<.o.o.o.o.o.<.1.1.c.1.1.1.c.c.c.c.1.1.y.e.8.8.8.8.7.N N N K N N * o . . . . . 2.U.Y.Y.I.I.r.;.;.o.;.;.-.,.2.,.,.$.$.=.*.*.=.=.=.Z.c.c.1.c.c.U.U.p.i.i.I.I.v.I.I.v.I.2. . .X.X.X.} 8.8.8.8.8.0.8.0.0.0.0.0.0.[ [ [ } } } ..o.9.9.9.7.8.q.q.0.q.q.q.X.X. .X.X.} } X.;.;.w.w.w.w.7.7.7.7.7.7.>.v.I.v.v.v.v.v.v.2.v.v.2.v.v.2.v.2.v.v.c.$.$.=.$.&.$.$.&.&.,.,.1.,.-.<.-.<.;.<.r.i.i.i.i.i.4.T T T T ~ T O O . X X X f c.c.c.c.c.Y.NXXX~.ZXXX[.W.W.W.W.W.W.e.a.a.a.a.a.e.d.d.d.d.d.p.e.e.e.8.8.7.9.9.9.9.o.o.o.o.7.7.7.7.9.9.7.7.7.7.7.9.9.9.9.9.9...X X X X X X   . . . . .   .   . . .   . . . . . O @ & 6 6 & & 4  . .X.X.X.X.X.X.X.X.X.X.X. .[ } [ } } [ ] ] ] ] ] ] S S n.C.n.N.m.Y.T.T.T.T.U.e.e.e.e.e.u.2.A.c.c.A.c.c.",
"=.m.-.o.o.O.o.o.-.O.-.-.-.-.-.1.1.c.c.1.x.1.o.o.o.9.o.o.N N N N N K > . . . . . o h *.*.*.*.*.3.*.*.*.j *.1.v.2.v.v.v.2.v.v.v.v.v.v.I.I.I.Y.Y.Y.i.I.I.I.I.I.v.*.*.*.=.=.=.O.O.O.X.O.X.X.X.X. . .} 9.0.0.0.0.0.8.} [ [ ] ] [ 6 X @ @ @ @ # a.q.0.0.0.q. .X.X.X.X.O.O.X.3.*.*.*.*.*.;.7.7.7.7.7.1.m.x.x.Z.m.c.c.1.c.c.c.c.1.1.1.1.1.1.1.x.1.1.1.1.1.1.1.1.1.1.1.c.=.=.1.1.*.=.*.*.*.#.*.#.*.b L V L L I I O o . . . o u f h j g g *.#.*.$.$.1.<.w.7.7.7.w.;.7.7.7.w.7.7.7.I.I.I.i.i.U.2.m.m.n.m.m.=.m.m.n.m.m.m.o.o.o.o.o.o.o.7.7.9.7.7.7.o.o.o.o...o.1XwXiXrXiXgX2 . .   . . . . . . . .   . . . . . X & 0 q q q e q  .X.X.X.X. .X.X.X.X.X.X.| *.3.3.3.*.*.3.3.3.3.3.3.b *.*.*.=.*.#.,.7.7.w.w.y.w.w.w.w.w.7.;.c.A.A.A.A.D./.",
"n.n.,.O.O.o.;.o.O.-.-.-.-.-.-.c.c.c.c.c.c.<.o.7.o.o.o.o.N L K K L L * . o o . . . f *.j j j *.j *.*.*.#.*.v.I.Y.Y.Y.I.I.I.I.I.I.I.I.I.Y.Y.I.Y.I.I.v.I.I.I.I.v.x.=.=.=.=.=.o.o.o.X.X.X.X.X.X.X.X.X.9.0.0.0.0.0.0.{ { { { { { 6 o O . X O X 0.0.q.0.0.q.o.X.O.O.O.O.X.X.3.*.*.n.*.*.;.7.7.7.7.7.1.m.c.m.x.Z.x.c.c.c.c.c.c.c.c.c.c.c.x.=.1.1.1.1.1.1.1.1.1.1.1.1.1.1.=.=.$.$.=.*.#.*.*.*.*.*.b L I L I V L O O o o . o u f f f f f j %.#.*.&.&.,.7.7.7.o.;.;.7.e.8.8.7.7.7.I.I.I.I.I.Y.c.C.C.C.C.M.C.C.C.C.C.m.m.-.o.o.o.o.o.o.9.7.9.9.7.9.o.o.o.o.o.o.pXhXjXjXjXjXN . . . . . .     . . . . . . . . X X 4 ] [ ] [ [ [  .X.X.X.X.X.X.X.X.X.X.} @.3.n.3.n.n.n.n.n.C.n.n.n.n.#.#.#.#.*.*.&.7.7.7.7.7.7.w.w.w.;.o.7.c.D.D.D./.D.D.",
"m.z.-.O.O.O.O.O.-.,.-.-.-.-.-.=.Z.c.c.c.c.<.7.7.o.o.o.o.V L K P L V * . . X o . . f j j j j j *.*.*.*.*.*.v.(.Y.U.Y.Y.Y.I.I.v.v.I.I.Y.I.Y.Y.Y.Y.I.v.I.I.I.I.v.x.=.=.x.=.=.o.o.o.o.o.o.X.X.X.X.X.X.9.8.0.0.0.0.0.} { { { { } 7 o o . . O @ 0.0.q.s.q.q.o.X.X.O.O.O.O.-.n.3.*.*.*.z.7.7.7.7.7.7.1.m.m.x.m.c.m.c.c.c.c.c.c.1.1.1.x.1.1.=.=.1.1.1.1.1.1.1.1.1.1.1.1.1.=.=.*.$.*.*.*.*.*.*.*.%.v L L L I L V O X . . o . u f f f f h j #.*.*.&.&.,.7.7.7.7.o.o.7.e.8.7.7.7.w.(.I.I.I.I.I.c.C.C.C.m.m.m.m.C.C.C.m.m.-.o.X.X.o.o.o.7.9.7.9.7.9.o.o.o.o.9.o.gXkXjXgXjXgX2 . . . . . . . . . . .   . X . X . X 6 { [ } ] [ [ X.X.X.X.X.X.X.X.X.} X.} | n.n.3.n.n.n.n.C.C.n.n.n.n.*.#.#.*.*.#.&.7.w.7.w.w.7.w.;.;.;.o.o.c.D.A./.D.D.).",
"m.m.-.O.o.o.o.o.O.-.-.-.-.-.-.=.c.c.x.c.c.<.o.7.o.o.o.o.N V L P V V * .   . . . . f j *.*.j *.j *.*.*.*.*.c.U.T.T.U.Y.Y.I.I.I.I.I.I.Y.I.Y.Y.Y.Y.v.v.I.I.I.I.c.x.x.x.=.x.=.O.X.o.o.X.o.o.X.X.X.X. .9.0.0.0.0.0.0.[ } ] { { { 4 . O O X O X 0.a.0.0.q.q.o.X.X.X.X.O.X.-.n.z.z.3.*.z.o.7.w.7.7.7.1.m.m.m.m.m.m.c.c.c.1.c.c.c.1.c.1.c.=.=.=.c.1.1.1.1.1.1.1.1.1.1.1.$.=.=.$.$.=.*.#.*.*.#.*.*.v V L L L L V o . . . o o t f f h f f j *.+.&.&.&.&.o.;.;.o.o.o.7.8.8.e.w.7.7.I.I.I.I.Y.I.c.C.C.C.M.m.C.m.m.C.C.C.m.,.X.X.X.X.o.o.9.9.9.7.9.9.o.o.o.o.o.o.iXjXkXjXjXgX2 . . . . . . . . . .     . X . . X X 6 [ [ [ ] [ } X.X.X.X.X.X.X.X.X.} } } | n.n.n.n.n.n.n.n.n.n.n.n.n.*.#.#.#.#.#.@.w.o.7.7.7.7.;.;.o.o.o.o.c.A.D.A.A.D.D.",
"n.n.,.o.O.o.o.X.-.@.-.} @.X.} =.x.x.m.c.c.<.7.o.o.o.o.o.L P P L L P * . . . . . . f j j j j *.*.*.*.*.*.*.c.T.(.T.U.Y.Y.I.v.v.v.v.v.I.I.I.Y.Y.I.I.v.I.I.I.v.c.x.=.x.=.x.=.o.o.o.o.o.o.o.X.X.X. .X.o.0.0.0.0.0.0.} [ { { ] { 6 X O . . X X 0.0.a.a.0.s.o.O.X.X.X.X.X.O.*.*.*.*.3.n.o.7.7.7.7.7.1.m.4.4.m.m.m.c.c.c.c.c.c.c.c.c.1.c.x.=.=.1.1.1.1.1.1.1.1.1.1.1.1.=.=.=.$.*.$.*.#.#.*.*.*.*.v L I I I I V . X o X o o u f f h f f j %.*.=.&.&.&.o.;.o.o.o.o.7.7.7.8.8.7.w.I./.I.I.I.I.Z.M.M.C.C.m.n.m.m.C.C.m.m.,.X.o.X.X.o.o.o.9.9.9.9.9.o.7.o.o.o.o.iXjXkXkXgXgX2 . o . . . . . . .   .   o o . . O X 7 [ ] ] ] [ }  .X.X.X.X.X.} } X.} } } @.n.n.n.n.n.n.n.C.C.n.n.n.n.#.#.#.+.#.#.&.7.7.7.7.7.7.;.;.;.;.;.-.c.A.D.A.A.A.A.",
"m.m.,.o.o.O.o.O.X.@.@.} @.@.@.=.x.=.x.1.c.<.o.o.9.o.o.o.V P L L L K * . X X . . . i j j j j j j *.*.*.*.*.v.(.T.U.U.U.Y.v.v.v.v.v.v./.I.I.I.I.I.v.v.I.I.I.v.v.4.x.=.=.=.m.O.o.o.X.o.o.o.X.O.X.X.X.o.0.0.0.0.0.0.{ ] ] } ] ] 7 X X . X X O 0.0.0.0.0.q.o.O.X.X.X.X.X.O.*.*.3.3.n.n.7.7.7.7.7.7.1.m.x.x.x.x.c.c.c.c.c.c.c.c.c.c.c.1.=.=.1.1.1.6.1.1.1.1.1.=.1.1.=.*.*.=.=.=.*.*.%.*.*.*.*.%.v C I I I I L . o . . . o u h h f f f k %.#.+.&.&.&.o.;.o.o.o.o.w.e.e.8.w.7.w./.I.I./.I.Y.Z.M.M.C.C.C.n.C.C.C.n.C.m.,.X.X.X.X.O.o.o.9.9.7.9.9.o.7.9.o.o.o.gXjXjXjXgXgXM . . . . O . . . . . . . o X X O X X 7 } [ ] [ [ [ X.X.X.X.X.X.X.X.X.X.} } @.n.n.n.3.3.n.n.n.n.n.n.n.n.#.#.#.#.&.+.,.7.7.7.7.7.w.;.;.;.;.;.-.A.D.v.A.A.A.A.",
"m.M.<.o.o.o.o.o.O.-.-.-.-.-.} 1.c.c.Z.6.1.<.7.7.7.9.7.o.K V V L P P *   . O . . . h *.*.j j j *.*.4.=.=.*.I.].T.T.T.T.T.I./.I.Y.I.v.Y./.Y.Y.Y.I.I.Y.I.Y.I.I.2.1.m.Z.x.=.x.O.O.o.X.o.o.o.o.X.X.X.X.9.0.0.0.a.a.0.] { ] ] ] } 7 X X X . X O 0.0.0.0.0.s.o.O.o.o.o.X.O.X.#.*.n.n.n.n.7.7.7.7.7.7.4.m.Z.c.Z.Z.Z.A.A.A.c.c.v.c.c.c.1.1.1.=.1.1.1.c.1.1.1.1.1.1.1.1.1.$.=.=.=.=.=.*.#.*.*.*.*.#.v L L L I I L . o O o o o u h f h f f k #.#.&.&.&.-.7.7.7.7.7.7.8.8.8.8.8.e.u.U.I.Y.I.U.U.A.M.M.M.M.M.M.C.M.M.M.M.m.,.X.X.o.o.o.o.9.9.o.9.9.o.o.o.o.o.9.9.uXgXgXgXgXiX2   . .       . . . . . . . X X O O X 7 [ [ [ [ [ [ } X. .X. . .X.X.X.X.X.} | n.n.n.n.n.n.C.C.C.C.C.n.n.=.*.*.*.&.&.,.7.w.7.7.7.w.;.w.w.w.w.;.A.D./././.).A.",
"X X X O X X X X X X X X O X O O X $ @ $ X @ @ @ @ @ $ @ N L L L K K * . . . . . . O O O X X O O X O $ X $ $ $ @ @ @ @ $ $ X $ @ X O $ @ @ @ O X $ @ $ @ @ X X $ X X X X O X X X X X X # 0 0 w 0 0 X.0.0.0.0.0.0.4 6 6 6 & 6 @ . . . . X X 0.0.0.q.0.q.7 % @ @ $ @ @ % u u u u c c O.o.o.o.o.o.; % - $ $ O $ O @ $ O O O X X X O O X O O X X X O X X X O O X X X O X $ O O X X @ @ $ @ X $ = 2 N M M M 2 O o o . O . X O X X X O X @ @ @ $ $ # & # & 6 6 6 6 6 & 6 % 8 & - ; % - % % % = = $ = $ $ $ = $ $ $ = @ @ X @ @ @ @ 9.o.o.o.o.} @ X X X @ % / / / / / / / / / / / / M o .   . . . = , c c u c r [ ] ] ] ] ] X. .[ } } X.{ e e q w 0 w % ; ; ; ; - - - - - - $ = $ % % # % % # 6 6 6 9 7 6 8 6 8 8 6 6 % 8 8 8 8 8 t ",
". X X O o o o o X X X X o X O . X o O X O X X O X X O . N P P P K P * . . .   . o . . o . X . o . . X . . . o o O X O X X O O . . o . X O O o O X X O o o o O X X X X X O O X X X O O @ 0 0 0 0 0 X.0.0.0.0.0.8.& & & # & & @ . o . . X X 0.q.q.q.q.q.6 O O O O O X O - - - - - 1 o.o.o.o.o.o.% = $ = O O X O X O o o O o o . . X . . o . . . O . . . o . . . . . o . o o . X . . . . . X * 2 2 2 2 2 2 O . . o O O X X o O X . X . o o . . O O O O O X X X X X O o o o O X o O O O O O O o o o   . . . . o X X O O O X X @ 9.o.o.o.o.} X X X X X O / / / ' / _ ` ` ` ` ' ` N o . . . X X - c a a c c r [ [ [ } } [ X.X.X.X.X.X.{ w 7 7 5 0 6 . . . . . o o X . . o . . . X X O O o o o O o O O X O o X . o o . . . . X . X ",
". . X . . . . . . . . . o . . . . . X X X X X X . X O   N P L K K K * . . . . . . . o . . . . o o . . . . O X O . . X O . . . . . . o . o o . O X o . . o o . X X X X X X O O O X O X @ 0 0 q q q X.0.0.0.0.0.0.& & & & 6 & X . . . X X X 0.q.q.s.q.s.6 O X O X O X O - , - c c 1 ;.o.o.o.o.o.% $ $ $ O O O O O X O O O . . . o o . . . . . . X . . o o . . . . . . . . . o . X . . . . o O 2 M m M 2 2 X . . X O O X . O X X . o . . . . o o X O . . o X . o o X X . . X o o . O O O O O . o o . . O . X X X O X O X X X X 9.o.o.o.o.{ X O X X X = ) / ' ' ) ' ` ` ` ` ` ` N o . . . . . - c a c c c r [ [ [ } [ [ } X.X.X.X.X.q w w 0 0 0 6 X . . . . . . o . . o o o . . . . . . X X X O . o . . o . . . . . . . . o . . ",
". . X . . . . . . . . . . o . X . o o . . . . . X . O . N P P L K L * . . o . . . X . . . . . . o . . . . O X X . o O O . . . X X O X . o o . X X . . . o o o O O X X X X X O O O O X @ 0 e e e q X.0.0.0.0.0.8.& & & 4 6 & X . . o O X X 0.q.s.q.q.s.6 O X X X X X O - , - 1 1 , o.o.o.o.o.X.$ $ O O O O o . X O X X X X . . . O . . . . . . . . . O X X O . o o o o o o . o X . . . . . O 2 2 m M M 2 O o o o O O O X O X . o . o . o o . o X . . o o O X O o . . . . O o . . . . O O O O O o o . . o O X X O O O X X X X 9.o.o.o.o.} X X X X X = _ / ' ' ) ' ' ` ` ` ` ` K o . . . . . = c a c c p d [ [ [ [ [ ] X.X.X. . .X.q w w 0 0 0 6 X . . o . . . O O . . o o . . . . o o o . . . . . . . O . . . . . . . . . . . ",
". X X . o . . . o O o . . . O . . . . . X X . X . X X X N P P P P K * o . o o . . . . . . o X o o . o O O O X X . . . X . O O O X O . o o o X X X . . . o O O O X X X X X X O O O O O # q q q e q o.0.0.0.0.0.8.# & & 6 6 4 @ X X X X O X 0.q.q.q.q.q.6 O X O X X X X - - - 1 1 , o.o.o.o.o.X.$ = O O O O O O O O O X X O . . . O o . . . . . . . . o . . . . . . . o . . o O . . o . o O O 2 M m m m m o o X X O O O O O O o . . . o . o O o . X X X X O X . o o . . X o o o X . o O O O O O o o o . O O X X O O X X X X X 9.o.o.o.o.{ X X X X X O / _ ) ' ' ` ` ` ` ` ` ` N . . .   . . - c c z z p s [ [ } [ [ [ X.X.X.X.X.X.q w 0 0 0 e 4 O X X . . . . X . . o o o . . . . . . o . . . . . . . . . . . . O . . . . o o ",
"o . o . . o O . o . o O . X o . . . . O O O X X X X o X m P I P P K * . . O O o . O O X X O O O O X X X o O X o O X O X X O O O . X X . . X X . O . o O O O O O X X X X @ X $ O X O X # e q q q q o.0.0.0.0.0.8.& & 6 6 & & @ O X X X X X 0.q.s.q.s.q.7 O O X X X X $ - , , 1 1 a 7.9.o.o.o...$ O O O O O O o O . . . . X O O . . o . . . o . X . . o . . . . . . . . . . . . . . . o o o O 1 M M M m m o o O O O O O o O O X o o o o o o X X . o X O o o . O O O X o O O O o O o O O X O O . X o o X O X X o X X O X . . X 9.o.o.o.o.] X X X X O = _ ' _ ) ' ' ` 0X1X1X` 0XV o o X . . . - c c z p c r } [ [ [ [ [ X.X.X.} } X.{ w 0 w 0 q 5 . O o . O X X X . o . . o . . . . . . o . . o . . .   . . X . . . . . . . X . ",
". . O O O O O O O O O O O O O X O * O * = = = = = = = = P I U U I I < = = > > * * > > > > > > > < > < , < % @ @ @ # # $ < > > , > > * * * = O O . . o o . o X 8 9 9 9 8 9 u ; ; - , , 8 q e e q e X.0.8.0.0.0.8.& & 4 4 4 4 @ $ @ @ @ @ @ e.0.0.q.0.0.w $ $ O X O O $ 1 c l l l z o.7.o.o.o.X.$ * O O O * * O O O O O O O O o o . o X o O O O o O o o . . O o o o o . . o O O X o o o o o O 2 2 2 M m m * * O * * * * * * * * * = * = * = * = = * * > > = * * * = * : O O O O O O O o O O O O . . . O O O X O * = > = = * % ..o.o.o.o.} # # # @ @ - +X+X+X#X+XR +X&X#X#X%X%XZ O O O O O O - i p i p i e [ [ [ } [ [ ..o.X.X. .X.{ q 0 q q q 5 . O   . O o X . . . O X . . . . . . . . . . o . .   . X X X . . . . o . O . X ",
"* = I U U ! U ! ! / / / _ / / ` gXgXgXjXjXgXjXkXkXjXkXkXkXgXkXjXjXjXjXkXkXkXkXkXjXgXgXjXjXjXhXkXjXkXkXjXgXw.9.7.9.7.7.6.rXrXiXiXgXrXU T / U T U * X X O O O O bXmXmXmXmXbX6XdXsXsXsXsX/.....o.o.o.8.0.q.q.q.q.q.vXvXvXvXvXvXvXvXnXvXnXnXvXvXs.vXvXvXs.:XjXjXhXkXkXjXgXiXiXuXiXiXyX7.7.o.o.o.7.%X0X0X0X1X0X1Xm N K L L P V = X o O X X 2 _ / ( ) ) ) 1XqXqXqXeXrXeXeXrXwXrXrXeXeXeXrXrXrXeXqXeXwXwXeXtXwXrXrXiXrXiXiXiXiXiXiXiXiXiXiXiXiXgXiXiXgXjXgXgXjXjXjXiXiXiXiXrXtXU U U U U U * . O O O O . N I I I I I ` kXkXkXkXjXyX9.7.7.7.7.9.7.7.7.8.8.8.bXbXbXbXbXbXvXvXvXvXnXnXl.gXgXgXgXgXjXA.9.........o.o.o.o.o.o.o.0.q.q.q.q.0.8.8.0.0.8.8.7.9.9.9.9.9.9.-.3.*.*.*.*.j O . . . . o O I I I I I I ` jXjXgXjXjXkXjXjXjXjXiXgX",
"> > I I I I I U U U ! / U T U / iXiXiXiXiXgXiXgXiXgXgXiXgXgXgXgXgXgXgXgXiXjXgXgXgXiXiXgXgXgXgXgXgXgXgXgXfXO.o.o.o.o.o.6.rXwXtXrXrXwXI U U I I P * O X X O O O h.h.E.!.h.h.|.6X6X5X5XsXA.X.o.o.o.o.7.0.q.q.q.0.0.vXvXvXvXvXvXs.s.s.q.s.s.s.vXvXvXvXs.s.@XiXgXgXjXiXiXuXuXuXiXiXeX<X9.o.o.o.o.o.#X0X0X0X1X1X1XN K K N K K V > O O O o O < / / / / / / ) wXqXqXeX0XqXqXqXqXqX0XqXeXqXqXqXqXqXqXqXqXwXqXqXqXeXeXeXeXeXwXwXwXeXrXrXrXeXeXeXrXwXrXrXrXrXrXrXuXiXrXrXrXeXwXwXwXI I I I I P * o o o O O . N I I I I L ` gXgXgXiXjXyX9.9.9.w.7.7.9.7.o.o.o.7.mXmXmXmXbXh.s.vXvXvXvXvXp.tXrXiXgXiXiX6.X.X.X.X. .o.o.o.o.o.o.9.q.q.0.q.0.0.8.8.8.8.8.7.9.o.o.o.X.X...| j *.*.*.*.*.. . . . . o O I I I P I I ) gXiXiXgXgXiXiXiXiXiXiXiX",
"> > I I I I U U U U U U U I U ( gXiXiXgXiXiXiXgXiXgXgXgXgXgXgXjXgXgXgXgXgXgXgXiXgXgXgXgXgXiXiXiXgXiXgXiXrXO.o.o.o.o.o.6.tXwXeXrXeXwXI U I I I I = X X O X O O h.E.E.E.h.E.|.6X6X5X5X5XA.X.o...o.9.7.0.q.0.q.q.q.vXvXvXvXvXs.vXs.vXq.s.s.s.vXvXvXvXvXvX@XiXgXiXhXiXiXuXrXiXuXiXiX<Xo.o.o.o.7.7.#X0X1X0X1X1X0XN N K K L K V = O X O o O < / / / / / / ` qX0XqXeXqXqXqXqXqXqXqXqXqXqXqXqXqXqXqXqXeXqXqXwXqXeXwXeXeXeXeXeXeXeXrXeXwXwXeXrXrXeXrXrXeXrXrXrXiXrXrXrXeXeXwXwXwXI I I I I P * o O X O X . N I I I I I ` jXgXiXgXjXyX9.7.7.7.9.9.9.7.o.o.o.7.BXmXmXbXh.mXs.vXvXs.vXvXg.rXeXrXgXiXiXZ...X.X.X.X.X.X.o.o.o...o.0.q.0.q.q.0.8.8.8.8.7.8.9.X.o.o.X.o.X.@.j *.*.*.*.j X . . . . o O I I I I I I ` iXiXiXiXiXiXiXiXiXiXiXiX",
"> > I U I I U I I U U U U U T ( iXiXiXiXiXiXiXiXiXiXiXgXgXgXgXgXjXgXgXgXgXgXgXgXjXgXiXgXgXgXgXgXiXjXiXgXiX<.o.o.o.o.o.6.wXqXwXwXwXwXI I U I I I * X O X X O O mXE.E.h.E.E.|.6X6X6X5X5XA.X...o.o.o.7.0.q.q.q.q.q.vXvXvXvXvXvXs.vXs.s.s.s.s.s.vXvXvXvXvX@XjXhXgXgXiXiXuXiXiXuXiXiX=X7.o.o.o.o.o.%X0X1X0X1X1X` N N N K L L L > O O o o O 2 ~ / / / / / ` qXqXwXwXqXqXeXqXqXqX0X0XqXeXeXqXqXwXqXqXqXqXqXeXqXqXqXeXeXwXeXuXeXeXeXwXwXwXwXeXeXeXuXeXeXrXeXrXrXeXeXrXrXeXeXwXwXI I I I I I * X X . O O . N I I I I I ` jXjXjXjXjXpX9.9.7.7.7.9.9.7.o.9.9.8.mXmXmXmXmXmXs.s.s.vXs.s.p.wXwXrXiXiXiXH.X.X. . . ...o.o.o...o.o.0.0.0.0.0.0.8.8.7.7.8.7.9.o.o.o.o.X...X.*.*.*.3.*.*.. X . . o o O I I I I I U 1XiXgXiXiXiXiXiXiXiXiXiXiX",
"> > I U I U U I U U U U U ~ ~ ( iXgXiXiXiXuXiXgXiXgXiXiXgXgXgXgXgXgXiXgXgXgXiXjXjXiXgXgXiXgXgXiXiXiXiXiXiX<.o.o.o.o.o.Z.wXwXwXwXwX0XI U U I I I O X O O X . O mXh.E.E.bXE.6X6X6X5X5X5XH.o.o.o.9.o.7.0.q.q.q.q.q.vXvXvXvXvXvXs.s.s.s.q.s.s.s.s.s.vXs.vX:XhXhXgXgXiXiXuXuXuXiXuXuX,Xo.o.o.o.o.o.#X1X1X1X1X1X` K P K K K K L > o O O O O 2 T / / / ( / ` qXqXqXqXqXqXqXwXqXqXeXqXqXeXeXqXqXqXqXqXqXqXeXeXeXqXqXeXeXwXeXeXeXeXqXwXwXeXeXeXeXeXeXrXeXeXrXeXeXeXeXrXrXrXwXeXqXI I I I I I * X O o . X . m I I I I I ` jXjXgXjXhXpX7.7.9.9.9.7.7.9.o.o.7.8.mXmXbXmXBXmXs.vXvXvXs.s.p.tXeXuXiXiXiX6.X.X.X.X.X.X.X.o.X.o.o.o.0.0.q.0.0.0.8.7.7.7.7.7.o.o.o.X.X.X.X.X.z.z.*.*.j j . . . . . . O I I U I I I 1XiXiXiXgXiXgXiXiXiXiXuXiX",
"> < I U U I U I U / U U Q ~ ~ ) gXgXfXiXgXiXiXiXiXgXiXiXgXgXgXgXgXgXjXjXjXgXgXgXjXiXiXgXgXgXgXgXgXiXiXiXiX<.o.o.o.o.o.Z.wXqXqX0XwX0XI I I U I U O X o O O O O E.E.E.h.h.h.6X6X6X5X5X5XH.o.o.o.9.o.7.0.q.q.q.q.q.vXvXvXvXvXvXs.s.s.s.s.s.s.s.vXs.vXs.s.:XiXiXiXiXiXiXeXrXrXiXiXuX,Xo.o.o.o.7.o.#X*X1X1X1X1X1XN V N N K P P > o o O o O 2 E / / / ( / ` qXeXqXeXwXwXwXqXqXqXqXeXqXeXqXqXqXqXqXqXqXwXqXeXeXeXrXwXrXrXrXrXrXwXwXeXwXwXwXrXeXrXeXwXtXrXrXrXrXrXrXrXtXtXrXrXwXI U I I I I * O . . . . . m P P I I I 1XjXjXjXjXgXyX8.7.9.9.7.9.7.7.o.o.7.8.BXBXmXmXmXmXs.s.vXvXvXvXp.rXrXiXiXiXgX6.X.X. .} X.X.o.....o.o.o.q.0.q.q.q.0.7.7.7.7.7.9.9.o.o.X.o.o.o.X.H z.z.3.*.*.o X . X o o O I I I I I U 1XiXiXiXiXiXgXiXiXiXiXiXiX",
"O O 1.=.=.=.=.=.3.n.n.n.n.n.n.H.`.`.G.G.G.G.V.V.V.C.C.V.V.J.;X;X;X;X;XH.H.H.H.H.H.G.F.G.G.G.G.F.V.V.V.V.S.o.o.o.o.o.X.<.A.v.A.H.S.V.' ` ' ` ` 1X= o o . O O O U.R.R.R.R.R.A.c.H.Z.Z.Z.1.o.X.o.o.o.9.8.8.8.8.8.0.E.E.E.E.E.E.e.8.7.7.7.7.7.0.q.s.s.s.s.`.aX5X5X5X>X>X;X;X;X;X$X$XF.o.o.o.o.;.o.F.$X$X$X$X$X#XN N N N N K K : X . o O O z B.C.C.C.C.C.F.:X;X;XJ.;X;X$X;X;XJ.J.J.K.K.K.K.K.J.K.K.K.K.K.K.G.F.F.J.F.F.F.G.}.K.K.}.}.K.K.`.`.`.D.D.`.`.`.}.).`.D.H.D.D.D.F.G.OX}.}.}.}.}.- o . . X O o i 3.3.*.3.m.Z./././././.2.7.7.7.7.7.o.o.o.o.o.o.7.T.U.R.T.T.(.u.8.8.8.8.8.y.H.H.G.H.G.G.,. . . .X.X.X.X.X.X.X.o.o.8.8.8.7.7.8.o.o.X.o.o.o.o.o.X...o...o.| a c c c a p X $ $ $ $ $ - 3.%.3.5.3.5.6.`.G.G.H.G.H.H.H.G.G.G.G.",
"O O >.2.,.1.1.,.&.=.*.*.=.=.=.>.r.t.r.r.r.>.*.=.=.=.=.=.x.Z.c.c.x.m.1.;.;.o.o.;.;.2.2.c.v.v.2.c.Z.Z.x.Z.x.o.X.o.O.o.o.;.I.I.I.v.v.F.0XwXwXwXwXwX> O X O X X O T.T.T.T.T.T.c.c.1.1.1.1.1.o.X.o.X.X.o.7.7.7.7.7.7.XX.XXX~.[.~.y.X.o.X.X.o.o.0.a.a.0.a.0.p.W.W.W.T.T.W.Y.Z.Z.c.x.m.1.o.o.o.o.o.7.i.i.I.I.I.I.I.N L L K P P P > . o . o o h c.c.2.2.c.c.v.I.I.I.v.I.v.c.v.2.2.2.v.v.I.Y.I.I.I.(.T.T.T.T.T.Y.A.A.v.c.A.v.).].]._._.T._.T.T.(./.(.(.U.T.T._.T.T.v.2.2.2.2.2.I.SXSXSXGXJXJXu o . . X X X d $.*.=.=.1.i.p.I.i.i.p.u.7.7.7.7.9.o.o.o.o.o.7.w.).)./.).Y.).<.o.o.o.o.7.9.w.w.7.7.w.w.o.X... . .X.X.X.X.X.....X.o...o.o.o.o...X.X.X.X.o.X.o.........o.| < < < < < , % d k d d d e X.X.X.o.X.X.7.7.7.7.7.w.w.w.y.y.y.;.r.",
"O O 2.1.,.1.,.1.=.*.*.*.#.=.*.2.r.r.t.r.r.<.*.*.*.*.#.*.=.c.Z.c.x.x.1.;.;.;.;.;.;.<.2.2.c.2.2.1.c.Z.x.Z.Z.O.o.X.X.O.O.;.I.v.v.v.v.V.wXwXwXwXwXwX> X o . o O O T.T.T.T._.(.c.c.1.1.1.1.,.o.o.o.o.X.o.7.7.7.8.8.e.[.Q.[.XX[.].i. .X.X.X.o.o.0.0.0.0.0.s.p.].].].]._._.).Z.c.c.M.Z.1.o.o.o.7.7.7.I.I.I.I.I.v.v.N L L P P L L > X o . . O j c.c.c.2.2.1.v.I.I.v.v.I.v.c.c.c.c.c.v.v.I.I.I.I.I.T.T._._.T._.T.A.b.v.v.v.v.v._.]._._._._.T.T.T.T.T.T.U.T.T.T.T.T.2.2.2.2.2.2.2.SXSXSXSXJXJXu o . . . . . f *.$.=.=.=.I.i.i.i.i.r.r.7.7.7.7.9.o.o.o.o.o.7.y.).).).).I.).;.o.o.o.o.o.7.w.w.w.w.7.7.o.o.X.X.X.X.X.X.X.X.X.X.X.o.o.o.o.o.o.X.X...X.X.X.X.X...o.....o.| > > > < < < % s s g k d d X.X.X.o.X.X.o.7.7.7.7.w.w.w.y.y.;.>.>.",
"O O 2.1.1.2.1.1.=.*.=.*.=.*.*.>.w.w.r.t.r.2.*.=.=.=.=.*.c.1.1.6.1.c.2.o.;.;.;.;.o.<.2.2.2.2.2.1.c.1.1.1.Z.O.O.o.o.O.O.<.v.v.v.v.v.V.qXqXwXwXwXwX< O . . o O X W.W.W.T.T.W.c.1.1.1.1.1.,.X.X.X.o.X.o.9.7.7.7.7.7.XXQ.XX[.[.XXy.X.X.X.X.X.X.0.q.0.0.q.0.d.]._.T.]._._.I.Z.Z.Z.Z.Z.x.w.w.w.7.7.7.i.I.I.I.I.v.i.N L L L K K K > o . X . O j c.c.c.c.1.c.v.v.I.2.I.v.v.v.2.v.c.c.v.I.I.Y.I.I.I.T.U.T.T.T.T.T.A.A.v.c.c.v.A.].T._._._.T.T.U.U.T.U.Y.U.T.(._.W.T.2.2.2.2.2.2.v.FXSXGXSXSXKXp o o . X o X s =.$.=.$.1.i.i.i.i.i.i.r.7.w.7.7.o.o.o.o.o.o.o.w.).).).).).).;.7.9.7.o.o.7.7.7.7.7.7.7.o.X.X.X.X.X.o.X.X.X.X.X.X.o.o.o.o.o.o.o.X...X.X.X.X.o.o.o.o.X.X.| < < > > > < % d d k g g k X.X.X.X.X.O.9.7.7.7.7.7.w.w.y.i.>.2.2.",
"X O 2.,.1.<.1.1.=.*.=.#.*.*.=.>.w.w.w.r.w.2.*.=.=.#.*.*.1.c.c.c.c.c.1.;.;.o.o.;.o.<.2.2.2.2.2.1.1.1.1.1.1.O.O.o.o.X.O.;.v.v.v.v.2.V.eXeXwXwXwXwX< O o . o X O W._.T.W.T.T.c.1.1.1.1.1.<.X.X.X.X.X.o.7.7.7.7.7.y.XX].].XX[.].y.O.X.X.X.X.X.a.a.a.q.a.0.p.].W.].T.].T.Y.c.c.c.Z.Z.x.;.;.7.7.7.w.I.I.I.I.I.I.I.N V L N K K K > O o X X o j c.c.c.c.1.1.v.v.v.v.v.I.v.c.c.1.c.c.v.Y.I.Y.I.I.I.U.T.U.T.T.T.U.v.A.v.A.A.c.b.]._._.T.T.T.T.T.T.U.T.Y.T.T.T.R.T.T.2.2.2.2.2.2.v.FXFXSXSXJXKXi X o o X o . s *.=.=.=.$.>.r.r.i.i.i.r.7.7.7.o.o.o.o.o.o.o.o.y.).).).Y.).).;.o.o.7.7.o.7.7.7.7.7.8.e.o.X.X.X.X.X.X.X.X.X.X.X.X.o.o.o.o.o.9.o.X.X.X.X.X.X.o.o.X.X.X.X.} > < < > > < % %.d k g k d X.X.X.X.X.O.7.7.7.7.7.7.w.w.y.i.>.>.>.",
"X O <.1.2.2.2.1.=.*.#.#.*.*.=.<.w.w.w.w.u.2.=.*.*.#.#.*.=.1.1.1.1.1.2.;.o.o.o.o.o.;.2.2.2.2.2.1.1.1.1.1.1.o.O.o.X.X.X.;.c.2.v.2.2.V.wXqXwXtXwXwX< O o . . O O W.]._.W.W.W.c.1.1.1.1.1.,.O.O.X.o.X.o.7.7.7.7.7.8..X].[.].XX[.y.O.X.X.X.X.X.a.a.0.q.0.0.g.T.].].].T.T.I.Z.c.c.Z.c.1.7.o.o.o.o.o.v.I.I.I.v.v.I.N K N K K N N > o X O O o j c.c.c.1.c.v.v.v.v.v.v.I.v.v.v.1.c.c.c.I.I.I.Y.I.Y.T.T.T.T.T.T.T.v.c.c.A.A.c.v._._._._._.T.U.T.T.U.T.U.T.T.W.R.W.W.2.1.1.1.2.2.2.FXFXGXJXJXKXi . . . o O . s *.$.=.=.=.>.r.u.r.r.i.r.7.7.7.o.o.o.o.o.o.o.7.w.).).Y.Y.Y.).;.o.7.o.7.7.7.w.7.w.8.7.8.o.X.X.X.X.X.X.X.X.X.X.X.X.o.o.o.o.o.9.o.X.X.X.X.X.X.o.X.X.X.X.X.} > > < < < < @ +.d k d k +.} X.X.X.X.X.o.7.9.7.7.7.7.w.y.>.>.>.>.",
"X O >.,.1.2.1.1.=.*.*.*.*.*.=.<.w.w.y.w.y.<.*.=.=.*.*.*.=.1.c.1.1.c.1.o.;.o.o.o.o.<.2.2.2.2.2.1.1.1.1.1.:.o.O.X.X.X.X.;.2.2.I.c.2.F.wXwXwXwXtXtX, O o O . . O R._.].W.W.W.2.1.1.=.1.1.,.X.o.o.o.X.o.9.7.7.7.8.8.].Q.[.XXQ.].y.X.X.X.X.X.o.a.q.q.a.s.q.g.T._.].W.T.U.I.Z.c.c.c.Z.1.o.o.o.o.7.o.I.I.v.I.v.v.i.N V V V V K K > o o O o O k c.c.c.v.1.c.2.v.v.v.v.I.v.v.v.2.v.c.c.I.I.Y.I.I.I.U.T.T.T.T.U.U.A.c.Z.c.c.A.v.].T.T.T._.T.T.T.U.U.(.U.T.W.T.R.W.W.2.1.1.1.2.2.i.JXFXFXFXJXKXi . X . . . O s $.=.=.$.=.>.i.r.r.r.r.w.7.7.o.7.o.o.o.o.o.o.o.y.).).).Y.).).;.o.o.7.7.7.7.w.w.8.8.7.8.o.X.X.X.X.X.X.X.X.X.o.o.o.o.o.o.o.9.9.o.X.X.X.X.X.X.X.o.o.o.X.o.} > < > < < > % +.d +.d d %.}  .X.X.X.X.9.7.7.7.7.7.7.w.;.>.>.>.>.",
"X O 2.2.2.2.2.1.$.=.*.#.=.=.=.>.u.w.w.w.w.2.1.=.=.=.1.1.1.v.c.c.1.c.2.;.;.-.o.o.;.;.;.;.;.<.,.1.1.1.1.1.c.1.2.2.1.1.1.1.1.1.=.1.1.C.qXwXwXwXwXwX< O O O O O O (.T.T.T.U.T.I.I.i.I.2.i.<.X.o.o...X.X.o.o.o.o.o.o.v.I.I.v.v.v.;.X.X.X.X.X.X.8.0.0.0.0.0.p.Y.I.Y.I.I.I.v.Z.Z.c.c.Z.c.i.2.i.i.>.r.2.c.v.v.2.v.v.N V V V L N L > O O O o . g c.c.c.c.c.1.1.v.v.c.c.c.1.c.1.c.c.c.v.v.v.I.I.I.I.Y.T.T.T.T.T.T.Z.c.c.c.c.c.A.Y.).v.A.c.A.A.c.c.c.c.c.v.I.I.I.I.I.2.2.<.>.2.>.>.NXAXAXAXAXSXu X X . . . o i k %.%.%.j 2.i.i.i.i.i.i.o.7.w.o.;.o.>.>.<.;.>.2.).Y.Y.Y.).Y.<.o.o.o.o.o.o.7.7.7.7.7.9.X.X.X.X.X.X.X.o.X.X.X.X.o.<.<.<.<.<.y.;.,.-.,.,.,.-.o.o.o.X.o.X.@.M 2 2 2 2 1 O 8 8 8 9 u 9 | | | | | @.o.o.7.7.o.o.o.o.;.;.<.<.<.",
"O O i.v.i.v.v.v.v.v.v.I.U.Y.U.I.U.U.U.U.U.i.c.c.v.2.c.1.c.I.I.I.I.v.I.o.;.;.o.;.o.o.;.;.;.;.o.1.Z.Z.Z.Z.Z.c.Z.c.Z.c.Z.c.=.=.=.=.*.V.wXwXwXwXwXwX< X . . o O O T.T.U.T.T.T.U.T.T.U.U.U.r.X.o.o.o.X.X.o.o.o.o.o.o.1.c.x.x.x.c.-.X.X.X.X.X.X.0.a.0.0.0.0.u.v.v.A.I./.I.c.c.c.Z.c.Z.v.I.Y.I.Y.I.I.2.c.v.v.c.v.2.B K V N K N N > o . . . . f =.=.=.=.=.=.c.1.1.c.c.=.=.c.=.c.x.c.x.u t t u u u y u i p i i f 3.=.x.m.4.=.m.Z.c.c.c.Z.Z.m.m.x.m.x.4.2.I.i.I.I.I.>.;.y.w.;.;.>.AXAXZXDXDXDX; . X X . X . i h h h f f 1.>.>.>.>.>.;.o.7.w.7.o.y.I.I.I.Y.Y.Y.(.Y.).).(.).;.O.X.o.o.o.o.7.7.7.7.9.9.o.o.X.X.X.X.X.o.O.o.o.o.o.).).).).).).A.A.D.D.D.D.1.o.X.X.o.o.o.@.m J m N N K o . . O o . O i i i i i i } o.o.o.o.o.o.o.o.o.O.-.;.",
"X O I.v.i.2.I.v.I.v.I.I.I.I.Y.U.T.U.T.T.U.I.v.2.c.c.c.1.v.I.I.I.Y.I.i.O.;.o.o.o.o.o.;.;.;.;.;.1.Z.Z.Z.Z.c.Z.Z.Z.Z.Z.c.Z.=.*.=.*.=.N.rXrXeXrXwXwX, X X O O O O T.T.U.T.U.U.T.U.U.U.U.T.r.X.X.o.o.X.X.o.o.o.o.o.o.1.x.m.x.x.1.,.X.X.X.X.X.X.0.0.0.0.0.0.u.I.v.v.v.v.v.v.c.c.c.c.Z.c.U.Y.Y.I.I.I.v.c.v.c.c.c.v.B N N V K N K > . . . . o f =.=.c.x.1.=.1.1.1.1.1.=.c.c.x.c.x.Z.Z.i u u i u i u u u u u i i 3.3.=.*.x.4.m.c.Z.c.Z.Z.c.m.m.m.x.x.=.2.I.I.I.I.I.r.;.y.;.y.;.i.ZXDXZXZXDXDX- . X o . o . u g f f g g 1.i.i.>.>.>.>.o.o.o.o.o.;.Y.I.I.I.Y.Y.(.).(.).(.(.<.o.X.o.o.o.o.7.w.7.7.7.o.o.o.X.X.X.o.X.X.X.o.O.o.o.).).Y._._.).Y.A.D.Z.A.Z.1.o.o.o.o.o.o.+.J J m N N K . . . . . . X i i i i i i X.o.o.o.o.o.;.o.o.O.;.;.;.",
"X X i.2.2.2.2.2.2.I.I.Y.Y.Y.I.U.U.T.U.U.U.I.v.2.c.c.c.c.I.Y.I.I.I.I.I.;.o.o.o.o.o.;.;.;.;.;.;.2.Z.Z.Z.Z.Z.Z.Z.Z.Z.Z.Z.Z.=.*.*.$.$.C.eXrXrXtXrXwX, X X X o o X T.(.U.T.U.U.T.T.U.U.U.U.r.X.X.X.o.o.o.o.o.o.o.o.o.x.m.m.4.x.c.,.X.X.X.X.X.X.8.0.0.0.0.0.e.2.v.v.v.v.v.v.c.v.c.c.c.c.I.Y.Y.Y.I.I.v.c.c.c.c.c.2.N V N V V N N > . o . . X h x.=.=.c.=.=.1.1.1.1.1.=.c.c.c.Z.c.Z.x.u i u i u y t t i i i i i n.*.*.m.*.*.m.c.Z.Z.Z.Z.c.m.x.x.x.x.x.c.I.I.I.I.i.r.;.y.;.;.;.2.ZXAXZXZXZXSX; . X o . . o t g g j h g 1.>.>.>.>.>.<.o.o.7.;.7.y.I.Y.Y.I.Y.I.).).).Y.Y.(.;.o.X.o.O.o.o.7.7.7.7.o.o.o.X.X.X.X.X.X.X.o.o.o.o.o.Y.).).).Y.).Y.v.A.A.c.Z.1.o.o.X.o.X.o.| m N N K N K . . . . . o X i i i i i i X.o.o.o.o.o.o.;.-.O.O.o.-.",
"X O 2.2.2.2.2.2.v.I.I.I.I.Y.Y.U.T.T.U.U.U.I.2.2.c.2.c.1.v.I.I.I.I.I.I.;.;.o.;.;.;.o.;.-.;.;.;.c.Z.Z.Z.Z.c.c.Z.Z.Z.A.Z.Z.#.*.*.=.=.N.wXwXeXtXtXtX1 X X O O O O U.T.U.T.U.U.T.U.T.U.U.U.i.X.o.o.o.X.X.o.o.o.o.o.o.=.x.c.c.1.c.,.X.X.X.X.X.X.8.0.0.0.0.0.w.v.v.v.c.v.v.c.c.c.c.c.c.c.I.I.Y.Y.I.I.c.c.c.c.c.c.2.N V V V V N N = X O . . X j =.1.=.=.=.=.c.c.c.1.1.1.=.c.c.c.c.c.x.u u i i i i t u i i i i i n.n.3.x.x.*.m.c.c.Z.Z.c.Z.m.m.x.x.m.=.c.I.I.I.i.I.r.y.<.;.;.;.>.AXAXAXAXZXAX; . . . . . o t g g f f h 1.>.i.i.2.2.r.w.;.o.o.o.<.I.I.I.Y.Y.Y.Y.).T.).).).o.o.o.o.O.o.o.w.7.7.o.7.7.o.o.X.o.X.X.o.o.o.o.o.o.o./.(.Y.T.T.(./.A.D.D.A.c.1.o.o.o.o.X.X.+.m N N N K K   o . . . X X i i i i f i X.o.o.o.o.o.o.O.-.O.O.O.-.",
"O O >.2.2.2.v.v.I.I.I.I.I.I.I.Y.U.U.U.U.U.I.v.1.2.c.2.c.I.I.I.I.I.I.I.;.o.O.;.;.o.;.;.;.;.;.;.1.Z.Z.Z.Z.Z.Z.Z.Z.c.v.c.Z.*.*.*.*.*.N.rXrXrXrXrXtX2 X . o O O O U.U.U.T.T.U.U.U.U.U.U.U.r.X.X.X.X.X.X.o.o.o.o.o.o.x.c.x.1.c.c.,.X.X.X.X.X.X.8.0.0.0.0.0.w.v.v.v.v.v.v.v.v.c.v.c.c.2.I.Y.Y.I.I.I.2.c.c.v.c.v.2.B L L N N N N > o O . . O g =.=.=.=.=.=.1.1.1.1.1.c.=.x.c.x.x.x.=.u u u u i u t t i i i i i n.n.z.m.n.4.m.c.c.c.Z.c.=.x.m.x.x.4.=.c.I.I.I.i.I.i.y.y.y.;.;.y.ZXAXAXZXAXSX; X . . . . o t j j f g g 1.i.i.2.2.i.i.o.o.o.o.7.<.I.I.I.I.Y.Y.T.(.).Y.).(.o.X.X.X.X.O.o.7.7.7.7.9.7.o.o.o.o.X.X.X.o.o.o.o.o.o.Y.).(.(.Y.)./.A.D.A.A.A.1.o.o.o.o.o.X.+.m N N N N m .   . . . X O i i i i i i X.o.o.o.o.o.o.-.-.-.-.-.-.",
"o O 2.2.2.2.v.v.v.I.I.I.Y.I.Y.Y.U.U.U.U.U.I.v.c.2.c.1.c.v.I.I.I.I.I.I.;.;.;.;.;.o.;.;.o.;.;.;.1.Z.Z.Z.c.Z.Z.Z.Z.c.c.Z.Z.*.*.*.*.=.N.rXrXrXrXrXtX< o . o o o X U.U.U.U.U.U.U.U.U.U.U.U.i.o.o.X.X.o.X.o.o.o.o.o.o.1.1.c.c.c.c.&.X.X.X.X.X.X.8.0.0.a.8.0.y.2.v.v.v.v.v.c.v.c.c.c.c.c.I.I.Y.I.I.I.v.v.c.c.2.c.v.z N N N N N N > O O . . . f =.=.x.=.=.=.1.1.1.1.1.c.=.c.x.c.x.x.=.i t u t t t u u i u i i i 3.n.z.*.m.x.c.c.c.c.c.c.c.m.x.x.x.=.m.c.I.I.I.2.2.>.y.;.y.;.;.i.ZXAXAXZXAXDX- o . . . o . u j g g j g 1.2.i.>.2.2.>.7.w.7.7.7.i.I.I.I.I.Y.I.).).).(.T.).;.X.X.X.X.X.o.7.o.7.7.7.7.o.o.o.o.X.X.X.o.o.o.o.o.o.).(.(.(.'.).).v.A.A.A.A.1.X.o.o.o.o.X.+.m m m N N m . o o . . . X i i i i i y } o.o.o.o.o.o.-.O.O.-.O.-.",
"O O 1.1.1.1.1.c.c.c.v.2.v.v.v.I.U.U.U.U.U.I.I.v.I.I.v.v.I.I.I.I.I.I.i.,.,.<.<.<.;.w.;.7.o.o.7.<.2.<.2.2.2.<.<.<.<.<.<.<.O.-.,.&.1.C.iXrXrXfXfXfX< O . . . . O 2.v.2.v.2.2.v.2.v.I.i.I.>.o.o.X.X.o.X.X.o.o.o.o.o.I.Y.I.I.v.v.2.X.X.X.X.X.X.8.8.8.0.8.8.w.2.2.2.2.v.2.2.1.1.1.1.1.1.R.T.U.U.U.U.i.I.v.v.v.c.v.B N N N N N N > X O o . o f =.=.=.=.*.=.=.1.1.1.1.c.x.n.n.*.z.n.b u 8 t u u u ; u u ; u t u j j j b j j n.M.M.M.M.V.x.=.=.=.=.1.1.2.2.2.<.>.2.2.i.i.i.i.>.i.].XXXXXXXXXX$ . . . . . O $ u u t t t $.2.2.2.2.2.2.o.7.7.7.7.i.I.Y.I.Y.Y.I.>.<.2.1.,.2.o.o.X.X.X.X.X.o.o.o.o.o.;.o.o.X.o.o.o.o.o.o.o.o.o.o./.Y.(.).).I.I./.I./.I.A.2.X.X.o.o.o.o.%.m N V N N N   o o o . . X p i i i i i @.-.-.,.,.,.-.-.-.-.@.-.-.",
"X X b j j j j j j j j j j j j 1.U.U.U.U.U.U.U.U.Y.U.Y.I.U.U.Y.Y.Y.I.I.2.2.2.2.2.r.w.7.7.7.7.7.7.7.7.7.7.7.7.7.7.7.7.7.9.o.X.X.o.o.4.rXrXrXrXrXfX1 O O . o o X 1.1.$.1.$.$.=.+.#.+.#.+.@.o.o.X.X.X.X.o.o.o.o.o.7.U.U.T.T.(.(.i.X.X.X.X.X.X.8.8.8.8.7.7.7.2.1.1.1.1.1.1.1.1.1.1.=.1.W.W.W.W.W.W.U.Y.U.Y.I.I.i.Z N N N N N N * X X . . o t j j j *.j *.=.c.c.1.x.c.v < < > < < > . . . . . . o . o o o . O * * * * * * ' gXfXtXfXrX&X<.<.;.;.;.;.o.;.;.;.;.;.I.(.Y.(./.).A.*.*.*.j j z.O o . . . . . . . . . . O #.c.c.v.I.I.>.7.7.7.7.7.y.T.T.(.Y.Y.I. .} | } } }  .o.X.o.X.O.O.-.,.1.2.2.2.;.o.o.o.o.o.o.o.o.o.o.o.o./.)./.Y.Y.Y.Y.(.T.T.U.U.i.o.o.o.o.o.o.+.K K L P P K   . o . . . O h h h h h p S n.n.n.n.*.=.=.=.=.=.x.=.",
"O O j j j j j j j j j j j j *.1.U.U.U.U.U.Y.Y.Y.U.Y.T.U.U.Y.Y.U.Y.I.I.2.2.c.2.2.i.w.7.8.7.7.7.7.9.9.7.7.7.9.7.9.7.7.7.7.o.O.X.o.o.6.rXiXfXfXfXrX< O o o o X X 1.1.1.=.=.=.*.*.#.+.#.*.&.o.o.o.o.X.X.9.o.9.7.7.7.U.T.T.T.T.T.i. .X.X.X.X.X.8.8.8.8.8.8.7.2.2.1.1.1.1.1.1.1.1.=.1.c.Q.W.W.W.W.W.U.Y.I.I.I.I.I.l N N N N N N > X o X o o i j j j j j j x.c.c.c.x.Z.v > < > > < > o . . o . . o O O o o o o * * * * * : _ gXgXiXiXiX,X<.;.;.;.;.;.w.w.w.;.;.;.I.Y.).).)./.D.*.j *.*.*.*.O . . . . . . . . . . . O *.v.c.v.v.v.i.7.7.7.o.7.w.Y.Y.Y.Y.Y.Y.} } } } } } X.X.X.X.X.O.X.,.,.<.2.2.1.;.o.o.o.o.o.o.o.o.o.o.O.O./.Y./.I.Y.Y.Y.T.T.T.U.U.2.o.o.o.o.o.o.%.K L P P P L . . . o . . X f h h h p p j *.3.n.3.*.=.=.=.x.=.x.=.",
"O O j j j j j j j j j j j j j 1.T.U.U.U.U.Y.I.Y.I.I.U.Y.Y.Y.U.U.Y.Y.I.2.1.2.2.2.i.8.e.7.7.7.7.7.7.7.7.7.7.7.7.7.7.7.7.7.o.X.O.o.o.6.rXrXfXfXgXfX< X O O o o O 1.$.=.=.=.=.*.*.#.#.#.#.@.X.X.X.X.X.X.9.7.7.7.9.7.U.T.U.U.(.T.r... . .X.X. .8.8.7.8.8.8.w.,.<.1.1.:.1.1.1.1.1.$.=.1.Q.Q.W.W.W.W.U.Y.I.I.I.I.I.z N N N N N N = . . . . o i j j j j *.*.x.c.c.c.c.c.A > < < > > > . . . . . . o o o O O O O O * : * : : ' fXgXgXgXgX-X;.<.;.;.;.y.w.w.w.;.;.;.I.Y.(.).Y.Y.v.*.j j *.j *.O o . o . . . . . . . . X *.2.2.v.2.v.>.7.7.7.7.7.y.Y.Y.Y.Y.Y.Y.} } } } } } X.X.X.X.X.X.X.,.,.,.<.<.<.o.o.o.o.o.o.o.o.o.o.o.o.o.I.I./.I.Y.).Y.(.U.U.U.Y.i...o.o.o.o.o.g P L P P P P . . . . . . X i p h p h h j *.*.*.*.*.=.=.x.4.=.=.=.",
"O O j j j j b j j j j j j j j 1.U.T.U.U.U.U.Y.Y.Y.Y.Y.U.Y.Y.I.I.U.I.I.2.1.2.2.2.i.e.8.7.7.7.7.7.7.7.7.7.7.7.7.7.7.7.7.7.o.O.O.o.o.6.rXrXiXfXfXfX< O O O O o O 1.=.1.$.$.1.*.#.#.+.+.#.@.X.X.X.X.X.X.o.7.9.7.7.7.U.T.U.U.T.T.i. . .X.X.X.X.8.8.8.7.8.8.w.1.2.1.1.1.1.1.1.1.1.=.1.1.W.W.Q.W.W.R.U.I.I.I.I.I.i.l N N N N N N > O . . . o u g j j j j *.=.c.=.c.x.c.h < < > < < > . . . . . . . o O O O o O * : * * : : ' gXgXgXiXiX&X;.<.;.;.;.;.o.o.;.w.;.;.I.Y.Y./.).Y.v.*.*.j *.j *.O o . o . . . . . . . . o *.2.2.c.v.v.i.7.o.7.7.7.i.Y.Y.Y.Y.U.Y.} } } } } } } X.X.X.O.O.X.<.,.<.<.2.<.;.o.o.o.o.o.o.o.o.o.o.o.o.I./.I.Y.Y.I.U.Y.U.U.U.Y.I.o.o.o.o.o.o.%.K P P P P P . . . . . . O p p p i h h j *.*.*.*.*.*.x.=.*.*.=.=.",
"O X b j b j j j j j j j j j j c.T.U.T.U.U.U.I.I.Y.Y.Y.Y.Y.Y.U.I.I.v.I.2.2.2.2.2.>.7.7.7.7.7.7.7.9.9.7.7.7.7.7.7.7.7.9.o.o.O.o.O.o.6.rXiXgXrXrXgX< X X O O O X 1.=.1.&.&.=.*.#.+.+.*.*.@.X.X.o.X.X.o.o.9.9.9.7.7.T.U.(.(.T.T.I.X.X.X.X.X.X.7.8.7.8.8.8.w.1.1.1.1.1.1.1.$.=.=.$.$.2.W.Q.W.W.W.W.U./.I.I.I.v.I.x N N N K N N = o . . . o i j j j *.j *.=.c.c.1.c.x.b < < > > > > . . . . . . . o o o o O O O * * * * * ' fXgXgXgXiX-X<.<.<.;.;.<.7.7.;.w.;.;.I.Y.(.).).).I.j j j j j j X o . . o . o . . . . . o j v.2.c.c.v.i.7.7.7.w.o.y.I.Y.Y.I.I.U.} } } X.} }  .X.X. .X.X.O.<.,.,.2.2.1.o.o.o.o.o.o.o.o.o.o.o.o.o.I.I.I.I.Y.Y.U.U.U.U.U.Y.I...o.o.o.o.o.d L L I I P L . . . . X X O p p p p h h j *.z.*.*.*.=.=.=.x.*.=.=.",
"O O j b b j j j j j j j j j j c.T.T.T.T.T.U.U.U.U.U.I.I.Y.U.U.U.Y.I.v.2.2.2.2.2.i.7.7.7.7.7.7.7.7.7.7.7.7.7.7.7.7.7.9.9.o.o.o.o.o.6.rXrXfXrXgXgX< O O O O O X 2.2.1.1.1.1.&.=.&.$.*.&.-.O.X.o.X.X.X.7.7.7.9.9.7.U.U.T.U.U.U.I.X.X.X.X.X.X.8.8.8.7.8.7.7.2.1.1.1.2.2.1.1.1.1.1.1.2.Q.Q.Q.Q.Q.W.U.Y.I.I.I.I.I.l N N N N N N > o . . . o i *.j *.*.*.*.=.1.1.1.c.c.v < < < < < > o . . . o . o o o o O O O * > * * * * / gXgXgXgXgX<X<.>.<.y.y.y.7.w.7.w.w.w.T._._.(._.'.Y.j j j j j j O . . . . . . X . . . . . *.v.2.v.v.A.i.8.7.7.7.7.i.U.Y.Y.Y.Y.U.X.} O.X.X.O.X.X.X.X.X.X.O.;.<.<.>.>.<.o.o.o.o.o.o.o.o.o.o.o.o.o.I.I.I./.Y./.I.U.T.T.U.Y.I.o.o.o.o.o.o.+.L L P L P P . . . . . . X h p h h h p j n.z.n.n.3.=.x.x.=.x.=.=.",
"O O = $ $ $ $ $ $ $ $ $ $ $ $ u f h f i s f i i i i i u u u u y t u s | { } | | | O.X.X.X.X.o.w 6 & 6 6 & # @ # @ # # @ O X O O O < wX3X` ` ` ` P L P L L P N u u u u c u % ; ; % % ; 9 o.o.X.X.X.X.7.7.7.7.7.7.j f g h f f s X.X.X.X.X.X.X.o.o.o.o.o.| % $ % $ @ % % % % % % % % t 8 t 9 9 t a t t u t u 8 < M N M m m N : O O O . X O $ $ $ $ $ $ c c z z z l 1 < > * * O O . . . . . . .   . . . . . * * * * * : 2 I I P I I x % % $ $ $ $ @ @ @ @ @ $ % % $ $ $ $ % B Z B B Z Z * * : : * * O . . .   o . $ % @ $ $ $ $ # % # & # 9 } } { } } } @ O X O O O X X X X @ @ @ % % $ $ $ $ } o...X.X.X.} 8 8 8 6 7 5 8 8 u t t t t t t t u t t 6 7 9 6 8 6 u L L P P P P . . . o . . O = = - - = - $ % % - % % - % - - - % ; ",
"O O O X O . . . o O O o o O o o o o O X O O O X X X . X O X O X O O 7 ] { { { { { } } }  .}  .7 6 & # # & O O X X X X X o X X O O < wX` ` ` ` ` I P I I I I I = = = - , , = = = = = = 9 X.X.o.X.X.X.9.7.7.7.9.7.O O O O X X @  .X.X.X.X.X.X.X.o.o.o.o.e X o X X O o . . . o . . X X X O X X X X O X . O X X > m m M M m M = o . o o . o . . . . . . * > < < > < 3 3 > O . o . . . .   . .   .         . o O O * * * 3 J P P L I N . o O o . X X . X O O O O * O O O O * N N N N K K < > < > < > : . . . X . . X X X X X X X X O O X O 7 [ [ { ] { { $ O X O O o X X X O X X . X X O X X X { X.X.X.X. .{ # & # # 6 & X X O . o X . o O O O O O X X X X X O O I I I P L K . . o . . . O $ $ O O X O X . . . o o . . O o o . X ",
"* * O X O . . o . O o o o o o o . . O . X O X X O X O X X . X X X O 7 { { { ] ] { } } } }  . .7 & # # & & X O O O O O O X X X O O > wX` ` ` ` ` P P P I I I I = = = - = , = = = = = - 9 X...o.o.X.X.7.7.7.7.7.9.O O O X O X $ X.X. .X.X.X.o.o.o.o.o.o.e o o X O . O o X . . . o O . O O O O X X o . O X O O < m m M M m m : o o O o . o . O o . . . = > < > , > < 3 > O O . . . . . . . .   . . . . o   o O * * * * 2 J P I I I N X X X X . . O . . O O O O O O O O O O N N N N N J < < < > < < : . . . . O X O X X X X X X O O O X O 6 } } [ [ ] { % O O O X O X X X . X . . O O X . . . { X.X.X.X.X.{ @ & & # & & X X O X X X X X X X O O O X X X O X O O I P P I P K . . o . X . O O O X O O $ X o o . o o O . . . . . O ",
"* * O X o o o O . O o o O O O O O . O X O O O O O X . X X X . X X O 7 { { { { { | } X.} } } } 7 6 # # & & O O O O O X X X X X O X > ` ' ' ' ' ' P L P I I P I = = - - > - = = = = = = 9 o.o.X.X.X.X.7.7.8.7.7.9.O X O O O X $ X.X.X. . .X.o.o.o.o.o.X.e O O X X . . . . . . O o O . . O O O X X O O O O . . > M 2 2 2 M M : o o . o . . . X . . . . = > > < < < < < < * O o o . .   . . . . . . . . . . O * * : * * 3 K P P I P N . X O O o . O o o . O O O O O O O O O m N N N m m 3 < > < < < > . . o O O . O O O O O O O O O X X X 6 [ } [ ] ] { @ O O O O O O O X X . . . . . . . . . { X...X. .X.q # # & % & & O O X X X X X . O O X O O X X O O O O $ I I I I P L . . . . . o O O O X O X X X o X o X . o o . . . . X ",
"> > O X X O O O O O O o O o O O o . O X O O X O X X . X X X . . . O 6 { ] ] { { { } X.} } }  .7 & & & 6 4 @ X O X X O O X X X X X < _ ' ' ' ( / P I I I I I P = = = = = > = = = = = = s X.o.X.o.X.X.7.7.8.8.7.9.O O O o O X % X.X. . . .X.o.X.o.o.o.X.e O X X . . . . X . . X O O o o X O O X O o O O X . . > M N m m M M > o o o o o . . O X o . . = > > < > < < 3 2 * o o o . .   . . . . . . . o . o O * * > * O 3 K I I U I K . O O O O O X O O O O O O O O O O X O N m m m m m < < < < < > > o o o o X . X O O X O O O O O O O X 6 [ [ [ [ [ { @ O O O O O X X . . X . X . . X . . . { X.X.X.X.X.e # @ # % # & X O O X X X X X . X X X X X X X X X X $ I I I I I P . . . . X O X X O O O O X O X X . . o o O o O . . . ",
"= = O O O O O O O O O O O o O O o o o o o . . . X X o O O . X X X X 6 { ] ] { ] { } } } } } X.w 6 6 & 6 6 @ O O O X X X X X X X O < / ' / / / / I I I I I P P = = = - , , = = = = = = w ..o.X.o.o.X.9.8.8.8.8.9.O O O O O O @ X. .X. . . .o.o.o.o.X.X.q O X . . . . X . . . O O . X o O O o O O O O O O O O > N m m M M M * o . O o O . o X o o o . > < < < < < < 3 2 * O o . . .   . . . .   . .   . . o O * * O O 3 P U I U I K . O O O O O O O O O O O $ $ $ O O O * M m m m m m < < < < < > : X O X X O O X X O O O O O O O O O $ 6 } [ [ [ ] { % O O O O o . X X X X O X X X O . . . ] X.X.X.X.X.e % @ % % & % X X X O O O X X X X X . X X X O O X X * I P U U U L . O . . o o O O O O O O X X X X . . o O . X . . . . ",
"< > > = * > > = = > = = > = = = = = = > > * O O O O O O O O O O O O 6 ] { { ] ] } } } [ } }  .w 6 6 7 5 7 # % % # # # % % # % % & u _ ( / _ / / I P I P I I I , < , , , < > = > > = , i o.X...X.X.X.7.8.8.8.8.7.O O O O O O %  .X.X.......X.o.X.X.X.X.e O O O O O O O O O O O * * * O * * * = = * * * * O = < N N N m M N < * O * * O * = = = * = = > < < < < 1 3 < > * O O O   .     . .       . .   . O * * O O O < N P P I P N = > > > < < < < < 2 M x N N N N N N 2 I I I I I I V K N N N V 2 6 6 # % % # = < < , , , , < , 1 1 , i  .}  .X.X.X.l M 2 2 < 1 O O X X X X X . . X o . . ] X. .X.X. .q % % % % % % O O O O O O O O * * O O O # @ @ @ @ @ = I I ! ! Q I O * * O $ O O = = $ $ $ % * * * O O O O O O O O O O ",
"jXkXjXkXjXjXjXlXjXjXkXkXjXlXjXkXkXjXkXjXkX/ U U U U U U 1 1 3 3 < 1 = O X X O O 6 o.o.o.o.o.o.9.8.7.7.7.8.BXBXBXmXmXmXmXj.s.s.s.q.f.gXiXiXiXiXrXiXiXiXgXiXiXrXrXiXiXiXiXuXiXiXiXiXuXiXqX..o.o.o.o.X.7.8.8.8.8.8.&.=.=.c.x.x.#.% - - - % % 7.7.7.7.7.7.H.uXeXeXeXwXqXwXrXeXeXeXiXrXrXuXuXiXiXrXuXrXrXrXeXuXeXeXeXeXqXeXeXwXqXwXqXqXwXqXwXrXrXrXrXrXuXqXqXwXwXwXwX/ 2 2 2 2 2 3 O .   . . .   . o o o o o * : : > : * m I P I I P / kXkXkXjXjXjXjXkXkXkXkXkXkXkXkXkXkXkXkXjXjXjXjXkXjXjXkXjXjXgXgXyXa.d.j.j.d.d.4XlXjXgXkXjXkXkXjXkXkXjXpXmXmXbXh.h.R.jXlXlXkXhXjX3.e q e e q 6 X X X o X o { X.o.o.o...4.1X1XqXqXeXwXrXgXgXgXgXjXgXjXjXjXgXiX=Xw.e.u.e.w.7.:XgXkXjXjXjXjXgXjXjXjXjXgXpX{.VX[.[.[.[.iXlXlXjXjXkXjXjXkXjXjXjXgX",
"kXkXjXgXjXjXkXkXjXgXgXjXkXkXkXjXkXjXjXjXgX/ U U U I U I 1 1 1 1 1 1 O O X O O O # 9.o.o.o.o.o.9.7.7.7.7.8.E.mXmXmXE.E.E.f.a.a.0.0.u.gXgXiXiXiXiXiXiXiXiXiXiXiXiXiXiXuXiXiXiXiXiXiXiXiXyX..X.X.X.o.o.7.8.8.8.8.8.$.x.=.=.c.x.=.= = = = = $ 8.8.7.7.7.7.H.uXiXuXuXeXrXuXeXeXeXeXuXeXrXeXeXeXuXuXeXeXeXeXeXrXeXwXeXeXeXeXeXwXqXqXqXqXqXqXqXwXwXwXwXeXeXqXqXqXwXwXwX' 2 2 M M m m o . . . .     o o . o o . : : > > > : m P P P P I _ gXjXjXjXjXjXgXkXkXkXjXkXkXkXkXkXkXjXjXgXkXkXjXjXjXjXjXgXjXgXgXaXa.d.d.d.d.d.4XjXjXjXjXgXgXkXhXjXjXjXpXbXmX!.E.E.h.hXlXkXkXjXjX5.q q q q e 6 X X O O X . { o.o.o.o...4.eXqXeXqXqXeXjXjXjXjXjXjXkXkXkXkXjXjX<Xw.7.e.e.e.e.:XkXkXjXkXkXjXjXkXkXkXkXkXpX{.VX[.XX[.[.iXkXlXkXkXkXkXkXkXkXkXjXkX",
"kXkXjXjXkXjXkXkXgXjXgXjXkXjXjXjXkXjXjXgXhX/ U U U I I I 2 1 1 1 < 1 * o X O o O @ 9.o.o.o.o.o.9.7.7.7.7.e.mXmXmXE.E.E.E.a.a.a.0.a.u.gXgXgXiXiXiXiXiXiXiXiXiXiXiXiXiXuXuXiXeXeXuXiXuXiXuX..X.o.o.o.X.8.8.8.8.8.8.=.=.=.=.=.=.=.= = = = = = 8.8.8.7.7.7.H.uXuXuXuXeXuXeXeXuXeXuXuXuXeXeXeXeXeXeXeXeXqXqXqXeXeXqXqXeXqXeXeXqXqX0XqXqXqXqXqXqXqXwXeXeXeXqXqXwXwXwXwX/ m m m m m m O . . . . .   . . o . . . : > > > > > m P P P P P _ gXgXjXgXgXgXjXjXgXjXkXgXjXkXjXjXkXkXkXjXkXkXkXkXjXjXjXjXkXgXgXuXd.d.d.d.d.j.4XiXgXgXgXgXjXjXhXjXjXjXpXmXmXh.!.h.!.hXjXkXkXkXjX5.q e q e e 6 X X X X X X { o.o.o.o...4.eXeXeXwXeXeXjXgXjXjXjXjXjXkXkXkXkXkX4Xe.e.e.e.e.e.@XkXkXkXjXjXjXjXkXkXkXkXkXpX{.[.[.[.XX[.iXkXlXlXkXlXlXkXkXkXkXkXkX",
"kXjXkXjXjXjXkXkXjXjXgXkXkXjXzXjXjXkXjXjXgX~ U I U U I I M < 2 < < 1 * o X O o X # 7...o.....o.7.7.9.7.9.e.mXE.E.E.mXmXE.a.a.0.0.0.u.gXgXgXgXiXiXiXiXiXiXiXiXuXiXiXiXiXuXuXeXeXeXuXuXuXuX..o.o.o.O.X.8.8.8.8.8.8.=.=.x.x.=.=.=.= = = = = = 7.9.7.7.7.8.H.uXeXeXuXuXuXuXrXeXuXeXeXeXeXeXeXeXuXeXeXeXqXqXqXqXqXqXqXeXqXeXeXwXqXqXqXeXqXqXqXeXwXeXqXwXwXqXqXqXqXwXwX/ m m m m m m O . . . . . . o   . o . . : > > : : > m P P P P P / gXjXgXjXgXgXjXjXjXjXkXkXjXkXkXjXjXjXkXjXjXkXkXkXjXgXjXkXjXkXiXuXj.a.d.a.d.a.yXiXgXgXgXhXjXjXkXjXjXjXpXmXE.E.h.bX!.gXkXkXkXkXjX3.e e q e e 6 X X X O X O { X.o.o.o.o.n.eXwXeXqXeXeXgXjXjXjXjXjXkXkXkXkXkXjX4Xe.e.e.u.u.w.:XkXkXkXjXkXjXjXjXjXkXkXkXpX[.[.[.[.[.XXpXkXkXlXkXkXkXlXkXkXjXkXjX",
"jXjXkXkXkXjXjXkXkXjXkXkXgXjXlXkXjXjXjXjXjX/ U I U U U I M < 3 < < 3 * o X O . . # 9.o...o.o.9.7.7.7.9.7.e.bXmXE.E.E.E.E.0.0.a.0.0.u.gXgXgXgXiXiXiXiXiXiXiXiXiXiXiXiXuXuXuXeXuXuXuXuXuXuX..o.X.o.X.X.7.8.8.8.8.8.1.=.=.=.=.=.=.* > = * > = 8.7.7.7.7.7.G.iXiXrXrXuXeXeXeXuXeXeXeXeXeXeXeXeXeXeXeXeXqXqXeXqXqXqXeX0XeXeXqXqXqXqX0X0X0XeXqXqXwXqXqXqXqXqXqXqXqXqXqX' m M m m m m O o o . o . . o o o . . o : : > > > > M P P P P P / gXgXgXgXgXgXjXkXjXgXkXkXjXkXjXhXjXhXgXjXjXkXkXkXgXgXjXjXjXjXiXyXj.d.d.j.d.j.<XiXgXgXgXjXjXjXjXjXkXjXpXmXmX!.E.E.E.gXkXkXkXkXjX3.e e q q q 6 X X X X X X { X.o.o.o.o.m.eXqXeXeXeXeXjXjXgXgXgXjXjXkXkXkXjXkX4X8.8.e.e.8.w.:XkXkXkXjXkXjXjXjXkXkXkXkXpX[.[.[.[.XXXXpXkXkXkXkXlXkXkXkXkXkXkXkX",
"zXjXlXjXjXjXzXzXjXjXgXjXjXjXjXzXzXjXjXjXjX/ Q I I I I I 2 1 1 3 3 1 * o X O . X # 9.o.o...o.o...7.9.9.9.e.E.E.E.E.mXE.h.0.0.a.0.a.u.fXgXgXgXgXiXiXgXiXrXiXiXrXiXiXiXiXiXuXiXuXuXuXuXuXeXo.X.o.o.X.o.7.8.8.8.8.8.1.x.=.x.x.=.*.= = = = = = 7.7.7.7.7.7.G.iXuXeXeXrXeXeXuXeXuXeXuXuXuXeXuXeXuXuXuXqXqXqXqXqXeXqXqXqXqXqXqXqXqXqXqX0XqXqXqXqXqXqXqXqXwX0XqXwXqXqXwX/ m m m m m m * o o o . . X . o     o o * : > > : > m K P P P I ~ iXgXgXgXjXgXjXjXkXgXjXjXkXkXkXkXjXjXjXjXjXjXkXgXjXgXgXjXjXjXjXuXa.a.a.a.j.d.4XiXgXgXjXjXjXkXkXkXkXjXpXmXmXmXbXmXE.kXkXlXkXlXjX5.e e q q e & $ O O O X O { o.o.o.o.o.m.eXeXeXqXqXqXgXgXgXhXiXjXgXgXhXjXjXhX4X8.8.e.e.8.8.:XjXgXkXkXkXjXkXkXkXkXkXkXpXQ.VX[.[.[.[.pXkXjXkXkXgXjXkXkXkXkXkXjX",
"`.`.D.).).).).)._._.]._._.'._.].'.'._.'.].(.(.)._._.(.).x 2 < < < < * . X X X O $ 9.o.o.o.o.o.9.8.8.7.8.8.s.s.0.a.a.a.a.0.0.0.a.a.f.|.oX.X{.oX.X.X.X].[.{.'.'.`.`.).`.K.K.P.$XV.V.P.V.V.o.X.o.X.X.X.8.8.8.8.8.8.1.c.c.c.c.1.=.> > > > > = 7.8.7.7.7.7.i.:X:X>X;X:X<X;X>X:X;X;X;X<X>X>X<X<X<X<X<X<X<X<X,X<X;X;X;X;X<X;X<X$X$X$X$X$X$X$X$X;X;X;X;X;X;X;X;X;X;X;X;XR P P P I P K Z p a p a a l L L V N N 2 * : * : : * z F D F F G B.:XK.}.K.`.G.`.`.`.A.)./.6.6.4.4.4.4.6.`.).G.K.`.D.A.A.2.A.A.2.<.7.7.7.7.7.7./.D.D.D.K.K.`.D.D.S.F.S.H.w.w.w.y.y.i.6X}.5X5X5X5X2.>.>.>.<.<.h < > > > > > & 6 9 7 7 7 n $X$X$X$XP.V.;X@X@X@X;X@X;X;X;X$X;X;XF.7.7.7.7.7.7.A.<X;X,X,X,X,X=X,X,X,X,X,X;Xg.g.g.p.g.U.:X4X4X4X<X4X<X<X<X<X<X<X,X",
"I.Y.Y.Y.Y.T.U.T.W.].R.].].].].XX[.[.[.[.[.XXXXZXZXZXXXNXl 1 < < 1 1 * X . . X X # 7.o.o.o.o.o.7.8.8.8.8.8.0.q.0.q.0.0.0.0.0.0.a.0.q.VXVXVXVXVXVXVXVXVXVXVXBXE.(.T.T.U.(.U.Z.m.m.m.m.m.=.X.o.X.X.X.X.7.8.8.8.8.8.i.I.I.I.I.I.1.> > > > > > 7.8.8.7.8.8.w.U.U.U.U.Y.Y.I.I.I.I.I.I.I.T.W.W.W.W.W.W.T.T.].T.T.T.T.U.T.T.W.T.c.1.1.=.$.1.1.c.Y.Y.Y.T.T.Y.v.v.v.I.I.v.C._ / _ / / ! >X9X9XsX9X9X>XlXlXlXlXlXgXo o O O O o j x.M.x.x.m.c.I.I.I.I.U.U.i.r.p.u.i.i.-.} } [ } } -.Y.Y.Y.U.T.U.I.r.y.;.;.;.;.o.o.o.o.o.o./.).D.).).).).v.v.v.v.v.c.;.;.;.;.;.<.(._._.]._._.T.R.U.U.U.R.*.2 2 2 1 1 < O . X X O O i =.=.=.=.*.*.} X.-.X.-.-.1.c.Z.Z.x.x.1.;.w.w.7.w.w.;.1.1.1.1.c.1.x.c.c.c.c.c.1.w.w.w.e.w.w.i.I.I.Y.Y.I.v.2.1.2.1.1.c.",
"v.b.T.T.T.T.Y._.R.T.W.W.].T.].XXXXXX[.XXXXXXXXZXZXZXZXZXx 2 2 1 1 2 * o X . X X & 9.9.o.o.o.o.7.8.8.8.8.8.0.0.0.0.0.q.0.q.0.s.0.q.q.VXCXVXVXVXVXVXVXVXVXVXBXg.T.T.U.Y.T.U.c.x.x.M.m.m.m. .X.O.O.X.X.7.8.8.8.8.8.i.I.I.I.I.v.c.> > > > > > 7.8.8.e.8.8.w.I.U.U.U.U.U.I.I.I.I.I.I.I.U.W.W.W.W.W.T.T.T._._.T.T.T.T.].T.T.T.c.=.$.$.=.=.1.v.T.T.U.T.T.T.v.I.I.v.v.v.C._ / / _ / / >X9X9X X9XsX>XlXlXlXlXlXgX. o O O o o h x.m.m.x.m.c.I.U.U.U.U.Y.i.r.i.i.i.i.} } } } } [ -.U.Y.Y.Y.Y.Y.i.y.;.y.;.y.;.;.w.7.o.o.7.I.).).).).).).v.c.v.v.c.c.;.;.;.<.;.;.T.'._._._._._.R.U.R.R.U.=.2 2 2 1 1 1 O . . . O O u =.=.=.*.=.=.} X.X.X.-.-.1.c.c.x.x.x.=.7.7.7.7.w.w.;.c.1.1.1.1.1.c.Z.Z.c.c.c.2.w.w.w.w.w.w.Y.I.I.I.I.I.v.2.c.c.c.c.c.",
"A.A.(.U.Y.T.T._.T.T.W.].W.].W.XX[.XX[.XX[.[.ZXZXXXZXXXAXz 1 2 2 2 2 * O X X X X # 7.o.9...o...7.8.8.8.8.0.q.q.0.q.0.q.0.0.a.q.a.0.a.VXVXVXVXVXVXVXVXVXVXBXBXh.(.T.T.T.(.U.c.x.x.m.m.m.x.X.o.O.X.X.X.7.8.8.8.8.8.i.I.I.I.I.I.2.> > = > > > w.8.8.e.8.8.w.I.U.I.U.U.U.I.I.I.v.I.I.v.T.W.W.W.W.W.T.T.T.T.T._.T.W.W.T.T.W.T.c.=.=.=.*.=.=.v.T.T.T.T.T.U.I.I.v.v.v.v.n./ / _ _ / ! >X9XsX X X9XaXzXlXlXlXlXjXo X o o o o j x.x.x.x.x.c.Y.I.I.I.I.Y.r.r.r.r.r.i.-.[ [ } } | -.U.U.Y.Y.Y.Y.i.y.;.;.w.y.w.;.o.7.o.o.7.I.).).D.).).).v.v.v.v.v.v.;.;.<.<.;.;.T.'.T._._._.(.R.R.R.R.p.*.2 2 2 2 1 1 O . . o . . u =.*.*.=.*.#.} X.X.X.-.-.1.Z.c.c.x.c.1.w.w.w.w.w.w.;.1.1.c.c.c.1.c.c.Z.c.c.c.1.w.w.7.w.7.w.Y.Y.Y.Y.I.I.2.1.1.c.c.1.1.",
"I.v.Y.T.Y.(.(.(.T.T.R.].W.W.W.XXXX[.[.XXXXXXXXZXXXXXXXNXl 2 2 2 2 2 * o . X X X # 9.o.o.o.o.9.7.8.8.8.8.0.0.0.0.q.0.q.0.a.a.s.0.0.q.VXBXVXVXVXVXBXVXVXVXVXE.E.T.T.T.U._.U.c.x.m.x.m.m.x.X.O.X.X.X.X.9.8.8.8.8.8.i.I.I.I.I.v.c.> < < > : > w.8.8.e.e.8.w.U.I.I.U.U.U.I.I.I.I.I.I.I.T.].W.W.W.W.R.T.T.T.T.T.T.W.W.T.T.T.T.1.=.=.$.*.=.=.v.T.T.T.T.T.T.v.v.v.I.v.v.n./ / / / ! ! >X9X9X9X X XaXlXlXlXlXlXgXO O o . o o h x.x.=.x.x.x.I.I.I.I.I.U.r.r.i.r.i.i.} [ } } } } X.T.Y.Y.Y.Y.Y.I.y.;.;.;.w.w.;.;.o.o.o.o.I.).).).Y.).Y.v.c.v.v.c.v.>.>.<.<.<.<.T.T.W.T.T._.T.T.U.U.R.R.*.2 2 2 2 1 2 O . o o . o t *.*.*.*.#.*.} X.X.X.-.-.1.c.Z.c.c.c.c.w.w.w.w.w.w.;.1.c.c.c.c.1.c.c.c.c.c.c.2.w.7.w.7.7.7.I.I.Y.I.I.I.2.1.c.c.c.c.1.",
"I.I.).(.Y.Y.T.T.T.T.].W.W.].W.XX[.XX[.XXXX[.ZXZXXXZXXXAXz 2 2 2 2 M O o . . O O # 9.o...o...o.7.8.8.8.8.0.q.0.0.0.0.0.0.0.a.0.0.0.0.VXVXVXVXVXCXBXVXVXVXBXVXR.T.T.T.U.U.U.c.x.x.x.m.m.x.X.O.o.X.X.X.9.7.8.8.8.8.i.I.Y.v.v.v.c.> < < > > > o.8.8.8.8.e.w.U.U.I.U.U.I.i.i.i.I.I.I.I.U.W.W.W.W.W.R.T.T.T.T.T.T.T.].W.W.W.T.1.=.=.=.*.=.*.c.T.(.T.T.T.T.v.v.v.v.v.I.m./ / / / ! Q >XsX9X XsX XaXlXlXlXlXlXjXO . . . X o h =.=.=.x.x.x.I.I.I.I.U.U.r.r.r.r.i.r.O.} } } } | -.Y.Y.Y.I.Y.U.i.;.;.;.<.;.;.o.o.o.o.;.w.Y.Y.).Y.).Y.I.v.v.v.v.v.c.:.2.<.<.<.1.T.T.T._._.(.T.T.T.T.U.T.*.2 2 M 1 1 1 O o . . . o i *.*.*.*.*.*.} X.X.X.-.-.1.c.c.c.=.1.1.;.;.;.;.;.;.;.1.c.1.c.c.c.c.c.c.c.c.c.1.w.w.w.w.7.7.I.I.I.I.I.I.v.1.c.c.c.c.c.",
"v.v.I.I.I.I.I.I.I.i.p.p.i.r.i.p.p.p.p.p.p.U.W.[.Q.[.[.Q.l 2 2 2 2 2 O . . . . O # 9...o.o.o.o.9.8.8.8.8.8.0.0.0.0.0.0.0.0.0.0.0.0.a.E.E.E.E.E.E.E.E.E.E.h.h.p.U.T.U.U.U.U.c.m.=.m.x.x.x.X.O.X.X.X.X.7.7.7.8.7.8.i.I.I.v.2.v.2.> < > > < > O.7.7.7.7.7.w.I.U.I.U.I.U.I.i.I.I.I.I.i.W.W.W.W.W.W.T.T.T.T.].T.T.T.T.T.W.T.T.1.$.=.=.*.$.$.c.T.T.T.T.T.T.v.v.v.I.I.v.m./ U U I I U >X9XsX9X9X9X;XtXrXfXiXgXfXO . X . O o h m.=.x.x.x.c.I.I.I.Y.I.U.p.r.r.i.i.i.X.} } } } } X.Y.Y.T.I.U.Y.i.;.w.;.;.;.;.;.;.o.o.;.o.I./.).Y.Y.Y.Y.v.c.c.c.c.2.2.2.<.<.<.1.Y.T.).T.Y.T.U.U.U.U.U.U.*.2 2 2 2 1 1 X o . . . X u *.*.*.*.*.#.X.X.X.X.-.-.1.1.1.c.c.1.=.;.w.;.;.;.;.<.c.c.1.1.1.1.1.c.c.c.c.c.1.w.7.w.7.w.7.I.I.I.I.I.Y.c.1.c.c.1.1.c.",
"1.1.1.1.1.,.,.<.;.o.o.o.o.o.o.X.X.X.X...X.;.W.].]._._.].z 3 < < < 2 * . . . O O # 9.o.o.o.o.X.o.8.8.8.8.8.0.0.0.0.8.8.8.8.8.8.8.8.8.8.8.8.8.8.8.8.8.7.7.7.7.7.U.T.U.U.U.U.c.x.Z.c.x.1.=.=.=.=.=.=.=.9.7.7.9.7.9.<.I.I.i.i.i.>.1 3 1 2 M M k +.+.+.{ +.+.v.v.c.c.c.1.v.2.2.2.2.v.1.v.2.2.v.v.v.U.T.T.T.T._.U.T.T.T.T.T.T.v.1.1.1.1.1.1.v./.).I.).Y./.c.c.c.v.v.v.Z.B.V.C.C.C.C.=.m.x.x.m.=.S P P P P I K o . o O O o h *.*.*.*.x.=.:.,.1.<.<.2.;.>.>.2.2.2.2.i.I.I.I.2.2.I.I.I.Y.Y.I.i.;.;.;.;.;.;.>.i.2.i.i.i.i.t.a.d.d.t.u.7.w.7.w.w.>.1.1.1.1.1.x.v.v.v.v.v.v.r.r.i.r.i.i.b V N K N N K o   . . . O u +.+.%.+.#.+.X.X.-.-.-.o.1.1.x.Z.1.x.1.,.;.;.;.;.<.1.c.c.1.1.1.1.c.c.1.c.c.c.v.i.I.I.i.i.i.v.v.c.c.c.c.c.c.c.c.c.c.c.",
"$.=.1.1.,.,.,.<.;.o.o.o.o.o.o.o.X.o.o.o.X.<.W.]._._._.W.z < < < < < * . . . . X @ 9.o.o.o.o.o.9.8.8.8.8.8.0.0.0.0.0.0.8.8.8.8.8.8.8.8.8.0.8.8.0.8.8.7.7.8.7.w.U.U.U.U.U.U.c.x.c.c.c.c.1.=.=.=.=.=.=.o.7.7.7.9.9.<.i.i.i.i.i.>.2 1 2 2 2 M d +.+.+.+.+.+.2.c.=.c.c.c.c.v.v.v.2.v.c.=.=.1.1.=.=.A.T.T.].W.T.T.T._.T.U.T.T.I.v.v.v.v.v.v.A.A.v.v.A.A.A.v.c.c.c.c.c.Z.F.V.F.V.M.C.*.*.*.*.=.=.F U I U I I P o . . o . . h *.*.*.*.*.=.&.,.,.-.-.-.<.<.>.>.2.>.I.Y.Y.Y.Y.Y.I.I.Y.Y.I.Y.I.I.;.7.w.o.;.w.v./.I.I.Y.I.i.u.e.a.a.a.e.w.w.7.w.7.y.Z.c.c.c.c.c.c.v.c.v.I.v.w.r.>.>.i.r.b L P L K K N O   . . . . 8 +.+.+.%.%.+.-.-.-.-.-.X.1.m.Z.x.c.x.m.c.v.2.2.v.2.v.c.c.1.c.2.v.c.c.c.c.c.c.v.T.T.T.T.U.U.c.c.c.c.c.c.c.c.c.c.c.c.c.",
"1.=.1.1.1.,.2.<.;.o.o.o.o.o.o.o.X.X.o.X.o.;.W.T.R.]._.W.z < < < 2 < O X . . o X @ 9.o.o.X.o...9.8.8.8.8.8.0.0.0.0.0.8.8.8.8.8.8.8.8.8.8.8.0.0.0.8.8.7.8.8.7.7.U.U.U.U.U.U.c.=.1.c.c.c.1.=.=.=.=.=.=.o.9.9.7.9.9.<.I.i.i.i.r.2.M 2 2 2 M M d d +.d +.d +.2.1.c.1.1.c.c.v.v.v.c.v.1.=.=.=.=.=.=.v.T.T.W.T.T.(.T.T.T.T.T.T.I.I.v.v.I.v.v.v.D.A.D.b.v.A.Z.c.c.c.c.c.Z.F.F.V.V.V.V.4.*.*.=.=.*.F I I I I I P o o o . o . h *.*.*.*.*.*.&.-.-.-.,.-.;.>.>.>.>.>.I.Y.Y.Y.Y.Y.I.I.I.I.Y.I.Y.i.w.w.w.;.;.w.v.I.I./.Y.I.i.a.a.a.a.a.u.e.w.w.w.7.y.x.c.c.c.Z.c.v.v.v.v.v.v.i.y.y.<.i.>.b I P P P N K O . . . . . t +.+.+.+.+.+.@.-.-.X.X.O.1.Z.m.c.c.1.m.2.v.v.2.v.2.2.c.c.c.c.v.v.c.c.c.c.c.v.v.T.T.(.U.U.Y.c.c.c.c.c.c.Z.c.c.c.c.x.c.",
"=.=.=.1.1.,.,.,.;.o.o.o.o.o.o.o.o.o.o.o.o.o.W.T.T.].R.R.z < < < < < O o . X X O @ 9.o.o.o.o.o.9.7.8.7.7.8.8.8.8.0.0.8.8.8.8.8.8.8.8.0.0.0.8.8.8.8.8.7.7.8.7.7.U.U.U.U.U.U.c.c.c.c.c.c.c.=.=.*.=.=.*.o.7.7.9.7.9.y.i.i.i.i.I.>.1 2 2 2 2 2 d e d d +.d d 2.2.c.c.c.c.1.1.v.1.c.c.1.*.=.=.=.=.=.v.T.T.T.T.T._.Y.T.U.Y.Y.Y.I.v.v.v.v.I.v.v.A.v.v.v.v.v.v.c.c.c.Z.c.S.F.F.V.V.V.V.n.*.=.=.*.*.A I U U I I I o   . . o o f *.*.*.*.*.#.@.@.-.-.-.-.-.<.<.>.>.:.v.I.I.I.Y.I.I.I.I.I.I.I.I.i.o.;.w.;.;.7.v.v.v.v./.v.i.u.u.a.a.a.a.w.w.w.w.w.y.=.x.c.c.c.Z.c.v.v.v.I.I.i.>.;.;.<.i.b P P P P J L O o . o . o t %.%.%.*.*.+.-.-.X.X.X.X.=.Z.Z.x.x.=.Z.v.v.2.2.2.2.2.v.2.c.c.c.2.c.c.c.c.c.c.c.T.T.U.U.(.Y.x.c.x.c.c.c.Z.c.c.c.Z.c.x.",
"=.=.$.1.1.,.,.<.;.o.o.o.o.o.o.o.o.o.o.X.o.o.T.T.T._.].W.z < < < < < * . . o O X @ 9.o.o.o.o.o.9.7.8.7.7.7.0.0.8.0.8.8.8.8.8.8.7.8.8.0.a.0.8.0.0.8.8.7.7.8.8.8.U.U.U.T.U.U.v.Z.c.c.c.c.1.=.*.=.=.=.*.o.7.7.7.7.7.y.I.i.i.i.i.>.2 2 2 2 2 2 d e d e d s d 1.2.1.1.c.1.1.c.1.c.1.1.c.=.=.=.=.=.=.v.T.T.T.T.T.(.T.T.Y.U.Y.Y.I.v.v.v.v.v.v.v.v.A.v.v.v.v.v.c.c.c.c.c.Z.F.V.V.V.M.V.n.=.=.=.*.*.A I U I I ! P o . . o . o i j *.*.*.*.#.@.-.-.-.-.,.<.;.<.<.:.<.2.I.I.I.Y.I.I.I.I.I.I.I.I.i.w.w.o.;.w.w.v.I.I.v.A.I.i.u.u.t.u.e.a.w.7.w.w.w.y.c.x.x.x.c.c.A.v.v.v.I.v.;.;.<.;.>.i.3.P P P P P P O . . . . . t %.%.%.%.*.+.@.-.-.X.-.X.1.c.c.=.c.=.c.v.I.2.2.c.2.2.2.2.2.c.v.2.c.v.c.c.c.c.c.U.I.T.U.U.U.c.x.c.c.c.c.c.c.c.c.=.x.=.",
"1.=.1.1.,.,.<.,.,.o.o.o.o.o.o.o.o.o.o.X.X.o.U.T.T._.W.R.z 3 < < < < * X . o o X @ 9.o.o.o.....o.7.7.8.8.7.8.8.8.8.8.8.8.8.8.8.7.8.8.0.0.8.0.0.0.8.7.7.8.8.8.8.U.I.U.U.U.U.c.Z.Z.c.c.c.c.*.*.=.=.=.*.o.7.7.7.7.7.<.i.i.I.i.i.2.< 2 2 1 2 2 s e d d s d +.2.c.c.1.1.1.c.c.c.2.c.1.c.=.=.=.=.=.=.v.T.T.T.T._._.T.T.T.Y.(.Y.I.v.v.v.v.v.v.v.v.v.A.A.v.v.v.c.c.c.c.c.Z.F.V.V.V.V.V.*.*.*.*.#.*.A I I I I U P o . o o     f j *.*.*.*.#.-.@.@.@.-.-.<.<.<.2.>.1.I.I.I.I.Y.I.v.I.I.I.I.I.I.i.w.o.;.o.o.7.c.I.v.A./.v.i.u.u.u.a.e.e.7.7.w.7.w.w.c.x.c.c.Z.Z.c.v.v.v.v.v.<.;.;.i.>.i.b P P P P P P O .   . . . 8 +.%.+.%.*.+.X.-.-.O.O.O.1.c.c.c.c.c.c.v.v.2.2.2.v.2.2.2.c.v.2.c.c.c.c.c.c.c.c.T.T.T.U.T.I.c.1.=.x.1.x.c.c.c.c.x.x.x.",
"1.1.1.1.1.<.<.,.<.o.o.X.o.o.X.X.X.X.X.X.X.O.(.U.U.T.T.U.z 1 1 3 3 3 O O X . O O @ 9.o.o.o.o.o.o.o.o.o.o.9.o.7.o.o.o.o.o.9.o.9.o.o.7.8.8.8.8.0.8.8.7.7.8.8.7.8.I.U.U.U.U.U.i.v.c.A.c.v.2.=.*.#.=.*.=.o.7.7.8.7.7.y.i.i.i.i.i.2.< < 1 1 M M g +.d +.+.d +.v.c.1.c.1.c.c.v.1.1.1.c.1.=.=.=.=.=.=.v.T.T._.(._._.T.T.(.Y.Y.).I.v.v.v.v.v.v.v.I.v.A.v.v.b.v.A.Z.c.A.c.Z.M.V.M.M.M.C.*.*.*.*.*.*.S I I I U I P . . . . . o i *.*.*.*.*.#.-.X.X.X.X.-.-.2.<.>.2.<.I.I.Y.Y.I.I.I.I.I.I.I.I.I.>.o.o.o.o.o.o.c.v.v.v.v.v.i.u.u.u.e.u.u.7.w.7.7.7.w.c.c.c.c.c.x.c.v.v.I.I.I.;.;.;.<.>.i.b I I I P P I * . . . . . t %.+.#.*.*.+.O.O.X.X.O.O.1.c.c.c.c.1.c.v.v.2.2.v.v.c.1.2.c.2.v.c.c.c.c.1.c.c.c.U.U.T.U.T.Y.c.1.c.c.c.c.Z.c.x.c.x.x.=.",
"=.=.1.v.2.v.2.c.2.o.o.o.o.o.X.} { { { { [ } [ } [ [ [  .C U I U I U > o X . O O @ 7.o.o.o.o...X.X.X. . .X.} ] q q q q q q q q q q { X. .X.} [ } X.o.o.o.o.o.o.i.I.i.I.U.I.1.=.=.=.=.=.c.I.I.I.I.I.i.w.7.7.7.7.7.i.Y.U.U.U.U.I.2 N N N N N > O X X X O $ v.v.v.A.v.A.c.c.c.v.c.1.1.=.=.=.=.=.=.c.v.A./.v.v./.U.U.Y.T.Y.I.I.I.v.v.v.Y.v.v.v.v.v.v.v.v.v.v.A.v.b.v.c.=.=.=.=.=.=.j j g g g j z L L L P P N o . . . . . i g j j g g *.+.@.+.+.&.@.+.@.&.&.*.$.$.=.$.1.1.1.1.=.$.1.1.=.=.2.o.o.o.o.o.o.1.,.2.<.<.<.I.U.U.U.U.U.U.2.2.1.1.1.1.:.1.,.:.1.$.1.c.c.c.c.c.2.<.<.-.1.<.v P I I I I U O . . . . . 6 | | | +.+.+.X. .}  .X.X.&.1.1.1.c.=.x.2.2.2.1.1.1.c.1.1.c.1.1.c.v.v.v.v.v.v.v.c.v.c.c.c.x.=.1.x.x.x.c.1.c.1.=.x.=.=.",
"x.c.c.v.v.v.v.v.2.o.o.o.o.o.o.} } } } } } [ } } [ } [  .C I I I Q U > X O X O X @ 9.o.o.o.o.o. . .X.X.X.X.} ] q q q q q ] ] q q q { X.X.X.X.X.X.X.....o.o.o.o.I.I.I.I.I.I.1.=.=.=.=.x.c.T.U.U.U.U.U.w.7.8.8.8.7.i.U.U.U.U.U.I.N V N N m N < X X X X O X v.v.v.v.v.v.c.1.1.v.c.2.c.=.=.=.=.=.=.x.=.z.=.x.x.=.Y.T.Y.Y.(.).Y.Y.(.).Y.T.Y.Y.Y.Y.I.I.I./.I.I.v.I.I.I.1.*.*.#.#.#.*.f f f f f g z K K K K L N . . . .   . i g h g h g j g g g g j g g g g g g j j #.*.%.#.%.*.*.%.*.*.*.*.-.o.o.o.o.o.o.X.O.X.O.O.X.i.U.U.U.U.T.T.1.1.1.1.1.1.<.<.,.-.,.@.c.c.c.c.c.c.1.<.<.<.,.1.b I P I P P I O o o . . . 6 { { { { { { } X. .} } } @.$.1.&.$.=.=.1.1.2.1.1.1.c.1.1.1.c.c.2.T.].].].T.T.I.c.x.x.x.x.=.x.=.=.=.=.=.1.1.c.=.x.x.x.",
"=.c.2.v.v.I.v.v.2.o.o.o.o.o.o.} [ } [ } [ [ [ [ } } }  .I U ! U U U > O O X O X @ 7.o.o.o.o.o. .X.X.X.X.X.] ] q 0 0 q q q q q ] q ] X.X.X.X.X.X.....o.o.o.o.o.i.I.I.I.I.I.1.c.x.=.=.=.2.T.U.T.U.U.U.7.7.8.8.8.8.i.U.U.U.U.Y.I.N N m N m m < O O O O X $ v.v.v.A.v.I.v.1.1.1.c.v.c.=.=.=.=.=.*.=.=.*.x.x.x.x.).Y.(.(.Y.T.T.Y.Y.Y.Y.Y.Y.Y.I.I.v.I.I.I.I.I./.I.Y.v.c.*.#.#.#.*.#.j h f g s f p L K K N L N . . . . . . i f h h j g g g g g g g f g g g g g j k *.*.%.%.%.*.*.*.*.*.*.#.@.o.o.o.o.o.o.O.X.X.X.X.X.i.U.U.U.U.U.U.1.1.1.1.1.1.<.<.<.,.,.:.c.c.c.c.c.c.,.-.,.,.2.2.b P P I I I I O o o . . . 6 { { { ] { } }  .} } } X.@.*.&.$.$.=.=.1.1.1.1.1.1.c.1.1.1.1.1.c.T.T.W.].T.].Y.c.c.x.x.=.x.=.=.=.=.=.1.1.1.1.1.x.c.=.",
"=.c.2.v.v.v.v.v.2.o.o.7.o.o.o.} } } } [ [ [ [ } [ } } X.L I I I U U > X X . X O @ 9.o.o.o.o.o.X.X.X.X.X.X.] ] q 0 0 0 q ] ] ] q q ]  .X.X.X. .X.o...o.o.o.o.o.i.I.I.i.I.I.=.m.=.=.=.x.c.U.U.U.T.U.U.7.7.7.7.7.8.i.U.U.U.I.U.I.M N m N m M < X X O O O X v.v.v.v.v.v.c.1.1.1.c.c.1.=.*.*.#.#.*.*.x.=.x.x.x.x.Y.Y.Y.Y.U.U.Y.Y.Y.Y.I.Y.I.I.Y.I.I.I.I.I.I.I.I.I.I.I.v.#.*.#.#.*.*.f f f g g f p L K N N N N . . . . . . u h h h h g g j g g g j f g g g g g g k *.*.*.j %.*.*.*.*.*.*.#.-.o.o.o.o.o.o.O.O.o.O.O.X.i.U.U.U.U.U.U.1.1.1.=.1.1.:.,.<.,.,.,.c.c.c.c.c.c.1.-.1.<.2.2.v I I P I P I O . . . . . 6 { { { { { } } X.} } } X.@.*.&.&.&.$.=.1.1.1.1.1.1.1.1.1.1.1.1.c.].].].T._._.I.x.x.x.x.=.=.=.x.=.=.=.=.c.c.c.=.x.=.=.",
"c.c.v.v.v.v.v.v.v.o.o.o.o.o.o.} [ [ { [ [ } } [ [  .} [ I I I U I U < X O X X X X 9.o.o.o.o.o.X.X.X.X.X.X.} ] q 0 0 0 0 q q ] q q ] X.o.X. . .X.X.o.o.o.o.o.o.I.I.I.I.I.I.=.x.x.=.x.x.c.U.U.U.U.U.I.7.7.7.8.7.8.i.U.U.U.I.I.i.M N N N N N > X X X X O X c.v.c.c.c.v.c.1.1.1.1.1.1.=.=.#.=.*.*.*.*.=.=.x.=.x.Y.)./.T.U.U.Y.I./.Y.I.I.I.I.I.I./.Y.I.v.v.v.I.I.v.v.c.*.*.*.*.*.#.f f f g f d z K N m N N m   . . . .   u h h g g g g g g h h g g g f g g g g j *.*.*.j *.*.*.*.*.*.*.*.@.o.o.o.o.o.o.O.O.O.O.X.X.2.U.U.U.U.U.I.1.=.=.=.=.1.,.,.,.,.,.,.1.x.c.c.c.c.,.<.2.<.2.2.v I I P P P P O o . . X X 6 } { { { ] } } } }  .} X.@.*.*.$.$.*.*.1.1.1.1.1.c.1.c.1.c.c.1.c.].W.T.T.W.T.Y.1.x.=.x.x.x.=.=.=.=.=.=.=.x.c.=.=.=.x.",
"c.c.v.v.v.v.v.v.v.o.o.o.o.o.X.[ [ } ] [ } [ [ } } } [ } C I U I U I < X X O X X @ 9.....o.o.o.X.X.X.X. .X.] q q q 0 0 0 q ] ] q q ] o.X.X.X...X.X.o.o.X.X.o.o.v.I.I.I.I.v.c.m.x.=.=.x.c.U.U.U.U.U.I.7.7.7.8.7.7.i.U.U.U.Y.I.v.N N N N N N < X X X . O X v.v.v.c.c.v.v.1.c.1.1.1.c.=.=.=.*.*.*.*.*.x.=.=.z.z.Y.Y.T.U.U.Y.I.Y.Y.I.I.I.I.I.I.I.I.I.I.I.I.I.v.v.I.v.c.=.*.*.=.=.*.h f f g f f z N N N N N M   . .   . o u f h j j j g g f h f h g g f g g g g j *.*.j j j *.#.*.*.*.j *.@.o.o.o.o.o.o.O.X.X.X.O.X.>.i.I.U.U.I.I.1.=.$.=.=.1.;.<.,.,.,.,.=.c.1.=.1.c.<.:.2.2.2.2.b I I P I I I O . . o . . 6 [ ] ] { { } } } } X.} X.@.=.*.&.$.*.$.1.1.1.1.1.c.1.c.c.c.1.1.c.T._.T._.T.W.Y.c.=.=.x.=.x.x.=.=.=.=.=.x.=.=.=.x.=.=.",
"v.A.A.).I.v.I.v.v.;.X.o.X.o.X.} } [ [ } ] ] { [ [ [ } [ L I U U U U < . O O O O X ..o.o.o.X.X.] { } [ [ e 5 4 6 6 & & @ & & & & & 4 4 7 6 7 7 7 { X.X.X.X...X.c.v.I.i.v.v.=.x.x.x.x.x.1.T.T.U.U.Y.U.7.7.8.7.7.7.i.I.Y.I.I.Y.I.N N N N N N < X O O O O X v.v.v.v.v.v.c.1.1.1.c.1.1.=.=.=.=.=.*.=.m.x.x.x.x.x.U.T.U.T.T.T.Y.U.Y.Y.Y.Y.Y.Y.Y.Y.U.U.Y.Y.Y.Y.I.I.Y.I.c.=.=.=.=.=.*.f f h f f f z N N K N N M o . . . . . u h j j g g j j g g g g g g g g g k g %.*.+.*.*.#.*.*.*.*.*.*.*.@.o.o.o.o.o.o.X.X.X.X.X.X.>.i.i.I.I.I.I.=.=.*.=.*.$.-.,.&.@.,.@.=.x.x.=.x.=.,.,.1.1.<.2.v I I P I I I o . o . . X 6 [ { { { ] { } } }  . .X.} =.&.=.&.=.$.=.1.1.1.1.c.c.1.1.1.1.1.1.T.W.].T.W.W.Y.c.1.x.c.x.x.c.=.1.1.1.c.c.c.c.c.c.=.=.",
"O $ $ O $ $ $ O O X X X X X X O X X X X X X X X X X X X > > < < > = 8 0 w w e w q o.X.X.X.X.X.X . . o . . . . . . . o . . o o . . X X X X O O O w { ] ] ] { q O X X X X X O O O O O O O @ @ @ $ @ @ w o.o.o.o...6 X @ X O $ $ N I I I I P 2 X O o O o X O $ $ $ $ $ O $ $ X X $ X X O O O X X X O $ $ $ O $ $ $ = = % $ % ; - % % - % % - - - % $ % % % % % ; ; % $ $ $ % $ $ O X X O O X > M m 2 m M < . o o   . . X X X X X X X O X X X X X @ # # # & % @ X X X X O X X X X X O X X X X X X X X X X X X O X O X X X X X X X X X X O O X X X X X X X X . X X . ] } } } [ X.h I P I I P I O . o . . X @ 6 8 6 6 6 7 w w 0 q 0 q 7 X O X $ X X X X O X X O X X X X O O X $ $ $ $ $ $ $ O X X O X X O X @ $ $ $ $ $ $ $ $ $ $ ",
"O O O o o o o o . . o X o . . o . o . . X . X O X X X X = > > > = = 9 [ } } } } } o.X.X.X.X.X.X o o . o . o . . . . . . . o . . . X X X X X $ $ w { ] ] ] ] q . . . X O O O O O O O O O X X O O O X w o.o.o.o.o.6 . X X O X O P I I I I I 2 O O O O O O O O . . o o o X X O o o o O o o X . o o . o o o O O O O O O O O O O O O o X X o o X . X X o o o X o o X O O . . X X O . o o o . . > 2 m m m 2 < . . . . . o . . o o o o . O X O O X O @ & # # # & @ X X X O X O O O o O O O X . O o X X o o O o O O X . o o X O . . . o . . X . X . . . . . X O . . . . e } } } } } n I I I I I I O . O o o O @ & 6 & 6 6 & q ] ] ] ] ] 5 o X o . . o o o . . . . . o . . . o . o o . . o . o o o o o o . . . o O o o . o . o o . . ",
"o o o o o o o o . . o o O X . o . o O X X X X O O O O X * > = = = = 9 [ } } } } X.o...o.o.X.X.X . o o . . . . . . . . o . . . . . . X X O X $ $ w { ] ] ] ] q . . . X o X O O O O O O O O O O O X X w o.o.o.o.o.6 . o o O O O I I I I I I 2 O O o O O O O o . . . o . . . . . . . o O o . O o O . o o o o O o O O X o O O O o o o o . . . o o o . . . . o o . o o o o . . . . . . . . X . * 2 M M M m 3   . . .   . . . . . . o . o O X O X O @ & & & & & @ . . X . . o O . . . o X . . . . . O X . o X o . . . o O o X . . . . . . . . . . o . o . . . . . . . e } } } X.X.n I I I I I I O o O O . . @ 6 & & & 6 & q ] ] ] ] ] w o . . X X . . . . o . . o . X . . O o o . . . . . . . X o o o . o . . . o o . o o o . X . ",
". o . . o . o O o o o . O o . . o O . o . . X O O O X O * > > > = = 9 } [ } } [  ...o.o.o.o. .X . . O o . . . . . . . . . . . . . o X X O $ $ $ w [ ] ] ] ] q . . O X X O O O O O O O o O O O X X O 7 o.o.o.o...6 o o . . O O I I I I I I M o o o o O O o o . . . . O o . . . o . . . o o O O O o O o o O O O o X . . O . o o o o . o o o o . . . . . . . . o o o . o . . o . . . X X X X * 2 2 2 2 m 3   . . . . . o . . . o . . o X X X O X @ & & 6 & & @ . . . . . o o o o o . . o . . . . . . . . . o . . . o o . o . . . . . . . . . . . . . . . . . . . . e } } } } X.n I I I P I P O O O O X . # 6 & & & & 6 ] ] { { ] ] w o o X X X X o o o o o o . . . O O . . o . . . . . . . . o . . . . . . . . o . . . . . . o ",
". o . . . o . O O O O X X X . X . o . O O X X O O O O O = > > = = > i } X.} [ } X.o.o.o.o.X.X.X . O . . . . o X X . . o . . . . . . X X O X $ $ w [ [ [ ] ] q o . . X X O O O O O O O O X O O O . O 7 o.o.o.o.o.6 . o O O O O I I I U I I 2 o o O o o O . . O O o o o . . o . o . . . o o X O o . O O o O O O O O o O O X . o o o o . . . o . . o . o . . o o . o . . . o . o . X . X O X * 2 M M 2 2 < o . . . . . o . . . . o . O X X X O X % 4 6 6 6 6 @ X X X . . o O o o O o . . . . o o . X . . . . . . o o o o . . . . . . . . . . . . . . X X X o . . . e } } } } X.h I I I P I P * O O X X X @ 6 & & 6 6 6 ] ] ] ] ] ] w . . . X X . o . . . o . . . . . O O . . . . . . . o . . . . . . . . . . . . . . . . o . X ",
"o . o o . . . . . . X O X O . . o . O O O O O O O O O O = > = = = > i } X.} } [ X.o.o.o.X.X...O X O o X . . . . . . . . . . . . X o X X X $ $ $ w [ ] ] ] ] q . . X X . X O o o O O O O O O O O O O 7 o.o.o.X.X.5 . . o O O O L I I U I I 2 O O O O O O O O o O X o o O . O o O o o X O o X O O o O o O O O O O O o . O o o o o . . . . . o o . o O o . . o o . . . o O O o O . O X o . . O 2 2 2 M 2 < . o O o . X O O O o . X X O X O X O X # 6 6 6 6 6 # X O O O O O . . . . o o o o . . o o o o   . . . . . . o o o . X O O X . . o . o O O o o O X O X X . w } } } } } g P I I P P P * O O X O O # & & & & & & ] ] { ] ] { 7 X X X X X . o o . . X . X . o . o O . . . . . . . o o O X . . . . O . o o . X . . . . . . ",
"  . . o . o o . O O X o O o . o o o o O O O O O O O O O = = > = = > w }  .} X.} X.o.o.X.X...X.@ X X X O O o o o . . . . . . . . . . . O X $ $ % w [ ] ] ] ] 0 o X O X O X O O O * O O * O * O X O O 7 ..o.X.X.X.5 O O O O O O L I I I I U M O O O O O O O O O O o O o X . O . O o o O O O O O O o O O O O O O O O . O O . . o o . . . . . o o o . O o o . o o X X o o o . o O O X O . o O O 2 M 2 M 2 < . O o O o O O X X O o O X X O X X O O & & 6 6 6 4 # O O O X X o X . . O O X . . O . o o . . . . . . . o . . X . . X o O O o o o O O O O o O O O . O X o e [ [ } [ } g P I I P I I * O O O O O # & & & & & & { { { { ] ] w X X O X X X O . . o . o o . o . o O . . . . . . .   . . . . o . o . . o X . X . . o o o o ",
"o o 2 1 2 2 2 2 2 I I I I I I I I I T T T U T T U U T U U I I U U T 4.u.u.y.u.u.e.o.o.o.o.o...N N N N N 2 m m < O O . . . . .   . . * * * = = = w [ ] ] ] { ] & & & & 6 % 2 M N V I P I L L N L N V n o.o.o.o.o.n x 2 < < 2 1 U / ! / / / L 2 2 2 2 N M 2 2 x 1 2 2 2 2 2 2 2 m 2 2 N N N N N 2 2 N M 2 2 1 > > > > > > > O . . . . . . 1 2 2 2 2 2 N N N N N N N N N N N N N N N N N N N N I U U I I P N N N N N M x N x N N N N N N N N x N d +.{ e { { d N N 2 2 2 N < = = > > < > > > > > > * .   . . . . O > = > > > > 2 M M M x x N N V N N 2 2 2 2 , , > d } X.} } X.j ! ! ! / / E L N V V C V B C B B B B z }  . .X.}  .j x 2 2 2 M 2 , - - - - - $ O * * * * O .   . . . . . = > = > = > = = = > > > > > > > > = = ",
"* > / U ! ! ! / 1XgXgXgXgXjXgXgXgXjXjXjXgXjXjXjXjXkXjXgXjXjXjXgXgXgX6Xh.h.h.h.h.E.7.o.o.o.o.9.T / / ' / / E I m * O . . . . . . . X > < < 3 < 2 h  . .X. .X.X. .} [ } } 6.gXjXgXiXiXiXgXiXgXgXgXiXiXH.8.7.8.8.8.<XlXjXjXjXjXjXjXjXjXgXgXgXgXjXhXhXgXjXjXjXjXjXgXjXgXjXhXiXgXhXjXgXgXjXgXgXgXiXqX` 1X1X1X1X` P P P P L K N > o . o . . o tXrXrXuXrXrXiXgXhXjXjXkXkXjXjXjXjXjXjXjXjXjXgXgXgXjXjXjXkXhXjXjXjXgXjXgXgXhXiXuXuXiXuXuXeX0XqXqX0XqXqXi.g.t.d.p.t.(.jXjXjXkXkXjX` L V L V V N N N M M M M o . o . o . V ~ / / T / / iXiXiXiXiXrXrXiXiXiXiXiXiXiXgXgXiXiX/.8.a.a.f.j./.lXjXkXlXkXkXkXkXkXkXkXkXjXkXkXkXkXkXjXf.j.j.j.a.a.6XjXgXjXkXgXiX}.}. X5X5X XC M N M N N 1 . . . . . . X 0XeXwXwXrXwXrXiXiXiXiXiXiXiXiXgXiXiXiX",
"* > E U U ! ! ! 0XgXiXgXgXgXgXjXjXgXjXgXgXkXjXjXjXjXjXkXjXjXjXjXjXjX}.E.h.E.h.h.E.7.o.o.o.o.o.T / ' / / / / U 2 O O O O . . . . . . < < < < 1 2 n  . . . .X.X.X.} [ }  .,.gXgXgXgXgXgXgXgXgXgXgXiXiX@X8.8.8.8.8.<XgXgXgXgXgXkXjXiXgXgXgXgXgXgXgXiXgXgXgXgXgXgXiXiXgXgXiXgXgXgXiXgXjXiXgXgXiXgX0X) ` 1X1X*X` P P P K P K N > . . . . . O wXrXrXrXeXeXrXgXgXgXhXgXjXgXjXgXgXjXjXgXjXjXgXgXgXgXgXgXgXgXgXjXgXgXgXgXiXiXiXeXeXuXuXuXqXqXqXeXqXqXqXI.p.t.t.t.t.(.jXhXkXkXjXgX` V V V V V N N M M M M M o o . o . . V U ~ / ~ / / rXiXiXrXrXrXrXiXiXiXiXiXiXgXiXiXiXrX/.0.a.a.a.a./.jXkXkXkXkXjXjXkXjXkXjXjXkXhXkXlXkXjXgXd.s.j.a.a.a.6XgXgXgXgXgXiX}.L.}.L.5X5XB M M M M M < . . . o . o O 0XeXqXqXqXqXwXrXiXiXrXiXiXrXrXrXrXrXrX",
"* > E U U U / / 1XjXiXgXgXgXgXgXjXgXjXjXjXgXgXjXgXgXjXjXgXgXjXjXgXgX}.mXh.h.h.h.E.7.o.o.o.o.o.T ' _ / / _ Q ! 2 O O O X . . . . O O < < < 1 2 2 n  . .X.X.X.X.} } } }  .4.gXgXgXgXgXgXiXiXgXgXgXiXiX@X8.8.8.8.8.<XhXjXjXjXgXgXgXiXgXgXgXgXiXiXgXgXgXgXgXgXiXgXgXgXgXiXgXgXiXgXiXgXiXgXgXiXiXgX0X` 1X1X1X1X) P P L P P K N > o . o . . O rXeXwXeXrXeXrXiXgXiXhXgXjXgXjXjXjXjXgXjXgXgXgXgXgXiXgXjXgXgXgXjXjXgXgXgXiXgXiXuXeXuXeXrXuXqXqXeXqXqXqXI.u.p.t.p.p.(.jXjXhXjXhXjX` L L L L L m m N N M M N o   . o . . V T ~ / / ~ / rXeXiXiXrXrXrXuXiXiXrXiXrXiXiXiXiXrXH.e.a.a.a.a./.jXjXjXkXkXkXjXjXgXkXkXjXkXkXkXkXjXjXjXd.s.a.a.a.a.:XiXiXgXgXiXuX}.L.L.}.L.}.B m M M M M < . . . . . . O 0XwXqXqXqXwX0XuXrXrXrXeXuXrXrXiXrXrXiX",
"> < Q U U U / / 1XgXgXgXgXgXgXgXgXgXgXgXjXjXgXjXjXgXjXgXjXjXjXkXjXjX6XE.h.h.h.h.h.7.o.o.o.o.o.T _ _ / _ / / U < O O O O X O X . O O 1 2 2 2 2 2 n X.X.X.X.X. .} X.} X.X.6.gXhXgXiXgXgXiXiXgXgXgXiXgX@X8.8.8.8.8.<XkXgXjXgXgXjXgXiXiXiXiXiXjXgXgXgXgXjXgXgXgXgXkXgXgXgXgXgXgXiXgXgXgXiXiXiXiXiXqX1X1X1X1X1X` N P P P P L N > . . . . . O rXrXrXeXrXeXeXgXhXgXgXgXgXgXjXgXjXjXjXgXgXgXgXgXgXjXgXjXjXgXgXgXgXgXgXgXgXiXiXiXuXuXuXuXuXqXeXeXqXqXqXI.p.t.d.d.g.'.jXjXkXjXhXjX1XV V L L I N N N N N N M . . o . . . N T E / ~ E / rXrXgXrXrXrXrXuXiXiXiXiXiXiXiXiXiXrXA.a.a.a.a.a./.lXgXlXjXjXkXkXgXkXkXkXkXkXjXkXkXkXgXgXj.a.a.a.a.a.}.iXgXgXjXgXuX}.>XL.L.>X}.B N N m m M 1   . . . . o * qXwXqXwXqXeXqXiXiXiXuXrXuXiXiXiXrXrXiX",
"> < U Q U ! / / 1XgXgXjXjXiXgXgXgXgXiXgXjXgXhXjXjXgXhXjXjXgXjXjXjXjX6XE.E.h.h.E.h.7.o.o.o.o.o.T ' ' ' ' _ / U > O O O O O X X o X O < 3 2 2 2 2 n  .X.X.X.X. .X.X.X.X.X.6.gXgXgXgXiXgXgXgXgXiXgXiXiX@X8.8.8.8.8.4XgXjXjXgXgXjXiXgXiXiXiXiXgXhXgXiXgXgXgXgXgXgXgXgXiXiXgXgXgXiXgXgXiXiXgXgXiXgX0X1X1X0X1X1X` N I P L P N K > . . . . . O eXrXrXeXrXeXeXiXgXgXgXgXgXgXgXgXgXgXgXgXgXgXgXgXgXgXjXjXhXjXgXjXgXgXgXiXgXgXiXuXuXuXuXuXuXqXqXeX0XqXqXi.p.t.t.t.t./.jXjXgXhXjXjX1XV L L P P N N N N N N M . . . . . . N T ~ E T E ( iXiXiXrXiXrXeXiXuXiXiXiXiXrXiXrXrXrXA.e.a.a.a.a./.jXjXjXjXkXkXkXkXkXjXkXhXkXjXkXkXkXgXgXd.j.a.a.a.a.6XiXgXgXgXgXrX}.}.L.L.L.}.B M m m m M <   . . . . o O qXwXeXeXeXwXqXiXiXiXuXrXuXiXuXiXrXiXiX",
"> < U I U I / ~ *XuXiXrXiXuXiXuXiXuXiXuXuXiXuXuXuXuXuXuXiXiXiXiXiXiXK.g.g.g.d.g.g.<.o.o.o.o.o.G ( ( ( ( ( T C c ; ; - - = = = = = > 2 M M M N K z  . .X.X.X. .X.o.X.X.o.6.iXiXiXiXiXgXuXiXiXgXiXiXiXG.8.8.8.8.8.<XgXjXgXgXjXgXgXgXgXrXgXiXgXgXiXiXiXiXiXgXgXgXgXgXiXgXgXgXiXgXiXiXiXiXiXiXiXiX1X) ) ) ) ) ( N I P N V N L > o . . . . * tXtXtXwXrXrXeXiXgXgXgXgXjXjXgXgXgXgXgXgXjXgXgXiXgXiXgXgXjXjXjXiXgXjXjXfXgXfXtXrXeXuXrXrXqX0XqXqXqXeXqXr.p.t.t.p.t.'.jXjXjXjXjXjX` P L L L P m N N N M N N o . o . . X N / T T T T ( wXrXrXrXrXeXeXeXrXrXrXrXrXrXrXrXrXtXH.8.a.a.e.a.A.jXjXjXgXkXjXkXjXjXgXgXgXjXjXjXjXjXjXgXa.j.j.j.j.a.`.jXgXjXjXjXrX}.K.L.L.>X>XB m M m m m 2   o . . . . O tXwXwXwXwXwXwXiXrXrXrXuXuXrXrXrXfXrXrX",
"O $ 1.1.1.1.1.=.$.$.$.*.$.$.$.1.c.c.c.c.c.c.<.;.;.;.;.;.<.;.;.;.;.-.<.2.2.2.c.c.1.;.o.o.o.o.o.7.8.8.8.8.8.u.(.R.]._._.`.#X%X#X#X^ R I I L I I I N X O X X O # o.o.X.X.O.O.x.x.x.x.x.=.$.;.;.-.-.-.-.;.7.7.7.7.7.i./.I.U.U.U.(.Y.Y.).Y.Y.Y.2.1.1.2.1.1.1.)././.Y.Y.I.v.v.v.v.v.c.v.c.c.c.2.c.2.v.D.D.A.D.v.c.N I P P P L P < . . . o . % Z.Z.Z.Z.H.Z.A.Z.A.Z.c.Z.Z.).).).).(.).).).).).).).Y.Y.Y.).).).).S.S.S.S.Z.S.D..X.X.X.X.X.X.X.XoXOX|. Xt.u.t.u.t.u.i.K.K.J.K.K.K. X}.K.D.D.D.D m N m N N N . . . . . . b ].].].].].]..X.X.X.X_.U.<.<.<.2.2.2.)._._._._._.u.e.8.8.8.8.y./.I.I.).).).D.A.A.Z.c.c.M.S.M.M.Z.Z.S.e.8.8.8.e.8.i.A.A.D.D.G.`.]..X.X.X.X].z m m M m m 2   . . . . . O M.S.M.S.Z.Z.1.1.1.1.1.1.1.A.A.A.A.D.D.",
"X @ 1.1.=.1.1.1.1.$.$.*.*.*.=.c.c.c.c.c.c.c.,.<.;.;.;.;.-.;.;.;.-.-.;.c.c.c.c.c.c.o.o.o.o.o.o.7.e.8.8.8.8.u.T.(.(._._.`.#X#X+XR R R I L L L I I M . . o . O @ o.o.X.o.O.O.x.x.x.x.x.x.1.;.-.-.-.-.-.o.7.7.7.7.7.r.i.I.U.U.U./.(.Y.Y.T.U.Y.1.1.1.,.1.1.2.Y.Y.Y.I.I.I.v.v.v.c.v.v.c.c.c.c.2.c.v.I.).).).).).v.K I I P V P L < . . . . o ; c.c.A.A.A.v.c.1.1.:.1.1.1.Y.U.Y.U.U.Y.U.U.T.U.T.U.U.U.U.T.U.Y.Y.c.c.Z.Z.Z.Z.A.XX.X.X.XoXXXXXXXXX.X.XXXt.u.u.u.u.e.i.D.D.D.D.D.D..XoX.XoXoX.XN.m m M M M N X . . . . X j Q.].]..X.X.X.X.X.X.XOXY.;.;.;.<.<.<._.]._.].].].u.e.8.8.8.8.y./.I.I.Y.Y.Y.v.v.v.c.c.c.c.x.M.M.x.Z.=.8.8.8.8.8.e.r.v.v.I.I.v.I..X.X.X.X.X~.Z M m 2 M m 3 . .   . . . O c.c.c.c.c.1.-.-.-.-.-.-.<.c.v.v.v.I.v.",
"O $ 1.$.1.1.1.=.$.=.$.=.*.=.=.c.c.c.c.c.c.c.-.-.o.-.o.;.-.-.O.-.O.o.;.c.1.2.1.c.c.;.X.o.o.o.o.o.7.8.e.8.e.u.(.W.R._.(.).#X#X+X+XR R C I I T C L N . . X X X @ o.X.X.X.X.O.x.x.x.x.=.x.=.;.-.-.-.-.-.o.7.7.7.7.7.w.U.U.Y.U.I.Y.T.U.U.U.Y.I.1.1.1.,.<.,.1.I.Y.Y.I.I.Y.I.v.v.v.v.v.v.2.c.v.2.2.2.I.).).(.Y.).v.m I P I I I P < . . . . . t Z.v.A.Z.v.c.1.1.1.1.:.1.:.I.U.T.U.U.I.U.U.U.U.T.Y.Y.U.U.Y.U.Y.I.c.c.c.c.c.c.c.XXXX.XXXXX.X.XoX.XXXXXXXu.u.u.w.u.u.i.D.D.D.D.D.D..XoXoXoXoXoXN.M M M N N N o o . . o O j W.]..X.XXX.X.X.X.X.X.XT.;.;.;.;.;.;.T._.].].].].u.8.8.e.7.8.w.Y.Y.I.Y.Y.Y.I.v.c.c.c.c.c.x.x.x.x.m.x.e.e.8.8.e.e.i.v.I.I.I.v./.XX.X.X.X.X.XZ M M 2 M M 2   . o . . . X 1.c.c.c.c.1.X.X.X.X.-.-.,.c.c.v.v.v.v.",
"O $ 1.$.=.1.1.=.$.=.$.$.$.*.*.=.c.c.c.Z.c.x.-.O.-.o.-.-.O.o.O.O.-.o.-.c.1.c.c.c.c.;.X.o.o.o.o.7.7.8.8.7.w.u.].W.(._.(.).+X+X+X+XR R I L C C C I N   . . . o @ o.o.X.X.o.X.x.=.=.=.=.=.$.;.-.<.-.-.-.o.7.7.7.7.7.r.I.I.U.I.U.I.U.U.U.U.Y.Y.1.1.<.<.<.:.1.I.I.I.I.I.I.I.v.v.c.v.c.2.v.1.v.2.v.2./.).).).).).I.N P P P L P L < . . o . . t c.v.A.A.Z.c.1.1.1.1.:.2.>.i.I.I.U.I.Y.U.U.U.U.U.Y.Y.U.U.U.U.Y.Y.c.c.c.c.x.c.Z.XXXX.XXXXXXXXXXXXXXXXXXXt.t.u.u.w.w.i.D.D.D.D.K.D.oXoXoXoXoXoXN.M m M m N m o . o o . X *.XX]..X[.[.]..X.X.X.X.XT.;.;.;.;.<.;.U.].]._.W.].u.8.e.8.8.8.y.I.I.I.U.Y.U.I.v.c.c.c.c.c.m.x.M.x.m.x.e.e.e.e.e.8.i.2.i.i.I.A.I.XXXX.XXX.X.XZ M m 2 2 M 2   . . . o . X =.c.c.c.c.c.X.-.-.X.-.X.,.v.v.v.v.v.v.",
"O $ 1.$.$.=.1.=.=.$.$.@.$.$.*.1.c.c.c.c.c.c.<.-.o.o.o.o.O.o.O.O.O.o.-.1.1.c.1.1.c.o.X.X.o.o.o.9.7.7.8.8.7.u.].T.T._._./.R R R R ^ G C T T T I C N . . X . . @ o.X.X.o.X.X.c.c.=.=.=.=.$.;.-.-.-.<.-.o.7.7.7.7.7.r.U.Y.I.Y.Y.Y.U.Y.U.I.I.I.2.1.1.<.<.1.1.I.Y.I.I.I.Y.I.c.v.v.v.v.v.v.c.v.v.2.2./.).Y.).).Y.I.N L P P P I P < . . . . . u c.v.v.v.c.c.1.:.1.1.1.1.:.I.I.I.I.I.I.Y.U.U.U.I.Y.U.Y.Y.Y.U.Y.Y.c.x.c.c.c.c.c.XX[..XXXXXXXXXXXXXXXXXXXt.u.u.w.w.w.i.D.D.D.D.D.D.oXoXoXoXXXoXB.M m 2 M M m o o . . . O *.XX].].XX[.]..X.X.X.X.X_.;.;.;.;.;.;.U.W.].].].].p.e.e.e.8.8.w.I.I.I.Y.Y.(.I.v.c.c.c.c.c.x.x.x.M.M.m.e.e.e.e.8.8.i.2.I.v.v.v.v.XXXX.X.X].XXA m N M 2 2 3 . .   . . . X x.c.x.c.c.1.-.-.-.X.O.X.<.v.v.v.v.I.v.",
"O $ 1.1.1.$.1.1.1.$.1.$.$.1.$.c.c.c.c.c.c.c.,.-.o.o.o.O.o.X.o.o.o.o.-.2.2.2.c.1.2.;.X.o.o.o.o.o.7.7.7.7.7.u.W.R.].(._.).R R R G W D I T C T C C N . . . . X X o.o.X.X.X.O.=.=.=.=.=.=.=.;.-.-.-.;.-.7.7.7.7.7.7.y.U.I.Y.I.I.Y.I.Y.Y.I.U.I.:.1.1.1.,.1.1.I.Y.Y.I.I.I.I.v.v.v.v.c.v.v.v.v.2.2.2.I.Y.).).Y.Y.Y.N L I I P P V < o . . . . u c.c.c.c.v.Z.1.:.1.1.1.2.2.I.I.I.I.I.I.U.U.U.U.U.U.U.U.I.U.I.I.I.1.x.c.c.x.x.c.W..X.X.XXX.XXX.XXXXXXXXXp.u.u.w.w.w.>.D.D.D.D.D.G.oX.XoXXXXXXXN.m M M M M M . . .   . X z.XX.X.X.X.X].].].^..X]._.-.;.;.;.;.;.T.].W.].].].u.e.8.8.8.7.w.I.I.I.I.Y.U.I.c.c.1.v.1.c.x.x.x.x.x.x.w.e.e.w.w.7.>.v.v.v.v.v.v..X]..X.X.X].Z 2 M M M 2 <   .         X =.=.=.1.c.1.X.X.o.O.O.X.<.v.v.v.v.v.v.",
"X $ $.=.=.=.=.$.$.1.c.1.1.1.1.1.1.c.c.c.c.x.,.O.o.o.o.o.X.O.-.-.-.-.-.v.1.c.c.c.c.;.X.X.X.o.o.o.7.7.7.7.9.e.U.p.p.u.i.2.n.3.3.3.4.3.5.3.3.3.3.3.n . . . o o X o.O.X.X.X.X.1.c.1.=.=.=.=.<.<.,.<.,.-.7.7.7.7.7.7.y.U.I.I.I.Y.I.Y.I.I.Y.Y.Y.2.1.1.1.1.:.1.I.Y.I.I.I.I.v.2.2.1.c.2.v.v.v.2.v.v.v.).(.).Y.Y.Y.I.L L L L V I P < . . . o O i 1.c.c.c.c.c.1.:.1.1.1.1.2.i.I.U.U.I.I.I.i.U.U.I.I.I.U.I.Y.Y.I.I.c.c.1.c.x.x.c.].XX].].XX.X~.~..X.X.XXXr.u.u.u.w.w.i.D.D.D.D.D.S..XXX.XXXXXXXF m m 2 2 m m o . . . . X *.]..X.X].^.].(.Y.Y./.I.2.;.;.;.o.;.-.U.T._._.T._.r.7.7.7.7.7.y.I.I.I.Y.I.Y.v.c.c.c.v.c.1.x.x.c.=.=.=.w.w.w.7.7.7.;.2.2.v.v.c.v.].T.T._.].W.A M m M M 2 1       . . . X *.=.=.1.1.c.-.X.X.O.O.@.,.>.2.2.2.v.c.",
"O $ =.*.=.*.*.=.=.v.v.v.v.v.v.1.z.*.*.*.*.*.-.-.X.X.X. .@.#.&.&.&.*.=.c.c.c.c.c.c.<.X.X.O.X.X.7.8.9.7.9.7.w.u.u.e.e.e.w.;.o.7.7.7.7.9.7.7.7.7.o.{ . . . . . X o.O.X. . . .=.=.1.=.1.=.=.2.c.v.v.c.c.>.7.7.7.7.7.<.I.I.I.v.I.I.v.I.I.v.I.v./.v.v.I.v.v.v.I.I.I.I.I.v.2.1.1.=.1.1.1.v.I.I.I.I.I.Y.T.T.T.Y.).I.N I I L P P P < . . o . O i *.m.=.x.x.x.1.1.1.$.1.1.=.$.*.$.=.=.$.v.U.I.I.I.2.I.I.I.i.i.I.I.i.;.;.w.;.;.<.1.1.1.$.1.=.I.Y.I.I.I.I.I.Y.I.Y.I.I.I.D.I.v.v.v.v.v.c.v.v.c.c.v M m M M M M o o . . . . *.T.T.T.T._.(.c.x.c.c.c.1.-.-.-.-.O.o.I.Y.I.Y.Y.Y.;.X.O.O.O.O.-.v.v.I.v.v.I.I.I.v.v.v.v.2.$.&.&.$.&.$.o.o.o.o.o.o.<.1.1.$.$.1.c.T._.T.T.T.T.v M N M M 2 1     . . o o X *.#.*.*.=.=.=.$.$.$.$.*.#.j j j k k *.",
"o X $.#.*.*.#.*.=.v.v.v.v.v.v.c.#.=.*.*.*.*.-.X.O.X.X.o.@.*.*.*.*.*.=.c.c.c.c.c.1.,.X.o.X.X.O.o.7.7.9.7.7.w.u.u.u.e.e.e.<.o.;.7.7.7.7.7.7.w.7.o.{ . O . . . X X.X.o.X.X.X.=.1.c.c.c.1.1.c.v.v.v.c.c.>.7.7.o.7.7.;.v.v.v.v.v.I.I.I.v.v.v.v.I.v.I.I.I.v.v.v.v.v.v.v.v.2.c.c.1.1.=.=.2.i.i.I.i.I.Y.T.T.Y.Y.U.Y.L P I I P P P < . X o o . i =.=.x.=.=.=.=.$.1.1.1.c.=.=.=.=.=.1.=.v.U.U.U.I.I.I.I.I.i.I.v.v.>.;.;.;.;.;.;.$.=.$.$.=.=.I.Y.Y.Y.I.I.I.I.I.I.I.I.I.D.v.v.v.v.v.c.c.v.v.v.c.v x 2 2 M M 2 o . . . X . *._._.(._.T.T.c.x.x.c.=.=.-.-.-.-.-.O.I.T.U.U.Y.Y.;.o.O.O.X.O.;.v.v.v.v.v.I.I.I.I.v.v.v.1.*.*.&.&.*.&.-.o.-.-.-.o.<.1.1.1.$.1.1._.T.T.T._._.z M M M 2 2 1 . .   . . . O *.*.*.#.#.*.*.1.1.1.1.*.#.*.j j *.*.*.",
". O $.*.*.*.*.*.=.c.v.v.v.v.v.=.*.=.*.*.*.*.X.O.X.X.X.o.@.*.*.*.*.=.=.c.c.c.c.c.1.1.o.X.X.O.X.o.7.7.7.7.7.w.u.e.e.e.e.e.<.o.o.7.7.7.7.w.w.7.7.o.| . O o . o X X. . . . . .=.1.1.c.c.c.c.v.v.v.c.v.c.>.7.7.o.7.9.;.v.v.v.v.v.I.I.I.v.v.I.I.v.I.v.I.I.v.I.I.I.I.I.I.v.v.=.=.=.1.1.1.2.i.i.I.I.I.I.U.Y.Y.Y.T.U.L I I I I I I < . o . . . i *.=.=.=.=.=.=.1.1.c.1.1.=.=.=.=.=.$.=.I.I.I.I.I.I.I.I.I.i.I.I.v.;.;.;.;.;.;.;.$.=.$.$.$.=.Y.I.I.Y.I.I.I.I.Y.I.I.I.I.A.).D.D.v.b.v.c.c.v.c.c.v M 2 2 M M M o . . . X O *._.(._._.T.(.c.x.x.1.=.=.-.-.-.-.O.O.I.Y.Y.I.Y.I.<.X.O.X.O.O.;.v.2.v.v.I.v.v.v.I.v.I.v.:.*.$.*.$.*.&.O.o.;.-.o.o.,.1.$.1.$.$.1.T.]._.T._.T.z M M M M M 1   . . . . . X j *.*.*.#.#.$.1.=.1.1.$.*.*.j j k k *.",
"o O =.=.*.=.*.#.=.v.v.I.v.v.c.=.*.*.*.*.*.*.-. . . .O.O.@.#.#.#.#.=.*.c.c.c.c.c.c.2.X.X.X. .X.o.7.7.7.7.7.7.e.e.e.e.8.e.w.o.7.7.7.7.7.7.7.7.7.o.{ . X o . . X o.X.X. .X.X.1.c.c.1.1.c.1.v.v.v.v.v.v.i.7.7.7.7.7.;.I.v.v.v.v.v.I.I.v.v.v.v.v.I.I.v.I.I.I.I.I.I.I.I.I.c.=.1.1.1.=.1.2.v.2.I.2.i.I.U.U.U.U.).I.V I I I V L V < . o . o O i =.=.=.=.=.=.=.$.1.1.1.1.=.=.=.=.=.=.=.I.U.U.I.I.I.I.I.I.i.I.I.I.;.;.;.;.;.;.;.=.=.*.=.*.=.I.I.I.I.I.I.I.I.I.I.I.I.I.v.A.v.v.c.v.c.c.c.c.c.c.v 2 M 2 M M M . . . . . X *._._.OXOX_.T.c.=.=.=.x.=.-.-.O.X.O.o.i.Y.T.Y.Y.T.;.X.o.X.o.O.<.v.v.v.v.v.v.I.I.I.v.v.I.1.$.*.#.*.+.&.O.o.;.;.o.o.-.1.1.$.$.=.1.T.T._.T.T.T.z M M M M 2 2 . .   . . . X k *.*.*.*.*.=.1.1.1.=.=.*.*.j j j j j ",
". $ 1.*.#.#.#.*.=.c.v.v.v.v.c.1.*.*.*.*.*.*.-.X.O.X.O.X.@.#.*.#.#.=.*.1.c.1.c.1.c.<.O.X.X.X. .o.7.7.7.7.7.7.e.7.w.8.e.e.;.7.w.7.7.7.7.7.o.o.o.o.{ X X o o o X o.X.X. . .X.1.1.x.x.x.c.1.v.v.c.v.v.I.>.9.7.7.9.9.;.v.v.v.v.I.I.I.I.I.v.v.v.v.I.v.v.v.I.I.v.I.v.I.I.I.v.=.1.1.=.c.=.2.2.2.2.v.v.I.U.U.I.Y.Y.Y.L I I P P P I < . . o o . i =.=.=.=.=.=.=.1.=.=.1.=.=.*.=.=.*.=.=.v.I.I.U.I.I.I.I.I.I.I.I.I.;.;.;.;.;.<.;.$.=.*.$.=.=.I.Y.I.I.I.I.v.I.I.I.I.I.v.A.A.v.v.v.c.c.c.v.c.c.c.v N m M 2 2 M o . . . o X *.T._._.T.OXT.c.x.c.=.x.=.-.-.X.-.O.O.i.Y.I.T.T.T.<.X.O.O.X.X.;.I.v.v.I.I.I.v.v.I.v.v.v.1.$.&.&.+.&.&.O.O.;.o.o.o.-.1.1.1.$.=.1.T.T.T.T._.T.z M N m M m 2 .   . . . . . j *.*.*.*.=.*.$.1.$.$.$.#.*.j j j j *.",
"o $ =.#.*.=.=.=.=.c.v.v.v.v.v.x.*.*.*.*.*.*.-.-.O.X.X.X.@.#.*.#.*.*.*.c.1.1.c.1.1.<.O.O.X.X.o.o.9.7.7.7.7.7.e.7.e.e.8.8.;.o.w.o.7.7.7.7.o.o.o.o.{ O O . . X X X.X. . . .} =.c.1.x.x.=.c.v.v.v.v.v.I.>.9.7.7.7.7.y.v.v.v.v.v.I.I.I.I.v.v.v.v.I.v.v.v.v.I.I.I.I.v.I.I.c.x.1.1.x.=.=.2.2.v.2.2.i.I.U.T.I.I.Y.I.V I I P P C I < . O . . . i =.=.=.=.=.=.*.=.c.1.1.x.=.=.=.#.=.=.=.v.I.I.I.I.I.I.I.I.I.I.I.I.;.;.;.;.;.;.;.=.=.=.*.=.=.v.I.I.Y.I.v.I.I.I.I.I.I.v.A.A.v.v.A.v.c.c.v.c.c.v.v N M 2 2 2 M . . . . . X *.T.T.T.OX_.(.c.c.=.=.c.=.-.-.-.-.-.o.i.I.Y.Y.I.Y.<.X.o.X.O.X.<.I.v.v.I.I.I.I.v.v.I.v.v.1.+.&.+.&.#.&.o.o.o.o.o.o.-.1.1.1.$.=.1.T.T.T.T._.T.z M M M 2 m 2 . . . . . . X j *.*.*.*.*.*.=.1.$.=.=.=.j j j j j j ",
"X O =.=.=.=.=.#.=.c.c.c.c.c.v.=.z.*.*.*.*.*.-.O.o. .X.O.} *.#.$.*.=.*.c.c.v.c.v.v.;.O.X.O.X.X.o.7.7.7.7.7.7.7.7.7.7.7.7.7.o.o.7.7.7.7.7.o.o.7.o.{ o o O . o X X. .} } } } =.=.1.c.x.x.c.c.v.v.v.v.v.>.o.o.7.7.7.;.v.v.I.v.v.v.v.I.v.I.v.v.I.v.I.v.v.v.I.I.I.v.I.I.I.c.=.=.1.1.=.=.1.2.1.2.2.>.2.I.I.v.I.I.I.N I L L L C L < . o . . . i *.*.=.=.=.=.=.=.=.1.=.=.=.=.=.=.=.#.=.c.Y.I.I.I.Y.I.I.I.I.I.I.I.;.;.;.;.<.<.<.=.=.=.=.=.=.v.I.v.I.v.I.v.I.v.v.I.v.v.v.v.v.v.v.v.c.c.c.v.c.c.v M M M M 2 M o o . o o . *.Y.I.I.Y.Y.I.c.=.=.=.=.1.O.O.X.-.X.-.2.I.Y.I.I.Y.<.O.X.o.O.X.<.v.v.v.v.v.I.v.v.I.v.v.v.1.@.&.@.+.#.+.o.o.;.o.o.o.,.1.1.1.1.1.1.U.T.U.T.Y.(.Z N N M 2 2 2 . o . . . . . g j *.*.*.*.*.=.=.=.=.=.*.j k k j j *.",
"o O 1.=.=.=.1.c.=.=.=.=.x.x.x.x.c.c.c.c.c.c.;.;.o.7.7.o.;.$.,.1.1.$.&.U.T.U.T.T.T.r.O.o.O.O.O.7.8.e.8.8.8.8.8.8.8.8.8.7.8.8.7.7.7.7.7.8.7.7.7.9.{ X o o . X @ o. . .} } } Z.1.Z.c.c.c.1.c.2.v.v.c.v.>.o.o.o.o.o.<.v.c.v.v.v.v.v.v.I.I.v.v.v.2.2.v.v.v.v.v.v.v.v.v.I.v.I.v.I.I.2.2.;.-.-.-.;.-.1.1.1.=.1.1.1.N I I L L P I < . . . . o u *.*.*.*.*.*.=.=.x.=.=.=.=.1.1.1.1.1.1.1.1.1.=.c.1.c.W.W.W.W.W.W.2.1.c.1.1.1.1.*.*.=.x.m.z.v.v.v.v.v.v.v.v.v.I.v.I.v.c.c.Z.Z.c.c.v.v.v.v.v.v.v M M N 2 2 M O . .   o . *.Z.c.c.c.c.c.c.c.c.c.1.1.o.O.O.O.O.O.1.c.c.c.c.c.-.o.X.o.O.O.;.I.Y.I.Y.Y.Y.Y.Y.Y.Y.Y.I.2.<.;.-.;.;.;.o.o.;.;.;.o.i.T.T.U.T.U.Y.c.1.c.c.c.1.z M M M 2 2 < . . . . . . . f *.*.#.#.*.#.*.=.=.=.=.v.T.Y.Y.U.).Y.",
"o O 1.=.=.1.1.1.=.x.=.*.=.=.=.x.x.c.c.c.c.c.o.o.o.7.7.o.-.&.1.1.1.1.$.U.W.T.U.T.T.r.o.o.O.O.o.7.8.8.8.e.8.8.8.8.8.8.8.8.8.8.8.7.7.7.7.7.7.7.7.9.{ . o . . . X X.X. .} X.X.1.1.c.c.c.c.c.v.c.v.v.c.v.;.7.o.7.7.7.<.c.v.c.c.v.v.v.v.v.v.v.v.v.v.v.c.v.v.v.c.v.v.v.v.I.v.I.I.v.v.2.2.;.-.;.-.;.;.1.1.1.=.1.c.1.V I I P I P I < . . . . . u *.*.*.*.*.*.*.=.=.=.=.=.=.1.1.1.1.1.1.=.1.=.1.1.1.c.W.].W.W.].W.c.1.c.c.c.c.=.*.*.*.*.*.*.v.v.v.v.v.v.v.v.v.v.v.I.v.c.c.c.c.v.c.v.v.c.c.c.c.v N N M M M M O o . . . o *.c.c.c.c.c.c.c.c.c.c.c.1.O.o.o.-.O.o.1.c.c.1.c.v.<.o.O.X.o.X.;.Y.Y.Y.Y.T.(.Y.U._.T.T.T.I.-.<.-.;.;.o.o.o.o.o.o.o.i.U.U.T.T.T.U.c.c.c.c.c.c.l M M M 2 2 <   . . . . . . g j *.*.*.#.*.=.=.=.=.=.Y.T.(.T.T._.T.",
". O 1.=.=.1.1.1.=.=.=.=.=.*.=.x.x.c.c.c.c.x.;.o.9.7.o.o.o.$.,.1.1.,.,.T.T.T.T.T.T.r.o.O.o.o.O.7.8.8.8.8.8.7.8.8.8.8.8.8.7.8.8.7.7.7.7.7.7.7.9.9.{ . . . . X X o.X. .X.X.X.1.c.c.c.c.c.c.1.v.c.c.c.c.>.o.o.7.7.7.<.c.c.c.c.c.c.v.2.v.I.v.v.v.v.v.c.v.v.v.v.v.v.v.v.v.v.v.v.I.I.v.2.-.-.-.;.;.;.1.1.1.1.1.c.1.N I I P P P P < . . . . . i *.*.=.*.#.#.*.=.=.=.=.=.=.1.1.1.1.1.1.=.1.$.1.=.1.v.W.W.^.W.W.W.I.c.1.c.c.c.=.=.z.*.*.3.*.c.c.v.v.v.v.v.v.v.v.v.v.v.c.c.c.c.c.c.v.v.v.v.c.c.A M M M 2 2 m o o o . . O *.c.c.1.c.1.c.c.c.c.c.c.1.X.o.O.O.O.O.:.c.c.c.c.c.<.X.X.o.o.X.;.Y.).Y.Y.Y.U.U.U._.T.T.U.i.<.;.-.;.o.o.o.o.o.;.o.o.i.T.U.U.T.T.T.c.c.c.1.=.1.l 2 2 2 2 2 1 . . . . . . o j j *.*.*.=.*.=.=.=.x.=.Y.T.T._._.T.T.",
". O c.=.=.=.=.=.=.=.*.=.=.=.=.x.x.Z.x.c.x.x.;.o.9.o.o.o.o.,.,.$.1.,.&.T.T.T.T.T.U.;.o.o.o.o.o.7.8.8.8.8.8.8.8.8.8.8.8.8.8.8.7.8.7.7.7.7.7.7.7.7.} o . . . X X o. .}  .X.X.c.c.c.c.c.c.c.c.c.v.c.c.v.>.o.7.o.7.7.<.c.c.c.c.c.c.c.v.v.v.v.v.v.2.c.c.v.c.c.v.v.I.I.v.v.v.I.I.I.I.v.2.;.-.-.;.-.;.1.c.=.c.1.1.1.L P I P I I P 1 . . o O O u *.*.*.*.#.#.#.=.=.=.=.=.=.1.1.1.1.1.1.=.=.=.$.=.1.v.].]..X^.W.].I.1.1.c.1.c.c.*.x.*.*.*.x.c.v.c.c.v.v.c.v.v.v.v.v.c.Z.c.Z.Z.S.v.c.v.v.c.c.c.A M N N 2 2 2 o . . . . X *.Z.c.c.c.c.c.c.c.x.c.c.1.O.o.o.O.O.o.1.c.=.c.c.1.-.o.o.o.o.X.;.Y.Y.Y.Y.Y.T.U.U.T.T.T.U.i.;.;.-.;.;.o.o.;.;.;.o.o.i.U.T.T.T.U.T.c.c.c.1.=.1.l 2 2 2 2 2 < . . . . . . o j j *.*.*.*.=.=.=.=.=.=.T.(._._.(.T._.",
"X O c.=.x.=.=.=.=.=.*.=.*.*.x.x.x.x.m.Z.x.c.;.o.7.o.7.o.o.,.,.1.1.1.&.T.T.T.T.U.U.<.o.o.o.o.o.9.8.8.e.8.8.8.8.8.8.8.8.8.8.8.8.8.8.7.7.7.7.7.7.9.{ o . O X X X X.X.} X.X.X.c.c.c.c.Z.c.c.c.c.v.c.c.v.>.7.7.7.o.7.<.c.c.c.c.c.c.c.v.v.v.v.v.2.c.v.v.c.c.v.v.v.I.v.v.v.v.v.v.v.2.v.2.-.;.-.-.-.-.1.c.1.=.c.c.1.N P I P P P V 1 . . . o o i *.*.#.#.*.*.*.=.=.x.=.=.=.c.1.1.1.1.1.1.1.=.1.=.=.v.].]..XW.W.W.v.1.x.1.c.1.1.*.*.*.*.z.*.c.v.v.v.c.v.v.v.v.v.v.v.c.c.Z.c.c.Z.c.c.c.c.v.c.c.v N M M M M m o . . . . o j c.c.c.c.c.c.c.c.c.Z.c.1.O.O.o.o.O.o.1.c.1.1.c.c.-.O.o.O.X.o.;.Y.Y.Y.Y.I.Y.U.T.T.U.U.U.v.;.;.;.;.o.o.o.o.;.;.;.o.i.T.U.U._.T.T.c.c.c.c.=.=.l 2 M 2 2 2 1   . . . . . . g *.*.*.*.*.*.=.*.*.=.x.U.(._.T._.T._.",
". O c.x.x.x.=.=.=.=.*.*.*.x.x.m.x.m.c.c.c.c.;.7.o.7.7.o.;.,.,.,.,.,.,.T.T.T._.Y.U.y.o.o.o.o.o.7.7.e.8.8.8.8.e.8.8.8.8.8.8.8.8.8.8.8.7.7.7.9.7.9.} o . O X O X X.X. . .X.X.c.Z.Z.Z.Z.x.x.1.A.c.c.c.c.<.o.7.o.o.o.-.c.c.c.c.c.c.c.c.v.v.v.v.c.c.c.c.c.c.c.c.v.v.v.I.v.2.v.v.v.v.v.2.;.o.;.O.;.-.1.c.1.1.Z.c.c.N I I I P I L < . . . . . t =.*.*.*.*.*.*.=.=.=.=.=.$.c.1.1.1.1.1.1.1.x.=.=.=.c.W.W.W.W.].].v.1.c.c.c.c.1.x.*.*.*.n.3.c.c.c.v.A.A.c.v.v.v.c.c.c.Z.c.Z.c.c.c.c.A.v.c.c.v.A m m M 2 M M . . . . . . b Z.1.c.1.c.c.x.x.c.c.c.1.O.O.o.o.X.o.,.1.1.1.1.Z.-.o.o.o.o.o.;.Y.Y.Y./.I.Y.U.U.T.T.T.Y.2.<.;.-.;.o.o.;.;.;.;.;.o.i.U.U.T.T.T.Y.1.c.1.1.c.=.z 2 M 2 2 M 2   o . . . . O j *.*.#.*.*.=.=.=.x.=.x.).(._._.T._.T.",
". X x.z.*.*.*.*.*.b j j j j *.n.z.*.z.z.*.*.X.X.X.X. .X.| +.@.@.@.+.+.v.I.v.v.c.v.1.O.O.X.X.X.o.7.7.7.7.7.7.o.7.7.o.o.o.7.9.o.9.9.9.9.7.9.9.7.9.} o . . o . X ..X.X.} X.X.*.*.x.=.x.m.x.=.1.=.=.c.c.<.o.o.o.o.o.-.*.*.*.*.=.=.=.=.=.=.x.=.=.=.=.=.=.=.=.1.1.1.=.1.1.1.1.1.c.1.1.$.-.-.@.-.-.-.=.x.=.=.=.1.1.V L V P I I I < . . . . . u %.%.#.j *.*.*.=.*.*.*.*.=.=.=.=.=.=.=.=.=.=.=.=.=.1.].].W.]..X].v.c.x.=.x.=.=.*.z.*.j b b z.x.x.x.Z.x.x.c.Z.c.c.m.m.=.x.x.x.x.=.x.x.=.=.=.=.z m M M M 2 2 O O O O O X f *.*.*.*.*.*.*.*.*.*.*.%.O.X.X.X.X.X.@.%.#.*.j *.@.X.} } } } } 2.c.c.c.c.v.c.1.c.c.c.c.1.@.@.@.} -.@.} } @.} | | &.c.1.1.1.c.=.k *.j j g g 1 2 2 2 2 2 1 o o o o . . O f j *.#.*.#.=.x.x.x.x.x.Y._._._._.W.U.",
". o . . . . . . . .   . o o . . . . . .   . o . . . . . . . . . o o . . . . o . . . . . . . . e o.o.o.7.o.{ . o o . . . ] [ [ [ [ } o.7.7.7.9.9.{ . . . . X X  .} } } [ { X O X X X O X . X . . . . w o.X.X.X.X.q . . . . o O . . . . o o o O o . o . . . .   . . . o o o . o . . . . . . . . . . . . o . . K P L L L V L < . . . o o o o . X . o o . o     .     . . . .   . . . .   . o   . . . o .   o . . . . . . o O . o .     . . . . . o o . o   . . o o . . . X O . . o . . * m m N K K L N N V V V V * . o o o . . . . . . . X X.X. . .X. .7 . . .   X O . . o . . O .   . o . . . . . . . . . . . o . . o . . .   .   . . . . .   . O o X o . o < 2 2 2 2 M 1 * * * * * * * . . . . . .     .       . .   . .   . ",
". . . . o o . . . . . . o o . . o . o . o . . . . o o . . . o o o o o . o o . . . . . . . X . { o.9.7.7.o.{ . . . o O X [ [ [ [ [ [ o.7.9.7.7.7.} o X . O X X  .[ [ [ [ { X X O O O O O O . X X O O 7 o.o.X.X.X.e . o X . o o o o O X o . O o . X O o o o . . . o X X o o O . . . . . . o . . X O O O X O . N L N L P L L < . . . o . o O . X X X O . . . . . . . . . . . . . . o O . . . o . o . o o . . o o . . . . . O o O X o . . o . . o o O o o . . o o o o o o O O O o o O o * N N N V V V V N N N N N * O O O o O o . X O . . X } X.X.X.X.o.7 X . . X X O X o . X . X X o . . . o . . . . o . . . . . . . . . . . . X . . . . . X . . O X X X X O < 2 2 M 2 2 1 * * * * * * * o . . . . . . . . . . . . . . . . . . ",
"o o . o . . . . o o . o o . . o . . o . o o . . . . . . . . . . . . . . o . o X . . . . . . . { o.9.o.7.o.]   . X X . o ] [ [ [ } } o.7.7.9.7.9.} o X o o . X [ [ ] [ [ { O O X X X O X . X o X . O 7 X.o.o.X.X.} o X X . . . . o o o . . . o . X X . . . . o X X . o . X . o . . . . . o . o o o O O O O . N V N L P L L < . . . . . . . . o . X O . . . . . . . . . . . . . o . . . o . o o . X O o . . . . . . . . o o X . . . . X . X . . . o o . . o . . o o O . o o o . o O O O m N V L L P V V V V N N O O O o o o o . X X o o O  . .X.X.X.X.7 . X X X . O X X o X O . . . .   . . . . o . . O . . . . . . . . . X . o o . . o . .   O O X X X O O > 2 M M 2 M 1 * * * * * * O O O . . X o . . . . . . . . . . . o o ",
"O o o O O O . . . . . . o O O o o . . . . . . . . o . . . . . . . . .   . o o . . O . . . X X { o.o.o.9.o.{ . X X o o X { [ } } } [ X.7.7.7.9.9.} o X X o X X [ { ] ] ] ] O O X X X X O . . . . . X 7 o.o.X.X.X.[ . O . O O . O . . . . . . o . o X . o O . . o o o . . o . o . . o . X o o o o O O O X O . N K K P P P V < . . . . . . . . . . . o . . . . . . . . . . . . X . . . . o o . . . . o . . . o o . . . o . . o . . . . . . . o . . o o . o . . . . . . o o o o o . O O * N N N L P L V V V N N N * o O O o o O o . . o o . X. .o.o.X.X.7 . . . . . . X X X . o o . . . . . . . o . . . . . . . . . . . . . . . . . . . o o . . . O O O O O O < 2 N M M m 2 * * * = * * * . o o . . o . . . . . . . . . . . o . ",
"O . . o . o . . o . o o o o o o o . . . . o o o . . . . . . . . . . . . . . . . . o . X . X . e o.9.9.9.o.{ o X X o . X ] [ [ ] [ [ X.7.7.7.7.o.} X X X X . X { ] ] [ ] ] O O X X O O O X X X X X X 9 o.X.X.X.X.} o o . X o . . . . . . . . o o o o . O O O X O X O . . . . X o o o o o o . o O o O O O O O N N L N L K V < o . . o o . . . o . . . . o . . o . . o o o . . . . X . . . o o o . . . . . . o . . . .   . o . o . . . o o . o . . o . . o . o o o . . o o o o . o o o * m L L L L L V P V N N N * O O o X . o O . . X . . X.X.X.X.o.X.7 . . . . . X X O O O . o . . . . . . . . . . . . . . .   . . . . . . . . . . . . . . . O O O O X X O < N N N M N < * * * * * * * . o o . o o o . . . . . . . . o . . o ",
". . . o o . O . . . . o . O o O o o . . . o o O . o . . . . . . . . . . . . . . . . . X . X O q 9.7.7.9.o.{ o X X . X X [ } } [ [ [ o.7.7.7.7.7.} X X X X X O [ [ [ ] [ ] O O O X X O O O O X X X X 7 o...X.X.X.X.o . . o . o o . . . . . . . . . . . O O O X O . . X . . . o o O o O O . O O O O O O O O O N L L K P V V < o . . o O . . . . o . . o o o . o . . o O o . . . . . O . . . . . . . . . . . . . . . . . . . . . o X . o O X . . o . . . o o . o O . . . . o o o . O X * m N L P L L N L V N N N = X O O O O O O O X O O X  .X.X.X.o.X.7 . . X X X X X X O O X . . . . . . . . . . . . . . .   .   . o . . . . . . . . o . . X X O O O X O O < M N N N N 1 * * = = * * * . . . . . . . . . . . . o . . . . . . ",
"O . o O o . o . o . . O o . o . O . . o . . . . . .   . o . o . . . . . .   . . . . . . . . . e o.7.9.7.o. .o o . . X X [ } } [ [ [ o.7.7.7.7.7.} X X . . X X  .[ [ [ [ ] X O O O O O O X X X O X X 7 X.X.X.X.X.}   . . . . . . . . . . . . . . . . . X O . o o o X O . . X X . . O X o O o o O o O o X O . M N N K L N V <   . . . . O o . . . . . . . o . o . . . . . o o O . X . . . . . . . . . . . . . . o . . . . . . . . X . . . . . o . . o . . o o o o . . . O . o o . . . * L L P L P P K L N N N N > O O O O o O O O O O O X X.X.X.o.o.X.8 o O O O X X X X X X X . . o . . . . . . . . . . . . . . . . . o . . . . o o . o o . o O O O O O O O < M M M N N < * * * O * * * . . . . . . . . . . . . o . . . .   . ",
"' ` ` ` ` ) 1X` ) ) ` ) ` 1X) ` ` ` ` ` 1X0X` ` ` 0X1X0X> . . .   . . * > > < 3 1 V U T I I I 4.7.7.o.7.o.X.Q / / E U L N.N.C.N.N.N.,.9.7.7.7.9.X.P / / / / ) &X&X$X&X&X&X) ) ) ` ) ` ` ` ` ' ) ( ( N...X.X.X.X.X.P L I V N N 2 o o . . . o / ) ( ) ( ( ( ) ` ` ` ` ( ) ` ` ` ) ( ( ` ) ) ) ( ) ) ( ( ) *X) 1X0X0X1X1X1X1X1X( ( ( ) ) ` ) ( ) ) ) ) ) ` ) ) ` ( ) ) ) ( ( ( ( ( ( ( ( ( / 2 > < < < < > . . . . . . = N N N N V K / / ) ( ( ( ( ) ) ( ) ( ( ` ) ` ` ) ` ) ) ` ( ) ) 1XqX0X0X0X0XwXwXwXwXwXwXqXwXwX0X0X1X0X0X0X0X0XqXwX1Xo.o.o.o.o.X.$XqX0X1X1X1X~ U U U U U < . . . .   . O * = * > > < N M M 2 x M N N N N V V N V V V V C I I I I I I I T / / / / / / L I C C I I P V I C V V V N N N N V V N < 2 1 2 2 2 ",
"iXiXgXrXiXrXrXrXrXrXrXiXiXiXgXiXiXiXiXiXiXgXrXiXgXgXgXgX< . . . . . . 2 M m N N N / ` ` ` ` 1XH.9.o.o.o.o.X.rXgXiXiXiXgXgXgXgXgXiXiXH.7.9.7.7.9.X.wXuXiXiXiXiXiXiXiXiXgXiXiXiXrXrXrXrXeXiXiXrXrXiXuX@XX. .X.X. .X.T / T U I I N . O . . . O wXwXeXwXeXwXeXrXrXiXrXiXrXrXrXrXrXeXrXrXeXrXeXrXeXeXeXeXeXrXwXwXrXuXrXeXwXrXtXrXeXwXwXeXrXrXrXrXrXeXeXeXrXrXrXeXrXeXrXwXeXeXeXwXwXwXeXqXwX1X0XI M M M M M 2 . . . . . . > I I U I U U wXwXwXwXwXqXwXeXeXrXrXeXeXrXwXrXiXrXeXrXiXrXrXrXrXrXiXrXiXeXeXuXrXrXrXeXrXuXrXrXrXiXrXrXrXuXrXiXiXiXrXo.o.o.X.X...&XrXrXrXeXeX) T E / ~ ~ > . . . .   . > M 2 M M M / 1X1X1X1X0X1X0X0XqXqX0X0X0X0X0XqXqX0XqXqX0X0X0X0X0X0X0X0X0X0X0X0X0X0X0X0X0X0X1X0XqX1X0X0X1X1X1X1X1X1X1X) I U U I I I ",
"gXiXgXgXgXgXiXiXrXrXiXiXiXiXiXiXiXgXgXiXrXgXiXiXgXgXiXgX< . . o . o o 2 m N N N N / ` ` ) ) ` H.o.o.o.o.7.o.tXgXgXgXiXgXiXgXgXgXiXiXH.7.7.7.7.7.o.qXiXrXiXiXiXgXiXiXiXiXiXiXiXiXiXiXrXiXrXrXiXiXiXuX@X .X.X.X.X. .T / U I U I N . . . . . O wXrXrXeXrXeXwXrXiXiXiXrXiXrXuXuXuXrXrXuXuXrXrXuXuXuXeXrXeXrXeXeXrXiXrXeXeXrXeXrXeXeXrXrXuXrXrXrXrXeXeXeXrXrXrXeXrXrXuXeXeXeXeXeXeXeXqXwXqXwXqXI N M M N M 2 . . . . o o > I I U I I U wXeXwXwXeXeXeXrXrXrXrXrXrXeXrXiXrXrXrXrXrXrXiXiXrXiXiXrXiXrXrXiXeXrXiXrXuXiXuXuXiXiXiXiXiXuXeXeXrXeXeX;.o.o.o.X.o.&XeXeXeXeXeX) T T U U U > . . .   . . > 2 2 2 M M / 1X1X0X0X1X1X0X0X0X0X0XqXqX0X0X0X0X0X0X0X0XqX0X0XqX0X0X0X0X0X0X0X0X0X0X0X0X0X0X0X0XqX0X0X1X1X0X1X1X1X1X` I I I I I I ",
"iXiXiXiXfXiXiXiXrXiXiXgXiXiXiXiXrXiXiXgXiXrXiXgXiXiXiXgX2 . . . . . . 2 N N N N N / ` ) ) ) ) Z.o.o.o.o.o.o.rXiXiXiXgXgXgXgXiXiXgXgXH.o.7.7.7.7.o.qXiXiXiXrXiXgXiXiXiXiXiXiXiXiXiXrXrXiXiXiXrXiXiXiX@X .X.X. .X. .T / U T U U N . . . . O O eXtXrXeXeXrXeXrXuXuXrXrXiXuXiXuXuXiXiXiXrXuXuXiXuXuXeXrXeXwXeXrXrXeXrXrXeXrXeXeXeXeXrXrXrXuXrXeXuXeXrXrXrXeXeXeXeXeXuXeXeXeXeXeXeXwXeXeXqXqXqXI N N N N M 2 o . . . o . > I I I U I T wXeXwXwXeXwXeXeXeXeXeXrXrXrXrXrXrXrXrXeXrXrXiXiXiXiXiXeXeXrXiXrXrXrXiXeXiXuXuXuXiXiXiXiXrXuXeXiXiXuXeXO.o.o.o.o...$XuXrXeXrXeX) T T U U U < . . . . . . > 2 2 2 M M / *X1X1X1X1X1X0X0XqX0X0XqX0X0X0XqX0XqXqX0X0X0X0X1X0X0X1X0X0X1X0X0X1X0X0X0X0X0X0X0X0X0X0X0X1X1X0X1X1X1X1X) I U U I I I ",
"iXiXiXiXgXgXrXiXrXrXiXrXiXiXiXiXiXiXiXgXiXiXiXiXiXiXiXgX< . o o o o O < m N N N M / ` ` ` ` ` 6.7.o.o.o.o.X.rXiXiXiXgXiXiXgXiXiXiXiXH.o.7.o.o.o.o.qXiXiXiXiXrXiXiXiXiXiXiXiXiXiXiXiXrXiXrXrXiXrXuXiX@X .X.X.X.X. .T / Q T U U V . . . . . O wXwXrXrXeXeXeXrXiXiXuXuXiXiXiXiXuXuXuXeXrXiXrXuXuXrXuXrXeXeXuXeXrXeXeXrXiXrXrXrXeXuXuXrXeXuXeXeXuXeXeXuXeXeXuXeXrXeXrXrXeXeXeXeXeXeXeXwXwXwX1XI N N N M M 1 . . . . . . > I I I U I U qXeXeXwXwXqXqXeXeXeXeXeXrXeXrXrXeXeXrXrXiXuXiXiXiXeXrXiXiXrXrXiXiXiXiXiXuXrXuXuXuXuXrXuXrXiXiXrXiXeXeXO.o.o.o.o.o.&XrXeXeXeXeX( U T U U U < o . . . . . = 2 2 2 2 2 / 1X0X1X1X1X1X0X0X0X0X0X1X0X0X0XqX0X0X0X0XqX0X0X0X0XqXqX0X1X0X1X0X0X0X0X0X0X1X0XqX0XqX1X0X1X1X0X0X1X0X1X) I I I I I I ",
"iXiXiXiXiXiXiXiXuXiXiXuXiXuXiXiXgXiXiXiXgXgXiXgXiXiXiXgX<   . . o o o < N m N M m ! ` ` ) ` ` Z.o.o.o.o.o.o.fXrXgXgXgXiXiXiXiXgXiXiXH.o.o.o.7.o.o.wXiXiXrXiXrXiXiXrXiXiXiXiXiXiXiXiXiXeXrXiXrXeXiXrX@XX. .X.X.X.X.T / ~ U U U V   . . . . O eXwXwXeXrXeXrXeXuXuXuXuXiXuXuXuXiXrXiXuXuXiXeXuXuXuXeXeXeXeXeXuXrXeXeXuXuXeXiXeXeXeXeXuXiXeXeXeXeXuXrXuXeXuXeXeXeXeXeXeXuXqXeXeXqXeXqXqX0XwX1XI N N N N M 2 . . . .   o > L I I I I I 1XqXeXwXeXeXwXeXeXeXwXeXeXeXeXrXrXrXrXeXeXuXuXrXeXuXuXeXrXrXrXrXuXrXuXiXuXrXiXiXuXuXuXuXuXiXiXrXiXeXwX-.o.o.o.o.o.&XeXwXeXqXqX( T U U Q Q > X . . .   . > 2 2 M 2 M / 1X1X0X1X1X0X0X0X0XqX1X0X0X0XqX2X0X1X1X0X1X1XqX0X0X0X0X0X0X1X1X0X0X0X0X1X0X0X0X0X0X0X0X1X1X0X0X1X1X1X1X) I T I I I U ",
"yXyXyXyXqXqXqXqXyXyXyXyXyXyXyXyXyXuXuXuXuXuXuXuXuXuXuXuX1 O o o o O o > 2 1 1 1 < R $X$X$X$X&X6.o.o.o.o.o.O.iXuXuXuXuXuXuXuXuXuXuXuXH.o.o.o.o.o.o.%X2X2X2X=X2XyXyXyXyXyXyXyXyXyX4XyX4XyXyXyX,X,X4XyXH.X.X.X.X.X.X.I ~ T T U I V . .   . o O =X1X2X0XqX=X2XyXyX,X,X,X,XaXaX4X<X<X<X,X4X4X,X,X,X,X,X,X,X,X,X=X=X&X=X=X=X=X=X4X=X=X,X4X=X=X,X=X2X,X=X=X=X,X,X,X,X,X=X,X=X=X=X=X=X=X=X=X=X=X-XT V V V V N N . . . . . . c D A S F F F %X#X&X%X%X%X=X&X-X=X=X=X=X=X=X,X,X,X=X=X=X,X,X,X=X,X,X=X,X<X<X,X,X-X<X;X<X,X-X;X;X;X<X$X&X&X&X-X$X&X&Xo.o.o.o.o.o.F.$X$X$X-X-XB.B.B.B.B.B.- O X . o O . * > < < < < I %X%X=X%X%X%X&X=X=X=X=X%X*X%X=X=X=X%X*X%X%X%X=X&X=X=X%X%X&X%X%X%X&X$X%X%X%X%X%X%X%X%X%X%X%X=X-X=X=X=X&X$XB.B.B.B.G G ",
"I.I.c.=.*.$.*.*.=.c.I.2.v.I.I.I.I.Y.Y.Y.Y.Y.I.Y.Y.I.I.I.j 1 < < < < > . . . . . . I.W.T._._.].i.X. .X.} } -.T.Y.Y.Y.I.Y.c.c.c.v.A.v.2.o.o.;.o.o.o.1.1.1.1.1.:.I.I.I.I.Y.I.(.(.T.Y.(.).Y.T.T.T.U.W.T.y.X. . . . .} T / / ~ T E L . . . . . O =.=.*.*.*.*.c.Y.Y.U.Y.U.T.T.T.U.U.U.U.2.2.2.2.2.2.v.Y.I.I.I.Y.I.*.#.#.+.+.+.$.v.v.c.c.v.I.v.I.v.v.v.v.v.v.v.v.v.I.I.I.v.2.v.v.2.2.v.v.I.v.I.v.C.T T T U U I . . . . . o f *.=.*.*.=.=.#.*.*.*.*.*.v.I.I.I.I.v.I.I.I.i.I.I.I.I.I.v.v.v.v.v.I.I.v.I.I.I.v.I.I.I.I.I.I.I.I.I.I.v.1.&.&.@.&.@.@.X.o.o.o.o.o.;.<.<.:.<.,.U.]._.T.W.W.u O O O O o . . . .   . . y *.*.$.*.$.$.X.O.X.X.X.} &.*.*.$.*.$.@.*.=.*.$.$.$.$.*.=.=.=.*.1.1.1.=.$.=.$.$.1.1.1.=.1.1.1.1.c.Z.c.c.v.T._.T._.T.T.",
"v.I.c.=.=.=.x.=.=.c.v.v.v.v.v.v.I.I./.Y.Y.Y.Y.).).Y.I.Y.j 2 < < < > > . . . . o o )._._._._.T.i. .X.X.} } -.T.Y.U.U.T./.A.v.A.A.Z.Z.>.o.o.;.o.o.o.1.1.1.1.1.1.I.I.I.I.I.Y.T._.T.Y.).).).T.T.T.T.T._.i.X. . . .} } T / / ~ / E I . . . . X O =.*.*.*.*.*.v.Y.(.T.Y.T.U.U.T.T.T.Y.Y.v.v.2.2.2.2.v.Y.I.I.Y.Y.I.#.#.*.+.#.#.$.v.c.v.c.v.c.v.v.v.v.v.v.v.v.v.v.v.I.v.I.v.v.v.v.2.2.v.2.v.v.v.c.n.T T U U ~ U O . . . . o f #.=.*.=.*.#.*.*.*.*.*.*.c.I.I.I.I.v.v.I.I.v.2.v.I.v.v.v.v.v.v.v.I.I.I.I.I.I.I.I.I.I.Y.I.I.I.I.Y.I.I.2.@.&.&.@.&.@.o.o.o.o.o.o.<.<.<.<.,.,.I.].]._.].W.i X o o o . o . .   . . . u #.#.*.*.*.*.O.X.X.-.X.X.*.#.#.*.&.$.@.=.=.*.=.*.*.*.*.=.=.=.=.*.=.=.=.=.=.=.=.=.1.1.=.=.1.c.1.c.c.c.c.v.T.Y.T.(._._.",
"I.I.c.=.=.=.=.=.x.c.v.v.v.v.v.v.I.I.Y.Y.Y.Y.Y.Y.Y.Y.I.Y.b 2 < < < < > o . . . o . A._.]._._._.i.X.X.X.} } X.T.U.U.Y.Y.Y.A.A.v.c.A.c.<.o.;.;.o.o.o.1.1.1.1.1.1.I.I.I.I.Y.Y.T._._.).).).).T._._.T.T.T.i. .} } } X. .T / / / / / I . . . . . $ =.*.*.*.#.*.v.Y.Y.T.(.Y.U.U.T.T.U.U.Y.v.c.2.2.1.v.v.Y.I.Y.I.Y.I.*.#.#.#.*.#.=.c.c.c.v.v.v.v.v.v.I.v.v.v.v.v.c.v.v.I.I.v.v.v.v.v.2.v.I.v.v.v.v.C.T T T T T T O . . . o o f %.=.=.=.=.*.*.*.*.*.*.*.1.v.I.I.I.v.I.I.I.I.v.I.I.v.v.v.v.v.v.v.v.v.v.I.I.I.I.I.I.I.I.I.I.I.I.I.I.v.2.+.&.&.@.&.@.o.o.o.o.o.o.<.2.<.1.,.,.Y.T.T.W.].W.p . o o . o .   . . . . . y #.*.*.=.#.=.X.} X.} } } *.#.#.&.*.*.*.*.*.=.*.*.*.*.*.=.*.*.*.=.=.=.=.=.=.=.=.=.x.=.x.1.1.c.c.c.c.c.c.v.(.T.T.T._._.",
"I.I.c.=.=.x.x.x.x.c.v.I.v.v.v.v.I.I.I.Y.Y.I.Y.I.Y.Y.I.I.b < < < < < > . . . . . . v._._._._._.i. .} } } } X.T.T.T.Y.I.Y.v.v.c.v.v.c.<.o.o.o.o.o.o.1.1.1.1.$.1.I.Y.Y.I.I.Y.T._._.(.(.(.U.T.T.T._.W.T.i.} X. .X.X.X.W / / / ~ / P . . . . . $ *.*.*.*.*.*.v.Y.Y.T.Y.Y.U.U.U.U.T.U.I.c.v.v.2.2.2.c.Y.I.Y.Y.Y.I.#.*.*.*.#.#.#.A.v.c.c.c.c.v.I.v.v.v.v.v.v.v.v.v.I.I.v.v.v.v.v.v.v.I.v.v.v.I.v.C.U T T T T ~ O . . .   o f *.*.*.=.*.*.*.*.*.*.*.*.1.I.I.I.I.I.v.I.2.I.I.v.I.v.v.v.v.v.c.v.v.v.v.I.I.I.I.i.I.I.Y.I.I.I.I.I.I.I.2.&.&.&.+.+.+.o.o.o.o.o.o.2.1.1.1.1.1.Y.T.T.T.].].i . o . o . .           . i #.=.=.*.*.*.X.X.} } } } &.#.#.*.*.$.&.*.*.#.=.*.*.#.=.*.*.*.*.=.*.=.=.=.*.=.=.=.=.=.=.=.1.c.c.c.c.1.1.v.T.T.T.T.(.(.",
"I.I.c.=.=.x.=.=.x.c.I.v.v.v.v.v.I.I.I.I.I.Y.Y.Y.I./.I.v.S 1 < < < < > . . . . . X v._.(._._._.>. .X.} } } } U.I._.U.Y.Y.v.c.c.c.c.c.<.o.o.7.o.o.o.1.1.1.1.$.1.I.I.Y.I.I.I.T.(._.T.T.Y.U._.W.T.T.W.].i.}  .X.X. .X.W ( / / / / I . . o . . O =.*.*.*.*.*.c.Y.T.T.Y.I.U.T.U.U.U.U.I.1.c.2.2.v.2.2.Y.Y.Y.Y.I.I.*.#.#.#.#.#.*.c.c.c.v.v.c.v.v.v.v.v.v.v.v.v.v.v.v.I.v.v.v.v.v.v.v.v.v.v.v.v.v.n.T U T T T T O o . .   . f *.*.*.*.*.*.*.*.*.*.*.*.c.v.v.I.I.I.v.2.2.I.v.v.v.v.v.v.v.v.v.v.v.c.v.I.I.v.i.I.i.I.I.I.I.I.I.I.I.I.1.&.&.&.+.&.@.o.o.o.o.o.o.1.1.1.<.1.1.U.T._.T._.W.u . . . . .     . . .   . y *.=.=.*.*.*.} X.O.} } } &.#.#.#.*.$.&.*.*.*.*.#.*.*.*.*.*.*.$.=.*.=.=.=.*.*.=.=.=.=.=.=.=.1.c.c.c.c.c.v.T.Y.T._.(._.",
"v.v.c.=.=.x.x.x.x.c.v.I.I.v.v.c.v.I.I.I.I.I.I.I.Y.I.I.I.S 1 < < < < < . . o . . . v._.T._._._.i. .} } } } } U.Y.T.T.Y.Y.c.c.c.v.c.c.;.o.o.o.o.o.o.1.1.1.1.$.1.I.Y.Y.I.I.I.T.(.(.T.T.T.T.T.W.W.T.T.W.>.X.X.X. . . .W ( / ~ / / I . . . . . O *.*.*.z.*.*.c.I.Y.Y.Y.Y.Y.U.I.U.Y.U.I.c.2.2.2.2.1.2.I.I.I.Y.Y.I.#.#.*.*.*.#.*.c.c.v.v.c.v.v.v.c.v.v.v.v.v.c.v.v.v.v.v.v.v.v.v.2.v.I.v.v.v.v.v.m.T I T T U T O . . . . . f *.*.#.*.*.*.*.*.*.*.*.*.1.v.v.v.v.v.v.I.v.v.v.v.2.v.v.v.v.v.v.v.v.c.c.v.v.v.v.i.I.i.I.I.I.I.I.I.i.I.2.&.+.&.&.+.@.X.O.o.o.o.o.<.:.,.<.1.:.Y.T.T.T.T.W.i         .           . . t *.#.=.=.=.*.-.} } @.@.} &.*.#.+.*.&.*.*.*.#.#.*.#.*.#.#.*.*.*.=.=.=.=.*.*.*.x.=.=.=.=.=.=.1.1.c.1.1.1.v.T.T.Y.Y.Y.Y.",
"x.x.x.*.*.x.z.*.*.=.c.c.c.=.=.=.=.1.x.c.c.c.c./.I.I.I.I.b < 1 < 1 1 < . o o . . . c.Y.Y.Y.Y.Y.<.[ } } } } } I.I.Y.Y.I.v.1.c.1.c.c.c.,.o.O.o.o.o.o.1.1.1.$.$.=.1.1.c.c.c.c.v.v.c.c.c.c.c.=.1.1.1.c.1.<.X.X. . . .X.W / / / / / I . . . . . O *.*.*.*.*.*.c.v.v.I.I.I.I.v.v.I.v.v.2.2.v.2.2.2.2.2.I.I.I.I.I.I.1.1.1.1.1.=.=.=.1.c.=.x.x.c.v.v.c.v.v.v.v.v.v.v.v.2.2.2.2.2.v.v.2.v.v.v.v.v.v.n.T T T T T T O . . .   . f *.*.#.*.*.#.c.1.=.=.=.1.$.@.@.@.:.1.*.=.*.=.*.*.*.1.1.1.1.1.1.c.1.1.1.1.1.1.=.=.$.1.=.1.:.v.v.v.I.I.2.*.$.*.*.&.*.O.o.o.o.o.o.<.1.1.1.1.1.v.I.I.I.I.Y.8 . .                   . y j *.j #.#.*.X.X.X.} X.X.@.*.#.#.+.*.*.c.1.1.1.1.1.1.#.=.*.*.=.=.#.#.*.#.*.*.*.#.*.*.*.*.*.*.$.=.*.*.=.=.1.c.1.c.1.c.",
"*.*.*.*.*.*.3.*.*.*.*.*.*.*.*.*.=.=.=.x.=.x.v.I.I.I.I.v.b < 2 < < 1 < . . . . . . =.I.I.v.c.v.,.[ } } } } X.v.v.I.I.I.v.1.1.=.1.1.c.,.O.O.O.o.o.O.=.=.=.*.*.=.c.=.=.=.c.1.c.1.1.1.1.1.=.*.=.#.=.=.=.@.X. .X.X.X.} W / ~ / / / I . . . . . O *.*.*.*.=.=.c.v.v.v.v.v.v.v.v.v.v.2.v.2.v.2.2.2.v.v.I.I.i.I.I.I.I.I.I.I.I.v.c.*.*.*.*.*.*.c.v.v.v.v.c.c.2.v.v.v.2.2.1.1.2.v.2.2.2.2.2.v.v.v.v.n.T T T T U T O . . . . . f *.*.*.*.*.*.c.c.v.2.2.c.$.@.&.&.&.&.#.j *.*.*.*.*.=.1.1.1.=.=.1.1.1.1.1.1.1.*.*.*.=.=.*.1.I.v.I.I.I.v.1.$.$.=.=.=.o.o.o.o.o.o.1.c.2.1.v.v.v.I.I.I.v.I.u . .   .           . .   u g j j j g j X.X.X.X.X.X.&.#.#.#.*.#.#.1.v.v.v.v.v.1.=.*.*.*.*.*.*.*.#.#.#.*.*.*.j j j *.*.*.#.*.#.#.+.#.*.*.#.#.*.$.",
"*.*.*.*.*.*.*.*.3.*.*.*.*.*.*.*.x.=.x.*.=.=.v.I.Y.I.I.I.b 1 < < 1 1 <   o . . . . c.I.I.v.v.v.<.} } } } } X.I.v.I.v.I.v.1.c.1.1.1.1.-.O.O.o.o.O.o.=.*.=.=.*.$.$.=.1.1.1.1.1.1.1.1.c.1.=.#.#.+.=.*.=.@. . .} X.X. .W ( / / / / I . . . . . O =.=.*.*.=.*.c.v.v.v.v.v.v.v.v.v.2.2.2.v.2.2.2.v.v.v.I.I.I.I.I.v.I.I.I.I.I.v.c.*.*.*.*.*.*.c.2.2.v.v.c.c.2.1.c.2.1.v.1.2.2.2.v.2.2.2.2.v.v.2.1.3.I U T T T T O . o . . . f j %.*.*.*.*.v.v.v.c.1.c.&.&.&.&.&.@.*.*.*.*.*.*.*.=.1.1.c.1.1.c.1.1.1.1.1.1.#.*.=.=.=.*.1.v.I.I.I.v.v.$.=.=.$.=.$.o.o.o.o.o.o.1.c.2.2.2.v.I.I.I.I.I.I.u . .     .           .   t g j j j g j -.X.X.X.X.X.&.*.*.*.*.*.*.c.c.v.c.2.2.1.*.*.*.*.*.*.*.*.*.*.*.*.*.*.j j *.*.*.*.#.#.#.*.*.*.*.&.*.#.*.=.",
"*.*.*.*.*.*.*.*.*.*.*.*.*.*.*.*.*.=.=.=.=.=.c.Y.Y.I.I.I.b < 1 < 1 1 < . . . . . o x.I.I.v.v.I.,.} [ [ } [ } v.v.I.I.I.v.1.1.=.1.1.1.-.O.O.O.o.o.o.=.=.=.$.=.$.=.$.=.c.c.1.1.1.1.1.1.1.=.*.*.*.*.=.=.@. . .X.X.X. .T / / / / / I . . . . . X =.=.=.*.*.z.1.v.v.v.v.v.c.v.v.v.2.v.2.2.2.2.2.2.2.2.I.v.I.I.I.I.v.I.v.v.v.I.c.*.*.*.*.*.=.1.2.2.v.v.c.2.1.c.v.2.2.2.1.v.2.2.v.v.v.2.v.v.v.2.2.*.T T T T I I O . . . . . f *.*.*.*.*.*.c.1.1.2.v.2.,.@.&.&.@.&.#.*.*.*.*.*.*.=.1.1.1.=.1.1.1.1.1.1.1.1.*.*.*.*.*.*.1.v.v.I.I.v.v.=.$.1.$.$.$.o.o.o.o.o.o.1.v.2.2.2.2.I.I.I.I.I.I.t . .     .           . . u j *.j j j j X.-.X.X.-.-.+.*.*.*.*.#.#.1.1.1.1.c.c.1.*.*.*.*.=.*.*.*.*.*.*.*.*.*.j j *.*.*.*.#.#.*.*.*.=.*.*.*.*.#.*.",
"*.*.#.*.*.*.#.*.*.*.*.*.*.*.*.#.=.=.=.*.=.=.v.Y.I.Y.I.I.3.1 1 1 1 1 < . . . . . . 1.I.I.v.v.v.,.} [ } } } } I.I.v.I.I.v.1.1.1.1.1.1.-.O.o.o.o.o.o.=.=.=.*.*.*.1.1.$.1.1.1.c.1.c.1.1.1.1.*.#.#.*.=.=.@. . .X. . . .W / / / / ~ I   o . o . O =.*.*.*.*.*.1.v.v.v.v.v.v.v.v.2.v.v.2.2.2.2.2.2.2.2.I.I.I.I.I.I.I.v.v.v.I.I.1.*.*.*.*.*.*.1.v.2.v.v.c.c.1.1.v.c.c.1.1.2.v.2.v.c.2.2.2.2.2.2.2.3.T I U U U I O . . . . o f *.*.*.*.*.*.1.2.2.v.c.c.$.@.@.@.&.&.#.*.*.*.*.*.*.=.1.1.1.1.1.1.1.1.1.c.1.1.$.*.*.*.*.*.c.2.v.v.I.v.2.1.=.$.$.=.$.o.o.X.X.o.o.1.2.2.2.2.1.i.v.v.v.I.I.t . . .   .               i j *.*.*.*.*.-.-.X.} X.X.+.*.*.*.*.*.*.1.1.c.1.2.c.1.=.*.#.*.#.*.*.*.*.*.*.*.#.#.*.j #.*.*.*.#.#.*.*.*.#.&.*.*.#.*.*.",
"*.*.*.*.*.*.*.*.*.j *.*.*.j *.*.=.=.=.=.=.*.c.I.I.I.Y.I.3.3 2 2 1 1 < .   .   . . =.I.I.I.v.v.<.} } } } } } I.v.v.I.I.v.1.1.1.c.1.c.-.o.o.X.o.o.o.$.=.*.*.=.*.=.=.=.1.1.1.1.1.1.=.=.=.=.*.$.$.$.$.=.@.} }  . .} } T / / ~ / / I . .   . O O =.=.*.*.*.*.c.v.c.v.v.v.v.v.2.2.2.v.v.v.2.2.2.2.2.v.v.v.v.I.I.I.v.v.v.v.I.v.1.*.*.*.z.*.*.1.v.v.v.c.v.c.2.2.1.c.c.1.2.1.2.1.c.v.2.:.2.:.2.2.v.n.T T T T T T O . . . . . f *.*.*.*.*.*.:.2.1.1.c.1.$.&.&.&.&.+.#.j j *.*.#.*.=.1.1.=.=.=.=.1.c.1.1.1.1.$.#.*.+.+.*.1.2.2.v.v.v.1.$.$.$.=.1.$.o.o.o.o.o.o.2.v.v.2.2.2.I.v.v.v.I.I.u .                 . . . t j *.*.#.*.#.@.} X.X.X.-.+.k *.*.#.*.*.1.1.1.2.1.2.1.#.*.*.#.*.=.*.*.*.*.*.#.#.*.*.*.*.*.*.#.#.#.*.#.#.*.*.&.&.*.*.*.",
"*.3.*.*.*.*.*.*.*.*.*.*.#.*.#.#.=.*.*.=.*.*.c.I.I.I.I.I.3.2 1 1 2 2 < . o . . . . *.v.v.v.v.c.,.[ } } } } } v.2.v.I.v.v.1.1.1.1.1.c.-.o.o.X.O.o.o.1.$.=.=.*.#.=.=.$.1.1.1.1.1.1.$.=.=.=.$.$.$.*.=.$.@.} X.X.X. .} T / / / / ~ I . . . . X $ =.=.*.*.=.=.1.v.v.v.c.v.v.v.1.1.2.2.c.v.2.v.v.v.v.i.I.I.I.I.I.I.v.v.v.v.v.v.1.*.*.*.*.*.*.c.v.1.1.c.c.1.1.c.c.1.1.c.1.2.v.v.c.c.v.2.2.1.2.1.:.n.T T T T T T O . . . . . f *.*.#.*.#.#.1.2.1.1.c.1.$.&.&.&.+.&.#.*.*.*.*.#.#.$.1.1.1.1.1.1.1.1.1.1.1.1.*.*.#.*.&.*.1.v.v.v.v.v.1.*.$.=.=.$.@.O.o.o.o.X.o.1.v.2.2.2.2.2.v.v.i.v.I.u . .     .     . . .     u j *.*.*.*.*.} @.} -.-.@.+.*.*.*.*.*.#.1.1.1.1.1.1.=.*.*.*.*.*.#.*.*.*.*.#.*.#.*.*.*.*.*.*.*.#.#.#.*.#.*.&.*.*.*.*.#.",
"*.*.*.*.*.*.#.*.*.=.*.*.=.*.=.*.*.*.*.*.*.*.*.*.=.=.*.*.z 2 2 1 2 2 1   . . . . . j 1.1.=.$.=.,.o.o.o.o.o.O.v.v.v.v.v.2.2.v.2.v.v.v.<.o.o.o.X.o.O.$.1.1.1.1.=.1.=.=.=.$.=.=.=.=.=.=.=.=.*.$.*.*.*.*.@. . . . . .} T / / ~ / E I . . . o O O #.=.*.#.*.=.=.*.=.*.*.*.*.x.=.=.*.*.=.2.I.I.v.v.v.=.*.*.*.*.*.=.2.I.v.v.v.v.c.=.=.=.=.1.c.c.1.2.1.1.1.1.1.c.1.1.1.1.=.j k k j g g j g j j j j b T T T T T T O . . . . . i j j *.k *.*.*.*.*.j j *.=.$.$.$.$.$.=.=.*.*.*.*.$.1.1.v.1.2.v.$.=.#.=.*.#.*.1.1.1.2.1.1.=.*.#.*.=.*.*.#.*.*.*.k %.O.o.o.o.o.X.1.1.=.=.$.=.#.j j j j g % . .   .             . . t f g g f g %.| } } @.} | +.k j k k j j #.#.*.*.*.*.#.#.*.*.*.j *.*.*.=.#.#.*.=.1.1.1.1.1.1.*.*.#.*.*.#.#.#.#.+.#.#.=.",
"*.*.*.*.*.=.=.*.#.=.=.*.*.=.=.#.*.*.*.*.*.*.*.*.*.=.=.=.h 2 2 2 2 2 <   . . . . . j 1.=.*.=.=.&.o.o.o.o.o.o.v.I.I.v.v.v.v.v.v.v.v.v.-.O.o.o.O.X.X.$.c.1.1.1.1.1.1.=.=.=.=.=.=.=.=.*.*.*.*.=.*.*.*.*.@.X. . . .X. .T / / / / / L . . . . O O =.*.*.#.*.*.=.=.*.*.*.*.*.*.*.*.*.=.x.v.v.v.v.v.I.=.*.*.*.*.*.*.1.v.I.v.I.v.v.c.c.2.v.2.c.c.1.1.1.1.1.1.1.1.1.1.1.1.=.g k k j k j j g g g j k b T T T T T I O . . . .   i j g j j j *.j j j j j j *.$.1.1.=.=.=.*.=.=.=.*.=.1.:.1.2.v.1.=.#.#.*.#.#.#.1.1.v.c.c.c.1.=.*.#.*.=.#.*.*.*.*.*.%.O.X.O.o.X.X.$.=.$.=.=.=.*.j j k j g $ .                   . . u f g g g g g | } | | } } d g g g g j j *.#.#.#.*.#.#.#.*.j *.j *.*.#.#.#.*.#.*.1.1.1.1.1.1.*.#.+.#.*.#.#.*.+.+.#.+.*.",
"*.*.*.*.=.=.=.*.*.=.1.=.=.*.=.#.*.*.*.j *.*.*.=.*.*.=.=.v 2 M 2 2 2 < . .   . . . g =.$.*.*.=.,.o.o.o.7.o.7.2.I.I.v.v.v.v.2.2.v.v.v.-.o.o.o.o.o.O.1.c.1.1.1.1.1.1.=.=.=.=.*.*.*.=.=.=.=.*.*.*.*.*.#.@.X. .X. . . .W / / / / / L . . . . o O *.=.*.=.#.#.*.=.*.*.*.*.*.*.*.*.=.*.#.v.I.v.I.I.v.=.*.*.*.*.*.*.1.v.I.I.I.v.v.v.c.c.c.c.1.v.2.1.1.1.1.1.1.=.1.1.1.1.=.g k g g k g j k g g k g n T T I T I T O . . . . . i j j j j j j j j j j g j #.$.$.$.=.=.=.=.=.*.$.=.1.1.1.2.v.2.1.1.*.#.#.#.#.*.1.1.v.1.1.1.1.=.*.*.#.#.#.*.j k j j %.O.O.O.o.X.o.:.=.1.=.=.$.*.#.*.j j j $ .       .           . . u g g f g g g | | | } } } d g g g j j j #.#.#.#.*.*.#.*.*.j j j *.*.#.#.#.#.#.=.1.1.1.1.1.1.#.#.#.#.#.*.*.%.+.#.*.#.+.",
"*.*.*.#.=.=.*.*.=.=.*.*.*.=.*.*.#.*.*.*.*.*.*.*.=.*.#.*.v 2 2 2 2 2 1   . .   . . k =.=.*.*.*.&.7.7.o.o.o.7.2.I.I.I.v.v.v.v.v.v.v.v.-.o.o.O.X.X.X.1.1.1.1.1.1.1.1.=.=.=.=.*.=.*.=.#.*.=.*.*.$.*.*.*.@.X.X.X.X. . .W / / / / T I . o . . . $ #.=.#.*.*.#.*.*.*.*.*.*.*.*.*.*.=.=.*.v.v.v.v.v.2.=.*.*.j *.*.*.c.v.I.v.v.v.v.2.2.c.c.v.c.c.1.1.1.1.1.1.1.=.1.1.1.1.=.g g g j k k g k g g g g v T T T T T T O . o . .   i k j j j j *.j j j j j j #.$.$.1.$.=.$.$.=.$.=.*.$.1.v.1.2.2.1.1.#.#.#.#.*.*.1.1.c.1.1.1.1.*.*.*.#.#.*.j j j j j k O.O.X.o.O.o.1.$.=.=.=.=.*.%.*.j j g % .           .       .   t j f f f g g | | } | } | d g j g g g g *.*.*.*.*.*.*.j *.j *.j *.#.#.#.#.#.*.*.1.1.1.1.:.1.#.*.#.#.#.#.*.+.%.#.#.#.#.",
"*.*.*.*.=.=.*.*.=.=.*.=.*.*.*.*.*.*.*.j *.*.*.*.*.*.#.#.z 2 2 2 2 2 < . . . . . . j $.$.$.*.$.@.7.w.7.o.o.o.I.I.I.v.v.v.v.v.v.v.v.v.-.X.o.O.X.X.X.1.1.1.1.1.1.1.1.1.=.=.=.*.*.#.*.*.#.#.#.#.=.*.#.#.@.o.X.X.X. .X.T / / / / E I . o o . o O *.#.*.*.=.*.*.*.*.*.*.*.*.*.*.=.*.*.=.v.v.v.v.v.v.1.*.*.*.j *.*.c.v.v.v.v.v.v.v.v.c.2.1.1.c.1.1.1.1.1.1.=.=.1.1.1.1.=.g g k k k j k k k g g g h T T T T T T * o . . . . u j j j k j j j j j *.j j *.$.$.$.$.$.*.$.$.*.*.*.$.1.:.1.2.1.1.=.*.*.*.*.#.#.=.c.1.c.c.c.1.*.*.#.#.#.#.j j *.j g k X.X.X.O.O. .$.$.$.$.=.$.*.j j j g j % . . . . .     .   .   . u f f f g f g } | | } | | { j g g g f g *.*.*.*.*.*.*.j j k j j *.*.#.#.#.*.*.*.=.1.$.1.1.$.#.#.#.#.#.*.%.%.*.*.*.#.*.",
"*.*.#.=.=.*.*.#.=.$.=.=.*.*.#.*.*.*.*.*.*.j *.*.#.*.*.*.z M 2 2 2 2 3 . . . . . . g $.$.$.$.=.&.o.o.o.o.o.o.v.I.I.v.v.c.v.v.v.v.2.v.-.X.o.X.X.X.X.1.1.1.1.1.1.1.1.1.=.=.=.=.=.=.*.#.#.#.#.&.#.#.#.*.@.X.X. .X.X. .W / / / / / L o . o o . O *.=.*.*.=.*.*.*.3.*.*.*.#.*.*.*.*.*.*.v.v.v.v.v.v.=.*.*.*.*.*.*.1.v.v.v.v.v.v.c.1.2.2.v.1.v.1.1.1.1.1.=.=.=.1.1.1.1.*.k g j g %.k k k g g g g b T T T T U T O . . . . . i j j j j k j *.j *.j g j *.$.*.*.$.$.$.=.=.#.=.*.*.1.1.1.1.1.1.=.*.*.#.*.*.*.=.c.1.c.1.1.1.#.#.#.#.#.*.j j k j g *.X.X.X.X.X. .1.=.$.$.*.*.*.j j j j j $ . . . . . .             u f f g f f g | | } | | { +.f g f g h f *.*.*.j j j j j j *.*.*.*.*.*.*.#.*.*.#.$.1.$.1.1.$.#.*.#.#.%.*.%.*.#.%.*.%.%.",
"*.*.*.=.*.*.*.*.*.#.*.*.*.#.*.*.*.*.j *.*.*.*.*.*.*.*.*.z 2 2 2 2 2 < . . . . . . f =.=.=.=.$.&.o.o.o.o.o.o.2.v.v.v.v.2.v.v.c.v.c.v.O.X. .X.X.X.X.1.1.1.c.v.1.2.1.1.=.=.=.=.=.=.=.=.=.#.#.*.#.*.=.*.@.X.X.X.X. .} T E T / U U L o o O O O O #.*.=.=.=.=.*.*.*.*.*.#.#.*.*.*.#.*.*.c.c.v.v.v.v.=.#.*.*.*.#.*.1.v.2.v.v.c.c.c.1.c.c.v.2.2.c.1.1.1.=.=.=.1.=.=.1.c.1.j j k j *.k k k k j j k v I I I I I C O . . . . . u j j j j k j g j j j j j #.*.=.*.$.=.*.=.*.*.*.$.*.=.1.1.1.1.1.=.*.*.*.*.*.#.$.1.v.1.c.c.1.=.=.*.#.*.*.j g k %.k k } } X.} } X.@.&.$.*.#.%.k j g g h h - . o . . . o . . .   . . u f f g f f s { [ [ } { | e f f f f f h g k k k k k j j j g g g h j *.*.*.*.*.#.*.=.=.*.#.#.*.*.*.*.*.*.*.*.k j *.#.*.",
"X X O X X X . . X X X . . . o       .   .     .   . . . O < < < < < < O . . . . o . o .   . X % X.o.X.o.X.X.6 X X X X X X X X O X X [  .}  . . .w X X X O X O X X X X X X X X X X X O X X X X X X X 6  . .X.} } [ 2 N N m M N K L L L L N 1 X X X . . . O O X X X X . . o . . X X X X X X X X X X X X . X X X O X X X X X X X X O O X X X X O X X X X X X X X X X X X X X O + + X X . X . O < < < < < < . . . . .   .     . . . . . . . . . . . o X . X X . O + X X X X X + X X X X X . . X . X X X X X X X X X O O X X X X . . O . . X ] ] { { { ] 7 . X X . . * 1 1 1 1 1 2 1 < 1 < < >   . . . . . . .       . X 0 q 0 w w 0 6 . .   . . . .   .   . . .   .   . . . o . .   . . . . . . . .   .   . .   . . . . o o . . ",
". . o o . o . . . . .   . . .   . . o . . . . . . . . . O < < < < < < O . . . o . . . . . . . O X.X.o.O.X. .6 X . . . . . . . . X o { X.}  .} } 0 . . . . . . . . .   o . . . . o . . o .   . . . . 4  .} } } } [ 2 N x m M N L I I I P L 2 . . . . . . . . o . . . . . . . . . . . .   . . . . . . o . . . . . . . . . . . . o . . . o . . . . . . . . . . . . . . .   . . o . . . . . . * 3 < 1 < < < o . . . . . . . . . o o . . . . . . . . . . . . . X . . . . o . . . . . . . . . . .   . . . o . . . . . . . . . . . . . . . . X ] ] [ { ] ] 5 . . . . . O 2 x 2 2 1 2 2 1 1 2 < > . . . . . . .   .   . . . q q q w q q 7 . . . . o o o . . . . . o . . . . . o . . . . .     .   .   . . . .   . o . . . . . . . . ",
". . . . . . . o . . . . . . . . . . . . . . o . . . o . O 1 < < < 1 < O . .   . . . . . . . . X o.o.X.X.X.X.6 X . . . . . . . . . X } X.} } } } 0 . . . . . . . . . . . . . o . . . . .   . o . . X &  .} } } } } < 2 m M m M L I I I I I 2 X . . . . . . . . . X . . . . . . . X . o . . . . . . . . . . . . . . . . . . . . o . . . . . . . . . . . . . . . . . . . . . . o . . . . . . O < < < < < < o o o . . . . . . . .   . . . . . . . . . o . . . . . . . . . . . . o . .   . . . . . . . . . . . . . . . . . . . . . . . . . X ] ] [ [ [ ] 7 X X X . o O 2 2 x 2 2 2 2 2 2 1 < < .   . . . . . . . . . . . q q q q q q 4 o . .     . .         . .   . . . . . . . . .     .     .     . .     . . . o . . . . . . ",
".   . . . o o . . . .   . . . . . . . . . . . o . . . X O < < < < 3 < O . . . . . . . . . . . X o.o...X.X.X.6 O . o . . . . . o . . [ } } } [ } 0 . . . . . . . . . . . . . . . . . .   . . . . . X # } } } } } } < 2 2 M M M L I I I I I m . o . . . . . . o . o . o o . . o . . . . . o o . . . . . . . . . . . . .   . .   . . . . . . . . . . . . . . . . . . . . . o . . . . . . . . * < 3 3 3 < < O o o . . . . . . . . .   . o . . . . . . . . . . . . . . . . . . . . . . . . . . . . . . . . . . o . . . . . . . . . . . X . X { [ } [ [ ] 5 . X O X X O 2 x 2 2 2 2 2 2 1 1 1 >   . . . . . . . . . . . . q q q q q q 6 X . .   .   . . . . . . . . .     . . . . . .             . . . .   . . . . .   . . . . . ",
". . . . . . . . .   . . . . . . . . . . . . .   . . . X O < < < < < < * . . . . . . . . . . . X o.X.o.o.X.X.6 o O o . o X . . . . . } X.} } [ } 0 . . . . . . . o . . . . o . o X o . o . . o . O X # } } } } } } < 2 2 M M m L I I I I I N . X . . . o . . o . . . . . o o . . . . . . . . . . . . . . . . . . . . . . . . . .   . . . . . . . . . o . X . . . . . . . o o . . . . .   . O < 3 < < < < o . . . . . . . . . . . . . . . . . . . . . . . . . . . . . . . . . . . . . . .   . . . . . . o . . o . . X X o . . . . . . o O { [ } [ [ ] 7 . . X . . O 2 x 2 2 2 2 1 2 2 2 2 < . . . . . . . . .   . . . q q q q q q 6 . . . . . . . . . . . . . . .     . . . .               . . . . . . o o o . . . .     . . ",
". . . . O . o o . .     . . o . . . . . . . . . . X . . O < < < < < < * . . o X O . . o o . . $ o.X.X.X... .6 X . X O X o . o o o o } } } } } } 5 . . . .   . . . o X O . o O X X X O o X o O O O . # } } [ } } } , < 2 2 M 2 L I I I I L x . O X . . X o . . o X O o . . . O o . . O . o o . . . o o . . o . . . . o . . . . . .   o . . o . o o o . o . . . . . . . . . o o X . O . . . O > < < < < > o . o o . o o o . . . . . X . . . . . . . . .   o . . . . . . . o . .   . . .     . . o . . . . . o . . . . X . . o o .   . . X ] } [ [ [ ] 7 . . . . . = N 2 2 2 2 M 2 2 2 2 2 < . O o . o . . . . o . . X q q q q q q & . . o . . . . . . . . . . o .     .   . . . .   . .     .         . . o . .   . . . . . o ",
". o .   . . .   . .           .     . .     . X . . . . O < < < < < < O . . . . . . . . . . . @ X.X.X.X.X. .6 . X . . . . . . . . O } } } } } } 5 . . . . . . . o o . . . . . o o o o . X X X X O . 6 } }  . . .[ = > < 1 2 2 L I I I P L N . . o o o . . . . o o X X . . . . . . . o . . . .   . o . .   . . . . . . . . . . . . o . o o . . . . . . . . . . . . . . O . . . o X o . . . O > > < > > > . . . . . .   . . . . .   . . o .   .   . . . .     . .   . .   . . . . . . . . . . . . o o     o . . .     .     . . . . .   X [ [ [ [ } [ 5 X . X . X > 2 M x M 2 M 2 2 2 2 2 > o . . o .   . . . .   . . ] ] { q ] ] 4 X . . . . . . .   .   .     .       . o .       .             .   . . . . o o . . o . . . ",
"O O < 2 N M N N I ` ) ` ) ) ` ) ` ` 1X` 1X1X1X1X0X1X1X1X1X0X0X1X1X0X0X0X1X) ' ) ) ( ( ) ( ( ( R X.X.X.X.X.X.R / / ( / / / / ~ ~ / / 5.} } [  .} w . . . o o X 2 L N N N N ~ ~ / ~ / / / / ( ) ) ` 1X%X&X&X2X=X=X2X` ` ) ` ` ) 1X1X` ` ` ` ) / / ( ( ( ( / ( ) ( ( ( ) ) ' ) ( ( ( ( ( ) ( ( ( I M N N m N 1 . . o . . . . o . . . o . O ~ / ( / ( ( ( ( ( / ( ( ( ( ) ( ( ( / ) ) ) ) ) ) ) ( ) ( ) ( ( / ( ( ( ( ( ( ) ) ( ) ( ) ( ( ( ( ( ( ( ^ / ^ ^ / ~ N N V V N N 2 < 1 < < < * . . . . .   * > < < < < I ~ ~ ~ / ~ T T / E / ~ T X.}  .}  . .3.) ) ) ) ( ) ) ) ( ) ( ( ( ( ( ( ( / T / T ~ / ~ ~ T / / T ~ T | } } } } } +./ ( / ( / / N N N V N N 1 < < < < < < .       .     , 2 N N M N 2 ~ / ~ / / ( ^ / ~ ( / ^ ",
"O O N L I I P I / 0XwX0XqXqXeXwXqXwXqXwXqXwXeXeXeXeXeXeXwXwXeXeXeXeXeXeXeXwXeXqXwXqXqXqXqXqXqX$Xo.X. .} X. .0XwXwXeXeXrXwXeXwXwXwXqX4.[ } [  . .7 . . . . . . N / ~ ~ / ~ 0XeXeXeXrXrXrXwXwXrXrXrXrXeXeXeXeXeXeXwXeXeXeXrXrXrXeXwXrXrXrXrXrXeXeXeXeXiXeXeXrXwXeXeXeXrXeXeXeXeXeXeXeXeXeXwXwXeX) I I I I I P * * * * * * : * o . . . o o *X0X1X1X1X1X1X1X0X1X1X0XqX2X0X0X1X0X0X0X0X0XqX0XqX1X1XqX0X2X1X1XqX0X0X0X1X0X1X1X1X1X0X1X1X1X1X1X1X1X1X*X0X1X1X1X1X*XU I U I I I V M 2 2 2 1 > . . .   . . > < 2 2 2 2 T ) ) ) ) ) ) ) 1X) ` 1X) }  . . . . .+X0XqX0X1XqXqX1X1X1X1X0X1X0X0X0X1X1X0X1X1X0X1X1X1X1X1X1X1X*X*X) @.} X.} } } 5.` ) ) ) *X) I V V V V L N 1 < 1 1 2 2 . .   . . .   M V V V V V C ) ) ) ) ) ) ) *X*X*X) *X",
"O O N L L I I I / qXwXqXqXqXeXeXwXwXwXwXeXeXeXeXeXrXeXeXwXeXeXeXeXeXeXeXwXeXwXwXqXqXeXqXqXqXqX$X.. .X. .X. .1XeXeXwXrXwXeXqXeXeXwXtX4.} } [ }  .7 . . . X . . V / / / / / qXrXeXwXeXeXeXeXeXeXrXrXrXeXrXrXeXrXrXrXrXeXeXrXeXrXrXeXrXrXrXiXrXrXrXeXiXeXrXrXeXeXrXeXuXuXrXrXrXrXrXrXeXeXeXeXeXeX( I I I I I P : > < < > < > = . o . . o O ) 1X0X0X0X0X0X0X0X0X0X0XqX0X0X0X0X0X1X0X0XqXqX1XqX1X2X0X0X0X1X0X0X1X1X1X0X1X0X0X1X1X1X1X1X1X1X1X1X1X*X1X1X1X0X*X1X) I I U I I I V 2 M 2 2 2 < . . .   . . > < 1 1 2 2 E ( ) ) ) ) ) ) 1X` *X1X) X. . . .X.X.+X0X0X1X1X1X1X1XqX1X0X0X1X0X0X0X0X0X0X0X1X0X0X0X0X1X1X1X1X1X*X' @.} } } X.} *.) *X1X*X*X) L V V L V V N 1 2 1 1 2 2 . .   .   . . 2 V V V V V C ) ) ) ) *X*X) ) ) ) *X) ",
"O o N L I I I I / qXwXwXwXqXwXqXqXeXeXeXqXeXeXeXeXeXeXeXeXeXeXwXeXeXuXeXeXeXeXeXeXqXeXqXqXqXqX&X . .} }  .X.qXeXeXeXeXeXeXeXeXeXwXwX5.} } } [ } 7   . . o . . N E / / / / qXeXeXeXeXeXrXeXeXeXeXeXeXrXrXeXeXeXeXeXrXeXrXeXrXeXrXeXrXrXeXeXeXwXrXeXeXeXrXeXrXeXrXeXeXeXrXeXeXuXeXrXeXeXeXrXeXeX) I I I I I I > < < > < < < > o o . . . O ` 1X1X1X0X1X1X1X0X1X1XqX0X0X0X0X0X1X0X0X0X0XqXqX0XqXqX2XqX0X0X0X0X0X0X0X1X1X1X1X1X1X1X1X1X0X1X1X*X1X1X1X1X1X*X1X1X*XI I I I I I N M 2 2 2 1 > . . .   .   > < 1 1 1 2 I ( ) ) ) ) ) *X) *X1X) *XX. . . .}  .+X0XqXqX0X0X1X0X0X0XqX1X0X0X0XqXqX0X0X0X1X0X0X1X1X1X1X1X1X1X1X1X@.} } } X.X.5.` *X) *X) ) C C C V I V N 1 3 1 1 1 M   .   . . . . M V V V V V I *X*X*X*X) ) *X) *X) ` ) ",
"O o m I I I I I ~ 1X0XwXqXqXeXqXeXwXwXeXeXeXeXeXeXqXrXqXeXeXeXeXqXeXeXeXeXwXwXeXeXqXqXqXqXqXqX&X .X.} X.X. .1XwXeXeXwXrXeXeXeXeXeXeX=.[ [ [ [ [ 7 . . . . . . N E / / / / qXeXeXeXeXwXwXeXeXeXqXeXeXeXeXeXeXrXrXrXeXeXrXeXrXeXeXeXrXrXrXeXrXrXeXrXrXeXeXrXeXeXeXrXrXwXeXeXeXrXeXeXwXrXeXwXwXeX( I I I I I L > < < < < < < > . . . .   o ) 1X0X1X1X1X1X1X0X0X1X0X0X1XqXqX0X0X1X0X1X0X0XqX0X1XqX1XqX0X0X0X0X0X0X0X0X0X0X1X1X2X1X1X0X1X1X1X0X1X1X1X1X1X*X1X*X) I I I I I I N 2 1 2 2 2 >   . . . . . > 1 1 1 < 2 I ( ) ) ) ) ) *X*X*X) *X*X} } }  .} } +X0XqXqXqX1XqXqX0X0X0X0X0X0X0X0X0X1X0X0X0X1X0X1X0X0X1X1X0X0X1X` @.X.} } X.X.5.` *X*X*X) ) I V V V V V N 2 2 2 1 2 2 .       . . . 2 V V V L V I ) 1X*X*X) ) ) *X*X) ) ) ",
"o o M I I I I P / 0X0XwXqXqXqXqXwXwXwXqXeXeXeXeXeXeXeXeXeXeXuXeXrXeXeXeXeXeXwXqXwXqXqXeXqXqXqX$X . . . . . .qXqXeXeXeXeXeXeXqXwXwXqX4.} [ [ [ } 5 . . . . . . N / / / / / wXeXeXwXwXwXeXeXwXqXwXwXwXeXeXeXeXeXeXeXeXeXeXeXeXeXwXeXeXeXeXrXrXrXeXeXeXeXeXeXeXwXeXeXeXwXwXeXrXrXeXeXeXrXeXeXeXeX) I I I I I I > < < < < < < > . . o o o O ) 1X1X1X1X0X1X*X1X1X1X0X1X0X1X1X0X0X0X1X0X1X0X0X0X2X0X2X0X0X0X0X*X0X1X1X1X1X2X1X1X*X1X*X1X1X1X*X1X*X1X1X1X1X*X*X*X) I I I I I I N 2 2 2 1 1 > . . . .   . > < < < < 1 I ( ( ) ) ) ) ) ) ) ) 1X*X} } } } } } +XqX1X1X0X0X0X1X0X0X0X0X1X0X1X0XqX0X0X0X1X1X*X0X0X*X1X1X0X0X1X` @.} X.} } } 5.` *X*X) ) ) I V C V V V M 1 < 1 1 2 2 o . .   . .   2 N V V V V C ) ) ) ) ) ) ) ) ) *X) *X",
"    z v v A A A F #X$X%X$X=X2X=X2X=X=X=X=X=X=X=X=X2X=X=X&X=X=X=X=X=X=X&X=X%X=X=X%X$XJ.;XV.;X$XV. . . . .} } =X2X2X=X2X4X=X=X=X2X=X=Xn d r d d f % . . . . . . Z R R R #X#X#X&X=X=X=X=X=X=X=X=X=X2X=X=X=X,X,X,X,X=X=X=X,X,X,X,X=X=X=X2X2X2XqX=X,XaX,X4X=XyX2XaX=XaX=X=X=X=X=X=X,X,X=X%X&X=X&X%XR A A D A D A > < < < < < < > . . o . . $ $X$X$X$X$X$X$X$X$X$X$X$X$X#X#X#X#X#X%X%X$X$X$X$X$X$X$X$X$X$X$X-X-X$X$X-X$X$X$X$X$X$X$X$X$X$X$X$X$X$X$X$X#X#X#X#X$X+XF F F F F D N 2 m 2 2 1 > . . . . . . O < < < > < C G #X+X#X#X+X#X#X#X#X#X#X| } [ } } } C.=X$X$X&X$X$X$X$X$X$X$X$X$X$X$X$X$X$X$X$X$X$X$X$X$X$XP.P.$X+X#X@.} } } } } *.#X#X+X+X#X+XD D Z Z A D x 1 1 1 1 1 < o . . .   . . l Z Z B B Z D #X+X#X#X#X#X#X#X#X#X#X#X",
".   d +.&.+.+.+.$.1.1.1.1.1.1.1.,.,.:.$.$.$.#.*.%.*.*.+.=.1.=.=.=.$.=.*.=.#.*.*.#.1.v.v.v.v.v.<.} } } } } [ I.2.I.I.v.v.c.c.c.c.1.2.B C L I I L 1 . . .   . . x.Y.Y.Y.Y.Y.1.:.:.:.:.$.@.,.,.,.,.,.:.1.2.v.2.i.I.I.I.I.v.I.I.v.*.=.*.=.*.*.1.v.I.I.I.I.Y.I.Y.).).Y.).Y.).).).).).).*.*.*.*.*.*.*.*.=.#.*.#.+., < 3 < < < < < o . . o o % /.I.Y.I.I.Y.).).Y.).I.Y.I.*.*.*.*.*.*.=.v.v.v.v.I.c.v.v.v.v.I.I.v.v.v.I.I.I.v.I.I.v.v.v.v.v.v.v.v.v.v.v.v.v.v.v.v.v.v.v.v.v.v.v.S C C C P V 2   . . . . . . . . . . o j c.c.c.c.c.c.v.v.c.c.c.c.} [ [ [ } [ :.b.v.I.I.v.v.c.c.c.v.v.v.c.v.v.v.v.v.v.v.I.I.I.v.v.v.b.v.v.c.v.} } } } }  .-.c.c.c.c.c.c.c.c.c.c.c.c.S 2 2 N M 2 2 . .   . . . . j j *.#.*.#.=.1.1.1.1.c.c.c.c.v.v.c.c.",
". . d %.+.%.%.+.*.c.1.c.1.1.1.1.$.&.$.$.=.*.*.*.*.*.*.#.=.=.=.=.=.=.*.*.#.#.*.#.*.1.v.2.v.v.2.<.} } } } } } v.v.v.v.I.v.c.c.c.c.1.2.B L C C C I 2 . . . . . X x.Y.Y.).I.I.1.$.1.1.$.$.1.$.1.,.1.:.:.1.v.v.v.v.v.v.v.v.v.v.v.v.=.*.*.=.=.*.Z.I.I.I.I.I.I.).Y.).).).).).).`.).D.).).*.*.*.*.*.j *.*.#.#.*.*.#.< 1 < < < , < < . . . . o - D.I.I.).I.Y.I.).).).).).b.*.*.*.*.z.*.=.v.v.v.v.I.c.v.v.v.v.I.v.I.v.I.I.v.I.v.I.v.v.I.v.v.v.A.v.v.I.c.c.v.c.v.c.v.v.v.v.c.c.c.v.N.C C I V V 2   . .     . . . . . . . g c.c.c.c.c.c.v.c.c.c.c.c.| [ [ [ } [ 1.A.Y.Y.Y.Y.I.c.c.c.c.c.c.c.v.v.c.v.v.v.v.v.v.v.v.v.v.A.v.v.v.c.-.} } }  .} ,.Z.c.c.c.c.c.c.Z.Z.c.x.x.S M M M M M 2 o . . .   . . j j j j *.*.*.x.=.1.1.1.c.c.c.c.c.v.c.",
". . d +.+.%.%.+.#.1.1.1.1.1.1.:.$.$.$.$.$.*.j *.j j j *.*.=.=.=.=.=.*.#.#.*.*.*.#.=.v.2.v.v.c.1. .} } } } } v.v.v.v.v.v.1.c.c.c.1.v.C C I I I C 2 . . . . . X x.).Y.).Y./.1.=.=.$.$.1.$.1.$.1.1.1.1.:.v.v.v.v.v.v.v.v.v.v.v.c.=.*.*.=.=.*.c.I.I.I.I.I.I.).).).).).).).).).).).)./.*.*.*.*.*.*.*.*.#.#.*.*.*., < < < 3 < < < . . . . . - A.Y.I.v.I.Y.I.).).).).).A.*.*.*.*.*.*.=.v.v.v.v.v.v.v.v.c.v.v.v.v.I.v.I.v.I.I.v.v.v.v.v.v.v.A.A.v.v.v.c.v.c.c.c.v.c.c.c.v.v.v.v.N.I C I C V M . . .       . . .     o g c.c.c.c.c.c.v.c.c.c.c.x.| } [ [ { [ 1.A.I.I./.I.I.c.c.c.c.c.v.v.v.v.v.c.v.v.v.I.I.I.v.v.v.v.v.v.v.c.} } } } X.} ,.c.c.c.c.c.c.Z.Z.Z.c.c.c.b 2 N M 2 M 2 o   . . .   . j j *.*.j *.*.c.x.c.1.1.1.c.c.v.c.c.c.",
"X . g %.+.%.%.+.+.1.1.1.1.1.1.1.$.$.$.$.$.$.*.*.*.*.*.j #.=.*.=.=.=.=.#.*.#.#.#.#.=.c.v.2.2.2.1. .} } } } } v.v.v.v.v.v.1.c.1.c.c.1.C I L I I I 2 . . . . . . x.).Y.).).I.1.$.$.=.$.=.$.:.$.1.$.1.$.1.v.v.v.v.I.v.I.v.v.v.v.c.=.*.*.=.=.=.c.Y.I.I.Y.I.I.I.).).).).).).).).).).)./.*.*.*.*.*.*.*.#.#.*.*.*.#., < < < < < < < . . . . . % v.).).D.Y.v.).).).).).Y.A.*.*.*.*.*.*.=.2.v.v.v.v.v.c.v.v.v.v.v.v.v.v.v.v.v.v.I.v.v.v.v.I.v.v.v.v.v.v.v.v.c.v.c.c.c.v.v.v.v.A.v.n.C C I C V N . .   .   . . .     . . g c.c.c.c.c.c.c.c.c.c.c.c.| } } [ { [ 1.D.Y.).I./.v.c.c.c.c.c.c.c.v.c.c.c.v.v.v.v.v.v.v.A.v.v.v.v.v.c.@.| } } X.X.-.c.v.c.c.c.c.c.c.c.c.c.c.v M x M M 2 2 . . .         g j j *.*.*.*.=.=.=.1.1.c.c.2.v.c.c.c.",
". . d +.+.+.+.+.#.c.1.1.1.1.1.:.$.*.$.$.*.*.*.*.*.j *.*.*.=.=.=.=.*.*.#.*.#.*.*.#.=.1.v.c.v.v.:.[ } } } } } v.v.v.v.v.v.c.1.1.c.c.1.C I I C V L 2 . . . . X X =.).Y.).)./.=.*.$.=.$.$.$.$.1.1.:.:.1.v.v.v.v.v.v.v.v.I.I.I.v.v.*.*.=.z.*.=.c.I.I.I.b.I.I./.).).).).).).).).).).).).*.*.j *.*.*.*.*.*.#.#.#.*.< < , < < , < < . . . . . % v.Y.).v.A.b.I.).).).).).I.*.*.*.*.*.*.=.2.2.v.v.v.v.c.v.c.v.I.v.v.v.v.v.v.v.I.I.v.v.v.v.v.v.v.A.I.v.v.A.v.c.v.v.c.c.v.v.v.v.v.v.S C C I V L 2 . . .   . . . . . . . . j c.c.c.c.c.c.v.c.c.c.c.x.| [ } { { ] 1.).Y.I.I.I.I.c.c.c.c.c.c.v.v.v.v.v.c.v.v.v.v.I.v.v.A.c.v.c.c.v.@.} } X.} X.,.v.c.c.c.c.Z.c.c.c.c.x.x.v 2 M 2 2 2 2 . . .   . . . g j j *.*.j *.=.=.=.1.1.c.c.c.c.c.c.c.",
". . s +.%.+.+.%.*.1.1.1.1.1.1.$.*.&.*.$.$.#.j *.*.k k j #.=.*.=.#.#.*.*.*.*.*.#.#.=.1.2.2.c.v.<.[ } } } } } 2.v.v.v.v.v.c.1.c.c.c.1.B L I I I C 2   . . . . X =.Y.Y.)./.I.=.$.$.=.$.=.1.1.1.1.1.:.1.1.v.v.v.v.v.I.I.v.v.v.I.v.=.*.*.*.*.*.x.I.Y.Y.D.v.v.Y.Y.).).).).).).).).).).Y.*.j j *.*.*.*.#.#.#.#.#.#., < < < , , < < . . . . X % v.D.A.v.I.I.).(.).).).).v.*.*.*.*.*.*.1.c.v.c.v.I.v.v.v.v.v.v.v.v.I.v.v.v.c.v.v.v.v.v.v.v.I.v.v.v.v.v.v.v.v.v.c.c.c.c.c.v.A.v.c.S I I C I C 2     .   . . .       . . g Z.Z.c.c.c.c.c.c.c.c.c.x.| { { { { { :.Y.I.Y.I.I.v.c.c.c.c.1.c.v.v.v.2.v.c.2.v.v.v.v.v.v.c.c.A.v.v.c.-.} } } } } ,.c.c.c.c.c.c.c.c.c.c.c.c.b N N M 2 2 2 .   .   . . . g j j *.*.*.*.=.=.=.=.=.c.c.c.c.c.c.c.",
". . s d d k d g k *.*.*.*.*.#.#.*.*.$.*.*.*.*.*.*.j *.*.*.#.#.*.*.*.#.#.*.*.*.*.#.*.1.=.=.$.=.&.[ [ [ { { [ 1.1.v.c.1.1.c.c.c.c.c.v.B C I I I I 2 . . . . . . #.A.v.I.v.v.=.=.=.=.=.=.=.$.$.=.=.$.$.1.v.c.c.1.1.1.1.1.c.c.1.1.*.*.*.*.*.*.*.v.c.c.c.c.1.v.v.v.v.v.A.v.c.c.c.c.c.c.*.j j *.*.j #.*.=.*.=.=.*., 1 < < < < , < . .     . % =.c.c.c.c.c.v.I.v.I.v.Y.A.*.=.*.#.#.#.=.=.*.=.=.=.*.=.$.=.=.=.=.=.=.=.*.#.*.*.=.*.*.*.*.*.1.v.c.v.c.c.v.v.v.c.c.c.c.c.c.c.c.1.1.b L I V C C 2     . . . . O   . . . X h =.1.1.c.=.c.v.c.c.c.c.x.+.| | { | | 1.1.c.c.c.c.c.x.=.=.x.c.1.c.c.c.1.1.1.c.v.v.v.v.v.c.v.v.v.v.c.c.@.@.| | | | &.c.c.c.c.c.c.c.x.x.x.x.x.b M N 2 x 2 2   . .     . . h j j *.*.*.=.=.=.1.1.1.=.=.c.1.c.1.c.",
".   i s s f f f f g g g g g g *.#.#.#.*.*.#.*.#.=.*.*.#.*.#.*.*.*.*.*.*.*.*.*.#.*.#.*.=.=.=.=.&.[ { } } [ [ &.$.$.*.=.1.v.v.v.v.c.:.N I I C C C M . . . . . . g *.1.=.=.=.x.=.=.x.=.=.=.=.=.=.=.*.=.=.=.*.*.*.*.#.*.*.*.*.*.*.*.*.*.*.#.#.*.*.*.*.*.*.*.=.c.c.c.c.v.c.*.#.*.*.*.*.j j *.j j *.=.c.c.c.c.c.1., < < < , < < < o . . . . = g j j j j j c.v.v.v.v.v.v.#.#.#.#.#.#.j j j j j j *.j j j j j j j j j k j j j g g j j j j =.c.c.v.v.c.c.c.v.v.c.c.c.1.1.1.1.=.1.j L C C L V 2   . . . . . . . .     . s *.#.%.*.%.*.c.v.v.c.c.v.+.%.%.%.%.+.%.j j *.j j j j j j j *.*.*.#.*.*.*.*.=.c.v.c.c.c.c.v.v.v.v.c.c.+.+.+.%.%.%.%.#.*.#.#.#.*.*.*.*.*.*.#.v 2 M 2 2 2 2 . .     .   . f j *.*.*.*.=.=.1.1.1.=.#.j *.j j *.#.",
".   y f f f f f f g g g g g g k #.#.#.#.*.*.=.*.*.#.*.#.*.*.*.*.*.*.*.*.*.*.*.*.#.*.=.#.*.*.=.&.[ } } } } } *.*.*.$.$.=.2.v.v.c.c.2.B C C L C V 2 . . . . . . g =.=.=.=.=.=.=.=.x.=.=.*.*.=.=.=.=.=.=.*.=.*.*.*.*.*.#.*.*.*.*.*.*.*.*.#.*.j *.*.*.*.*.*.=.c.c.c.v.v.1.#.*.*.*.j j j j j j j *.=.c.c.c.c.c.1.< < < < , < < < . . .   . - g k j *.j j x.v.v.v.v.v.v.#.#.#.#.*.%.*.k k j j *.*.j j j g j j j j j g k j j g g j j j g =.c.c.c.v.c.v.c.v.c.c.c.c.1.1.1.1.1.1.b C C I C V 2     . . . . .       . . f j *.*.*.%.*.v.2.c.v.v.v.+.%.+.%.%.+.%.j j *.j j *.j j j *.*.*.#.#.#.#.#.*.=.c.v.v.c.c.c.c.v.c.c.c.1.+.+.%.%.%.%.%.*.#.#.*.#.*.*.*.*.*.*.*.h M M 2 2 2 2 .   .   . . . f j j *.*.*.=.1.1.1.1.=.*.j *.j *.*.*.",
".   i f f f f f s f g g g g g k #.#.#.#.#.*.*.*.*.*.=.#.*.*.*.*.*.*.#.*.*.*.*.*.*.#.#.#.#.#.*.@.} } } } } } *.*.$.$.$.$.2.v.v.c.2.2.V C C C C C 2 . . . . . . g =.=.=.=.=.=.=.=.=.=.=.=.=.*.=.=.=.=.=.=.=.*.*.*.*.*.*.*.*.*.*.*.*.*.*.*.#.*.*.*.*.*.*.*.=.v.2.c.v.v.1.*.*.*.*.j j j j j j j *.#.1.1.1.1.1.1.< < < < < , < < o . . . . % j j j j *.*.=.v.v.I.I.v.c.#.+.*.*.#.#.*.k j j k k *.j j j g j j j j j j j g g j g j j j j $.v.v.c.v.v.c.c.c.v.c.c.1.1.1.1.1.=.1.b C C C V V 2     .                 X s *.*.*.k %.*.v.c.v.v.v.1.+.%.%.+.+.{ %.g j *.*.*.*.j j j j *.*.*.*.*.*.#.#.=.c.v.v.v.c.c.v.c.v.v.c.$.+.+.%.%.%.%.*.#.*.#.*.#.*.*.*.*.*.*.*.v N N 2 2 2 2 .   .     . . f g j *.*.*.=.1.1.1.=.c.=.j *.j j *.*.",
".   s f f f f f f f g f f g g k *.#.#.#.*.#.*.#.*.*.=.*.#.*.*.*.*.*.*.*.*.*.*.*.*.*.#.*.=.#.=.&.} } } } } } $.*.#.#.*.*.v.v.v.c.v.v.N C I C C C 2 . . . . .   k =.=.=.x.x.=.=.=.=.=.=.=.=.=.=.=.=.=.=.=.=.*.*.*.*.*.*.*.*.*.*.j *.*.*.*.*.*.*.*.*.*.j *.*.2.2.v.2.1.c.*.*.*.*.j *.j j j j j j #.c.1.c.1.c.1.< < 1 < < < < < . . . . o % j j j j j j =.c.v.v.v.v.c.#.*.*.#.#.%.%.j j k *.j j j j j j j j j j j j j j g g g g g g j =.c.c.c.c.c.v.v.2.c.1.c.1.1.1.1.1.=.$.S C C C V V 2     . . . .     . o o . f k k k k %.*.1.v.v.v.c.1.%.k +.+.+.+.k j j *.*.#.*.j j j *.*.j *.*.*.*.*.*.=.1.v.v.v.v.v.c.c.c.c.c.1.+.+.%.+.+.+.*.*.#.*.#.#.*.*.*.*.*.*.*.h 2 M 2 2 2 2 o         . . h j g *.*.j =.1.=.=.1.=.*.j j j j j j ",
".   u f f s s s f h g f f g g k #.#.#.*.#.*.*.*.*.#.#.#.*.*.*.*.*.*.*.*.*.*.*.*.#.*.#.*.#.=.=.&.} [ } } [ } *.*.*.#.*.=.c.v.c.c.c.v.B C C C L C 2 . . . . . . g =.x.=.=.=.=.=.=.=.=.=.=.=.=.=.=.=.=.=.=.x.*.*.*.*.j *.*.*.*.*.*.*.#.*.*.*.*.*.*.j *.*.*.*.2.v.2.c.c.1.*.*.j *.*.*.j j j j j j *.c.1.c.1.c.1.< < 1 < < < < < . . . . o $ g g j j k j =.c.v.v.v.c.2.*.#.%.#.#.*.*.j j j k k k %.j j j j j j j j j j g g g h g g g j =.c.c.c.c.c.c.2.c.c.1.1.1.1.1.1.=.=.1.b C C C C V 2     . . . .   .         f j k k k k %.c.c.c.c.v.1.+.%.+.+.+.+.k g *.*.*.*.j *.j j j *.*.*.*.*.*.*.*.*.1.v.c.v.v.v.c.c.v.2.c.1.+.+.+.+.+.%.%.*.*.*.*.#.#.*.*.*.*.*.*.v 2 x M 2 2 1 o .   .     . f g j *.*.j #.=.=.=.=.=.#.j j j j j j ",
". . i f s f f f f f g f f f g j #.#.#.*.#.*.*.#.#.#.#.#.*.*.j *.j j *.*.*.*.=.#.#.#.*.=.#.*.=.&.} } } } } } =.*.*.*.*.*.2.v.v.v.v.2.B C L L L L 2 . . . . . . j =.x.=.=.=.=.=.*.=.=.=.=.=.x.=.=.=.=.=.=.=.*.*.*.*.*.j *.j *.*.j *.#.#.*.*.*.*.*.j j *.*.=.v.2.2.2.c.1.*.*.j j *.j j j j j j j #.1.1.c.1.c.c.< 1 1 < < < < , . o . . o % j j j j j j =.2.v.c.v.v.2.*.%.*.*.*.*.g j j k j j j *.j j k k k j j g g g j h g h g f g j =.1.c.c.c.c.c.v.c.1.1.1.1.=.=.1.=.=.=.b C V C V V 2   .   .   .   . . . .   f k k k j j *.1.v.v.c.c.1.%.%.%.%.+.+.k j *.*.*.*.*.*.*.j j j *.*.*.*.*.j *.=.c.c.v.v.c.c.c.c.v.2.c.1.#.+.+.+.+.%.+.#.*.*.*.*.#.*.*.*.*.*.*.v 2 2 2 2 1 2 o . . .   . . f j g j j j #.=.1.=.=.=.#.j j j j j j ",
". . i f g g s f f f f f f f f g #.#.#.#.#.#.#.#.#.#.#.*.*.j *.*.*.j *.*.j *.*.*.*.*.#.*.*.#.#.+.-.-.@.@.@.} *.$.=.*.*.*.c.1.1.c.1.=.B C C L C C 2 . . . . . . g *.*.=.=.=.=.=.=.=.=.=.=.=.=.=.=.=.=.=.*.=.=.*.*.*.*.*.*.#.*.#.*.*.*.*.*.*.*.*.*.*.*.j j =.=.1.1.1.1.$.#.*.*.*.j *.*.*.*.j j j *.=.=.=.=.#.*.< < < < < < < < . . .   . % *.j *.*.*.#.=.1.1.1.1.1.*.j k j j j k g g g f g j j =.=.=.=.*.*.#.*.*.*.*.*.j f f h g j h *.#.*.#.*.=.=.*.#.#.#.*.#.#.=.*.#.*.*.A L C V C V 2           .   . . . . . f j j j j j j 1.c.v.c.1.1.%.%.%.%.+.+.*.j j k j k j j *.j j j j j *.*.*.*.*.=.x.c.1.c.v.1.1.=.=.=.$.$.#.+.+.+.+.#.+.*.*.*.*.*.*.j j j j j j p 2 2 2 2 2 1 . . . . . . . i g f h h g k *.*.#.*.*.*.j j j *.*.#.",
". . s k k k k k d i i i i i i j #.*.*.#.#.#.*.#.#.#.*.*.k j *.*.j j *.*.*.j j j *.*.#.#.*.*.*.+.1.1.1.1.1.2.=.=.=.$.$.=.*.#.#.*.*.*.B C C L C C 1 . . . . . . f *.$.=.=.=.=.c.1.=.c.=.=.1.1.1.=.=.=.=.=.=.*.#.*.*.*.=.=.=.*.#.#.#.#.#.#.#.*.*.#.*.*.*.*.#.=.*.#.*.#.#.*.*.=.=.=.=.=.#.=.#.=.=.*.*.*.j *.*.*.< < < , < < < < . . . . . ; *.*.*.#.#.*.*.*.#.#.*.#.*.j g s f g g h f f h h f j v.v.v.v.v.c.1.1.1.=.=.1.*.h f h h h f h h g g g g j g g k k k k g j f f f g z C C C N V 2           .     . . . o f g g g g g j =.=.=.=.=.c.c.c.v.v.c.c.#.g j g j g j *.*.*.j j *.*.*.*.*.*.#.#.=.*.#.*.#.#.*.*.#.*.*.#.#.#.#.#.*.=.*.=.1.1.1.=.=.j g g j j j p 2 2 2 2 2 2 . . . .   . . i h h h h f g j j g g j *.*.=.*.=.=.*.",
"    f j j j k k g f i i i i i j #.*.*.#.#.*.#.#.*.*.*.j j j j *.*.*.*.*.*.*.*.j *.k *.#.*.*.#.*.1.1.1.2.1.2.1.=.$.$.=.=.#.#.#.*.*.=.B C C C C C 2 . .   . . X f *.=.$.=.=.1.c.=.1.1.=.=.=.=.=.=.=.=.=.*.=.*.*.#.*.*.*.*.=.*.*.#.#.#.*.#.*.#.*.#.#.#.*.*.*.=.#.=.*.*.#.*.#.=.*.=.*.=.=.*.=.=.*.*.j j j j j j < < < < < < < < . . . . . ; *.#.#.#.#.#.*.*.*.*.*.*.*.g f f h f g f f h i f f j c.v.v.v.c.c.1.c.1.1.=.$.#.h f h f h f h f f f h h j j j j j k k f f f f g g Z V C C V V 2 .             . . . . o f j j j g g j =.=.=.=.=.1.c.v.v.c.c.1.#.g g j j j j *.*.*.*.*.#.#.=.*.=.=.#.#.=.#.*.#.=.#.*.*.*.*.#.#.#.*.=.=.#.=.*.=.1.$.=.=.x.j g j g g g p 2 2 2 2 2 2 .     .   . . i f h h h f f g g g j k *.=.=.*.=.=.=.",
". . f g j k k k g i i i i i i k #.%.*.*.#.*.*.*.*.*.*.j j j j j j *.j j *.*.j j j *.*.*.*.#.*.#.1.2.2.1.2.2.$.=.=.=.=.=.=.*.#.#.#.#.B C C L L L 2 . .     o . f $.=.=.=.$.1.=.1.1.$.=.=.=.=.=.=.=.=.#.*.*.*.*.=.#.#.*.#.#.#.#.#.#.*.#.#.*.#.#.*.#.#.*.*.*.#.#.#.#.#.#.*.=.*.=.*.=.#.*.*.#.*.#.*.j j g j j g < < < < < < < < o . o   . ; #.*.#.#.#.#.j j *.*.*.*.*.g f h f g g f f f f f f j c.v.v.v.c.1.c.1.1.1.1.=.#.h f f f f h f f f f f h f g g g k k g f f f g f g z C C C C V 2 .   . . .         . .   f g g g g g j *.=.=.=.=.=.c.v.1.c.v.c.#.h h j g g g j *.j *.*.*.#.=.*.*.#.#.#.*.#.*.#.=.=.*.*.*.*.*.#.=.*.=.*.*.*.#.=.1.=.=.=.=.j g j j g g p 2 2 2 1 2 1 . .   .     . i h f h f f h g g g g j *.=.*.=.=.=.#.",
".   i g g k k k g i i i i i f j %.*.*.*.%.*.*.*.#.*.*.j *.j *.j j *.*.*.*.*.j j j *.*.*.*.*.*.+.1.2.1.2.1.2.=.$.=.=.$.=.*.#.#.#.#.*.Z C I C L L 2   . . . o . s *.*.=.=.*.1.=.=.=.=.=.=.=.=.=.=.=.=.#.#.#.=.*.*.*.#.#.#.*.#.#.*.#.#.#.#.*.*.#.*.#.#.*.#.*.#.#.#.#.#.#.=.=.*.*.*.=.=.*.*.#.=.*.j j j j j g g < < < < < < < < . . .   . ; #.#.#.#.#.#.*.j *.*.j *.*.g h h j g g h f f f f f j c.v.c.v.c.v.c.1.1.1.1.c.*.f f h f f f f f f f f h h k g g g k j f f g g g g Z B C C C C 1   . . . .       . . . . s g g g g g g =.=.=.=.=.=.c.v.c.c.c.1.*.g g g g g g *.*.*.*.*.*.#.#.#.=.*.#.*.=.=.=.*.#.*.*.*.*.*.*.*.#.*.=.*.=.*.*.=.1.=.1.=.=.j j g g g g p 2 2 1 1 2 1 o .   .   . . i f f i f f h g g g g k #.*.*.=.=.*.#.",
"  . s k g k k k g p i i i f f g *.k *.*.*.*.*.#.*.*.*.*.j j j *.j j j j j j j j j j *.j *.*.*.+.,.1.1.1.1.1.:.1.$.1.$.=.*.#.*.#.+.&.B C C V C V 2 . . . . . . f *.*.*.=.=.1.=.=.$.=.=.=.=.=.#.=.#.#.#.*.=.#.#.#.*.=.*.#.#.#.#.*.#.#.*.*.*.#.=.*.*.*.=.#.*.*.#.*.*.#.+.#.#.*.*.#.=.#.#.*.=.*.#.*.g j j j j k , , , < , < < < o . . . . ; *.*.*.*.*.*.*.j j j j *.j h f g g g g h f h f h h g c.c.c.c.c.1.1.1.1.c.1.c.#.h h f h h f h h h h f f g g g g g g g g g g g g g z N V C C V <       .   . . . .   . . f g j g g g g =.=.=.=.=.*.c.c.c.c.1.1.*.g g g g g g k *.*.*.#.#.*.*.*.*.#.=.*.*.*.*.*.*.*.#.#.#.*.#.*.*.*.*.#.#.#.*.=.=.$.=.1.=.j g g g g j z 2 1 2 2 1 1 . .         . p h f f f f h g j g k j *.*.*.=.*.*.*.",
"    s d k %.k k k h i f h h h g *.%.*.*.+.*.#.*.#.#.*.*.*.j j j *.k j *.*.*.*.*.*.*.#.*.*.#.*.*.,.1.1.1.1.c.:.$.$.1.$.=.#.#.#.#.#.*.l C C C C N 2   . . . . . f *.*.=.=.*.1.1.=.=.=.=.=.#.=.*.=.*.=.*.*.*.=.*.#.*.=.=.*.*.*.=.#.*.*.#.=.*.*.*.*.*.#.#.*.#.*.*.#.#.#.#.=.*.*.#.*.#.*.*.*.=.=.*.#.j j j j g k 1 < < < < < < < o . . . o t #.*.*.*.*.*.*.k j j j *.*.g f g g g g g f f h h g f c.c.c.v.v.v.1.c.1.c.c.c.=.h f h f f h f f h h g h g g g g g g g g g g j g h z B B B V V 2   .   o .   . . . . . . h g g j j g j *.=.=.=.=.=.c.c.v.v.c.c.*.g j g d g g j *.*.#.*.#.*.*.#.*.=.*.*.*.=.*.*.*.#.=.#.*.#.*.*.#.=.=.=.*.#.*.$.=.1.1.1.1.j j j j j j i 2 2 1 2 2 < . .   . . . . i h h f f h g g j k j j =.=.*.*.*.*.*.",
"    % # # & & % % $ $ % $ % $ % % % % % % % % % % % % @ $ @ $ % % % $ % @ $ $ $ @ @ @ @ $ @ @ # { { { { | | t u t 8 8 t u 8 % # 8 # x V V L N N < . . . . . . 8 i i i i i i u y u u u t u t u t u ; ; ; u u % ; # ; # # % % % % % % % ; % % % % % % % % % % % % % % ; ; ; ; # # # u % ; u u t u - ; - - % ; > , < < < < < < o . . o . X ; ; % % % % % - % - ; % % % % % $ $ $ $ % % $ $ $ @ ; 8 8 u u u u 8 ; % u u % $ $ $ $ $ % $ $ $ % % % % % % $ % % % % % % % ; - 2 x x 2 N 2 < o o o O . . . . . . . . $ $ % % % $ % ; ; ; 8 % u u u u 8 u % % $ $ % $ $ % % % % % % % % % % # % % % % % # % % $ @ @ $ @ $ $ @ @ @ @ $ $ % % % % % % % % $ $ $ X $ = 2 1 3 < 2 , . . . .     . @ $ @ $ % @ @ $ @ @ @ @ @ % @ % $ @ $ ",
". . .   . .               . .   .   .   . . . . . . . . . .     .   . . . . . . . . . . . . . @ ] ] ] ] ] q o . . . . . .   . . . . < N N N N N <   . o . . . .   . . . . . . X . . . . . o   . . o o . .     . . o . . . . . . . . . . . . . . . O . . . . . . . o o . . . . . . . . . . . . . . o . . . . O < < < < < < < o . . . . . . . . . . . o . . . . . . . . . . X o o . . . . o . . . . o . o . . . . . . . . . .   . . . . .     . . . . . . . o . . . . . . < 1 1 < < < < = > > > > * .   .     . . . . . . . . . . .   . . . . . . . . . . . . . . . . . . . . . . . . o . . . . . . . . . . . . . . . . . . o . . . . . . . . . . . . . . . * < < < < 1 < .   .       . . . . . . . . . . . . .   . . .   . . ",
". .   . . . . . .     .   . .       .   . . . . . . . .   . .       . . . . . .   . . . . o . @ ] ] ] ] ] q . o o . . . . . . . . . < N N N N N <   . . . . . . . . . . . . . . . . . . o . . . . o . . . . o . . o . .   . . . . .   . .   . o . O . . . . . . . . . o . . . . . . . . . . . . . . . . o . O < < < < < < < o .   . . . . . . . . . . . . . . . . . . . . . . . . . . o . . o .     o . . . . . . . . . . . . . . . . . . . o . . . . . . . . . . . . . < < < 1 1 < < > > = > > *   . . . . . . . . . . . .   . . . . . . . . . . . . . . . . .     . . . . . . . . . . . . . . . . . . . . .   . . . . . . . . . . . . . .   . . . . . . O < < < < < < .         .     . . . . . . . . . .   . .   .     . ",
"    . . o .   . .     .   .   . .           . . .   . .     . . .   . . .   . .   . . . . . . # ] ] ] ] ] q . . . . . . . . . . . . , N N N N N <   . . . . . . . . . o . o . .   . . . . . . . . . . . .   . . . . . . . . . . . . . . . . . . . . . o . . . . . . . . . . . o o o . . . . . . . . . . . o * < < < < < < < o . . . . . . . . . . . . . . . .   . . . o . . . . . . . . .   . . .   . . . . . . o . . . . . . . .   .   . . . . . . . . .   . . . . . . < < < 1 1 < < > > > > > =   . .     . . . . . . . . . .   . .     . . .   . . . . . . . . . . . . . .   . . . . . .   .       . . . . . . .   . . . o .   . . . .   . . . . . . . * < < < < < < .       . .         .     .                 . . .   ",
".   .   . . . . .     . .   . . . .       .   . .   .     .   . .   . . .   .   . . . . . . . & ] ] ] ] ] q . . . . . . . . . . . . < N M N N N <   . . . . . . . . . . . . . . . . . . . . . . . . . . . o . . . . . . . . . . . . . . . . . . . . o o . . . . . . . . . . . . o . o . . . . . . . . o . o * < < < < < < < . . . . . . . . .   . . . . . . . . . . . .     . . .     . .       . .     .     . .   . . o . . .     . . . . . o   o . . . . . . o o . . < 1 < 1 1 < < > > > > > :     . . . . . . . . . . . . .   . . .   . . . . . . . .   . o . .     . .         . . .           . .   . . .     .     . . .     . . . . . . . . . . o = < < < < < > .       . .     .   . . . . . .   .             . . ",
". . . . . . . . .   . . . . .   . . . . . . . . . . . .   . .   . . . . . . . . . . . . . . . 6 ] q ] ] ] q   . . . . . . . . . . . < N N M N N < . o . . . . . .   . . .   . . .   . . .   . . . . . . . . . . . . . . . . . . . . . . . . . . . . . o . . . . o . . . . . . o . . o . . . . . . . . o o . * < < 1 < < 1 < o . . . . . . . . . . . . . o . o . . . . .   . . . . . . . .       .   . . . . . o .   . . . . . . . . . . o . o . . . . . . . . . o o . . > 1 < 1 1 1 < > > > > > * . o   . . . . . . . . . . . . . . . . . . . . . . . . . . . . . . . . . o .       . . . . . . .     .   . . . . . . .     . . .   . . . .   . . . . . . = < < 3 < 1 < . .                 . . . .     . . . . . .   . . . ",
". . . . . .   . . .   . . .   . . . . . . . . . . . . . . . . . . . .         .     . . . . o 6 q q ] ] ] e   . . . . . . . . . o O < N N N N N < . X . . . . . . o . . o . o o . . . o . o . . . . . . . . . . .   . . . . . . . . .   . . . . . . . . . . . . . . . . O o o o X O O O . X o X X O o X . . * < < 1 1 < < < . . . . . . . . o . . . . . . . . . . . . . . . o . . . . . . . . . .     . .     . . . . o o o . . . . o . o . . o . . . . . . . o . . . X > 1 1 1 1 1 < > > > > > > . . . . . o o . o o o . . . . .   . . . . . . .   . . . o . .       . . . . .         .   .         . . . . . .   . . o . . o . . . o . . . . . . o . O * < < < 1 < > . . . .   . . .       . . . .   . . . . .     . o   ",
". . o . . . . o . . . . . . o o o o O . . . o o O O o . . . . . .           . .   o X O O O O 6 q q ] ] ] 0 o o O . O . . O O O o O < N M M M x < . . o . . o . O O o o o o O X . O O . . o o o o o o o o o O o . . o O O o . . .   .   .   o o o o . o o o o . o O O O O o O O O O O O O O o O O O O O O O = < < < < < < < o o . o X O o O O o O O O O O O O O O O O O O O O O O O O o O . . . .   o .       .   . O . . o O o O o o . o o o o o . o o o O O o O o O X > 1 < 1 2 < < < > > > > = O X O O . O o o O O o o o O o O O O O O O O O O O O O O o . O . . . o . O o   .       . . o . .   . . . . o o o o o o o o o o o o o o o o o . . o O O O : < < < < < < O o . o o o o . . o o o . o o X O o o o o o o O O O ",
"T ~ ~ ~ ~ T ~ / ~ / ~ ~ / ^ ( ~ ( / / ~ ( / / ~ / / ( C . . . . . .           . O I I I I I I r ] ] ] ] ] e ~ T ~ ~ ~ T T T ^ ~ ~ ~ ~ T T T T T T I T T T T T T ~ T ~ ~ ~ ~ ~ T ~ ~ T T T T T T T T T T ~ I T I I I I I I I I > . . .     O V I I I I I T / / / ( ( / ( ( ( ( ( ^ ( / ( ( ( ( ( ( ( ( ( ( ) ~ / ( / / / / ( / / ~ ~ / ~ ~ ~ ( ^ ~ ~ / ~ ~ ~ ~ / ~ ( ( ( ^ ( ~ N N N N N M > . . . . . . .       . o > U I ~ T T T T ~ ~ T T T ~ ~ T T T ~ T T T ~ T ~ T ~ ~ ~ ~ ~ ~ T T T ~ T T T ~ ~ ~ T ~ T ~ ~ ~ ~ T T T ~ ~ ~ ~ / ~ ~ ~ ~ T ~ ~ ~ ~ T T T I V 1 1 2 1 1 >   .         . x V N N N V V V C C C C I I C I I I C I I C I I C I I I I I I T U I T T T T T T T U U I I I I I I T T T T I T T I I I T I T T ~ ",
"( ( ( ( ( ( ( ( ( ) ( ( ) ( ) ( ( ( ( ( ( ( ( ( ( ( ( T . . . . . .         .   O C C I I C C r ] ] ] ] { e ~ ( ~ / / / ^ ~ ^ ^ ~ / ~ ^ ~ ~ / / / / ( ~ ~ / / ~ / / ( ( / / / ^ / ~ ( ~ ~ ~ ~ / ~ ~ ~ ~ ~ ~ ~ ~ I I C C I C L =       . . o V I I I I C ( ( ( ( ) ) ) ( ) ) ) ( ) ) ( ) ( ) ) ( ( ( ( ) ( ( ) ( ( ( ( ( ( ( ( ( ( ( ( ( ( ( ( ( ( ( / ( ( ( ( ( ( ( ~ ( ^ ~ ~ V N N N N N < . . . o . . .   .   . . < ~ ( / / / / ^ ( ( ( ( ( ( ( ( ( ( ( ( ^ ^ ( ^ ~ / / ( ( ^ ~ ~ ^ ^ ( ( / ^ ( / / / ~ ( ^ ( / ( ( / ( ( ( ( ( ^ ^ ( ( ~ / / ( ^ ~ ~ ~ ~ T T C 2 2 2 2 2 <   .         o N L V V V V I I T C I I T ~ ~ ~ T ~ T T T ~ ~ / / ~ / ~ T ~ T / / / ~ ~ ~ ~ ~ ~ T ~ ~ T T ~ ~ T T T T T T T T T ~ T ~ T T T T T ",
"( ( ( / ( ( ( ( ( ( ( ( ( ) ( ) ( ( ( ( ( ) ( ( ( ( ( I . . . . . .         . . O I C L C C C e ] ] ] ] { r / / / ~ / ~ ( ~ ~ ^ ~ ( ~ ~ / ~ / / / ~ ~ ( / ~ ~ ~ ^ / / ( ( ~ ~ ~ ~ ~ / / ~ ~ ~ T ~ ~ ~ ~ ~ T T T U I I P I I I =         . . L I I I I C / ( ) ( ) ) ( ) ) ( ) ) ) ( ( ( ) ) ) ( ( ) ) ( ) ( ( ( ( ( ( ( ( ) ( ( ( ( ( / ( ( ( / ( ~ ~ ( ( ( ( ( ( ( ( ( ( ( ~ N N N N N N < X . . X . . .     . . . < ~ ( / / / ~ ~ ^ ( ( ( ( ( ( ( ~ ( ( ~ / ( ^ / / ~ ~ ( / ~ ~ ~ ~ ( ( ( ( ~ ~ ( / ~ ( / ( / / ( / ^ ( ^ ^ ( ^ ( ^ / ( ^ ( / ^ ~ ~ ~ T T ~ T C 2 2 1 2 1 < . .         o N V V V V V L I I I T I U T ~ ~ T T T T T ~ ~ ~ ~ T T ~ ~ ~ ~ ~ T ~ ~ T ~ ~ ~ ~ ~ ~ T ~ ~ ~ T T T ~ T T T T T T T T T T T I T T ",
"( / ( ( ( ( ( ( ( ( ( ( ( ( ) ^ ( ( ( ) ( ( ( ( ( ( ( C . X . . . .             O I C C C C N e ] ] { ] ] r / / / ^ ~ ^ ~ ~ / ~ ~ ( ~ / / / ( / / ( ~ ~ / ( ( / ~ / ( ( / ~ ~ ( / ~ ~ ~ ~ ~ ~ ~ ~ ~ ~ ~ ~ ~ T I I I I I I L V =   .     . . V I I I I I / ( ( ( ) ) ) ( ( ( ) ) ) ( ( ( ( ( ( ( ( ( ( ( ( ( ( ( ( ( ( ( ( / ( ( ( ( ( ( ( ( ~ ( ( ( ( ( ( ( ^ ^ ( ( / / ( ^ ^ V N N N N N < o . . . X .           . < ~ / / / ~ ~ ( ( ^ ^ ( ( ) ( ( ( / ( ( / ( ~ ( ( / ^ ( ( ~ ( ~ ( ~ ^ ( ( ^ ( ( / / ~ ~ / ( ^ ~ ~ ^ ^ ( ^ / / ^ / / ( ~ / / ( ( ~ ~ ~ T T T V 2 2 2 1 2 <             o N V V V V V C I I I I T U ~ ~ T ~ T ~ ~ ~ ~ ~ ~ ~ ~ ~ ~ ~ ~ ~ ~ ~ ~ ~ ~ T ~ ~ ~ ~ ~ T ~ ~ T T ~ T T T T T ~ T T T T T T T T T T ",
"( ( ( ( ( ( ( ( ( ( ( ( ) ( ( ( ( ( ( ( ( ( ( ( ^ ( ( I X X X . . .     .       O C C C C C C r q ] ] { ] r / ~ ~ / ( ( ^ ^ ~ ( ~ ^ ~ ~ ( ^ ^ ( ~ ~ ~ ~ ^ ~ ~ ~ ~ ^ ( ( ( / ~ ^ ~ ~ ~ ~ ~ T ~ ~ ~ ~ ~ ~ ~ T T T I C P L V C I > .       . . V I I I I C ( ( ) ( ( ) ) ( ( ( ) ( ( ) ( ) ( ( ( ( ( ( ( ( ( ) ( ( ( ( ( ( ) ) ( / ( ( / ( / / ( ( ( / / ( ( ^ ( ( ( / ( ( / ( ~ N N N N N N > . . . . . .     .       > ~ ~ ~ ~ / / / ( ^ ( ( ( ( ) ( ( ( ( ~ ( / ( ( ^ / / ^ ~ ~ / ( ( ^ ^ ~ ( ( ( ( ^ ^ ( / / ( / ~ ^ ~ ^ ~ / / ~ / ^ ( / / ~ / ~ ~ ~ T T T T I V 1 1 1 < < < . .         o N N V V V V C I I I C T ~ ~ T ~ T T T ~ ~ T T / ~ ~ ~ ~ ~ ~ ~ ~ ~ ~ ~ T T ~ ~ T T ~ ~ T ~ ~ T T ~ T T T T T T T ~ T T T T T T T ",
"( ( ^ ( ( ( ( ( ( ( ^ ) ) ( ( ) ( ( ( ( ( ( ( ( ( ( ( I O O O X O X . . . .   . O C I C C C B e e ] { ] ] r ~ ~ ~ / ~ ^ ^ ^ ( ^ ~ ~ ^ ~ ^ ( ^ ~ ( ~ / ~ ~ ^ ~ ~ ~ ~ ( ( ~ ~ ~ T ~ ~ ~ ~ ~ T ~ T ~ T ~ T T U I U C C C V V C V >   . o . . . C I P I I C ~ ( ( ) ) ( ( ( ( ( ( ( ) ( ) ( ( ( ( ( / ( ~ ( ( ( ( ( ( ( ) ( ( ( ^ / ( ( ^ / / ~ / ^ ( ( ^ ^ ~ ( ( ^ ( / ( ^ ^ ~ / N N N N N N > . . . . . .             > ~ ~ / / / ~ / ( ^ ^ ( ( ( ) ( ( / ^ ^ ( ( / ( ~ ^ / ^ ^ ^ / ~ T / / ( ~ ( ^ ^ ^ ( ( ~ / ~ ~ ~ ~ ~ ~ ~ / ~ ~ ( ( ~ ~ / / ( ~ / ~ T ~ T T C N < < < 1 < <         .   X m V V V N V V I I I I I T T T T T T ~ T ~ ~ ~ ~ ~ ~ ~ ~ ~ ~ ~ ~ ~ ~ T T ~ I ~ U T T I I T T T T T T T T I I I T T U Q T T T T T ",
"G F F F F F F S S S F S v A v S V.C.M.C.M.C.V.B.B.B.B.S 1 2 2 M 2 < .         . X v v v v v n e q q e q { e F F F N.N.N.N.F F S F F S S S S S S N.S N.S N.S F S S N.S F S F S S S S S S C.C.C.C.C.C.N.C.N.N.C.C.S V C I L I I > . . . o o X j b b S b v S N.N.S S S S S n.N.S S N.S S N.N.N.S S N.S N.S S S N.S S S N.N.S S S N.N.B.S S S S S S F F F S D D S A S S S S S S S b b j j j j i = > > < > > O           - b F F F F F F F F F F F G F F B.N.N.B.F F B.B.B.B.F B.B.N.N.B.B.B.B.B.N.B.B.B.B.F G B.B.N.B.B.F F B.N.F F N.N.N.F D A A A A A S N.n.3.S z.v 1 1 1 < < <             . a p i i i i h v A v v v A S S S S A A S F S S F F F S N.S S S S S S F S S S A A A Z A A A F F S S S S S S F S S S S A S F F F S ",
"j j k k %.%.*.*.k f g f f f f j c.c.c.c.c.c.1.c.c.c.1.=.2 N N N N 2 O .         X d s s r r e q q q q { { e *.#.*.#.#.#.*.#.#.*.=.#.*.#.#.#.#.#.#.#.#.*.#.#.#.*.#.#.*.#.#.*.*.%.*.*.%.*.v.v.c.c.c.c.c.c.c.c.c.v.c.I I T I I I > . . . . o X %.k k j j j *.*.*.#.*.#.#.*.#.#.#.%.#.#.*.*.*.#.*.#.#.*.#.#.*.#.#.*.*.*.#.*.#.#.*.*.*.#.*.*.*.*.*.*.*.*.j g g g g g g *.*.*.*.*.*.#.=.*.*.*.=.j x N N 2 M M O   .   .   u g g g g j j *.*.*.*.*.*.#.*.*.=.=.=.=.=.=.1.=.=.=.=.=.$.=.=.=.$.$.=.=.$.=.*.=.=.=.x.=.=.$.=.=.=.=.=.=.=.=.=.#.*.#.h h f f f h j x.=.=.=.=.h x N N N 2 2         .   X u i i i i i g j j g j j j j j *.*.j j *.*.*.*.*.*.*.#.=.=.*.*.=.=.*.*.*.*.*.h p f h i p h j *.*.*.*.#.*.*.*.*.*.j j *.*.*.*.*.*.",
"j *.k k k k *.*.k f h f f f f g v.c.c.v.1.c.c.c.c.c.1.=.M x N N M 2 O   .       . d s s s s r e q e q { ] { =.#.#.#.#.#.#.#.#.*.#.#.#.#.#.#.#.#.#.#.#.#.#.*.*.#.#.#.#.#.#.#.j k *.*.j #.c.c.c.c.c.c.c.c.c.c.c.c.c.L L I I I I > . . . . . X %.j *.j j *.*.#.*.*.+.#.+.#.#.*.*.*.*.#.*.*.*.#.#.#.*.*.#.#.*.#.*.#.#.*.*.#.#.#.*.*.#.*.*.#.*.*.*.*.*.j j h f f g g g *.*.*.*.*.*.*.=.=.=.$.=.j 2 M M M M M * . .       ; g h h j j j j *.*.j j j *.*.*.=.=.=.=.=.=.=.=.=.=.$.1.x.=.=.=.=.$.$.$.=.=.=.=.=.=.=.x.=.=.=.=.=.=.=.=.=.=.=.=.*.*.h h h f f g j =.=.=.=.=.h N B N N M 1 .           X u i u u i i g j g g j g j *.j *.*.j g j *.*.*.*.*.*.=.#.*.#.#.*.=.*.*.*.*.#.j p f h p i h j *.*.*.*.#.*.*.*.*.*.j *.*.*.*.*.*.*.",
"j k j %.#.j *.j k f f f f f f g c.c.c.v.v.c.c.c.c.c.c.1.2 N M M M M O   .       X s s s s s s q q ] { ] ] { *.#.*.#.#.#.#.#.#.#.#.#.#.#.*.#.#.#.#.#.*.%.*.#.#.*.*.*.%.%.#.%.*.k %.*.k #.c.c.c.c.c.c.c.c.c.c.c.c.c.I C I I I I > . . . . . X j *.*.j *.j %.*.*.*.%.+.#.*.#.*.%.*.*.#.*.*.*.#.*.#.*.*.*.#.+.#.*.*.*.*.#.*.*.*.*.*.*.*.*.*.*.*.*.*.*.j g h f f f f f j *.*.*.*.*.*.=.=.=.#.=.j x N N N N N O       . . # h h g g g j *.j *.*.j *.j #.=.=.=.=.=.=.=.=.=.=.=.1.$.=.=.=.=.=.1.=.$.=.=.=.=.=.1.=.=.=.=.=.x.=.=.=.=.=.=.=.=.=.*.h f f f f g *.=.=.=.=.=.h N N N N M 2 .   .       + u i i i i i h g h f h g j *.*.j j j j *.*.*.*.j *.*.*.*.=.=.=.#.*.*.*.*.*.*.j h f i i i f j #.#.#.*.#.*.*.*.j *.*.*.*.*.*.*.*.*.",
"j j k k %.%.*.*.k f s f f f f j c.c.v.c.c.v.c.1.1.1.1.$.2 N M M M M O . .       X s s s s s s e q ] { e ] { +.+.#.#.#.#.#.#.#.#.#.#.*.*.*.#.#.*.#.#.*.%.*.*.#.#.*.*.*.%.*.%.*.%.%.%.j #.1.c.c.c.c.c.c.c.c.c.c.c.c.I I I C I I > . . . . . $ *.*.*.*.*.j k *.%.%.*.%.#.*.%.#.*.*.#.*.*.+.*.#.*.*.*.%.*.#.#.*.*.*.*.*.%.*.*.*.*.*.*.*.%.k *.#.*.*.*.*.f f f f f f h j *.*.*.*.*.#.=.*.=.=.=.j N N N N N N O         . t h h j g g g j *.*.j j j *.#.*.#.=.=.=.=.=.=.=.=.=.=.=.=.=.=.=.=.=.=.=.1.=.=.=.=.=.=.=.=.=.=.=.=.=.=.=.=.=.=.=.=.*.h h h h h g *.=.=.$.=.=.h N N N N M <     .       + t i i i i i f g g g g g j j j j j j j j *.*.j *.*.*.*.#.=.*.#.#.*.#.*.*.*.*.j h i f f h f j *.*.#.#.#.*.j j *.*.*.*.*.*.*.*.*.*.",
"j k k %.%.%.*.%.k g f f s f f g c.1.v.v.c.c.c.1.c.1.c.$.M N M M N M O . . .   . X s s s s y s e q q e q q e %.+.#.#.#.#.#.+.#.#.#.#.#.*.*.*.*.*.*.*.*.*.#.%.*.%.#.*.%.#.#.%.k *.%.*.*.#.c.1.c.c.c.c.1.c.c.c.c.c.c.I I I I I C > . . . . . X *.*.*.*.*.*.*.*.%.*.*.%.%.%.*.*.*.*.#.%.*.#.#.*.*.*.+.*.%.%.*.*.%.*.k k *.j %.j *.j *.*.%.k *.*.*.j j j g f h f f h f j *.*.*.*.*.*.=.=.=.*.=.j 2 N N N N N O       .   8 h h g j g g *.*.*.*.*.*.*.*.*.*.=.=.=.*.*.=.=.=.=.=.1.=.=.=.=.=.=.=.=.1.1.=.=.=.=.=.=.=.=.=.=.=.=.=.=.*.=.=.=.*.*.f f h f h j j =.=.=.=.*.h N N N N N <     .       + t t i i i u j h j g g g j j j j j j g *.*.j j *.j *.=.*.=.*.*.#.#.#.*.#.*.*.j f i i i i i j *.#.*.#.#.*.*.*.*.*.j *.*.j *.*.j *.",
"j j *.k j *.%.%.%.f f h f f i g c.1.c.c.c.c.1.1.1.1.1.=.2 2 M M 2 M O   .       . s y y s s s e q e e q e e #.#.#.+.#.#.*.#.*.#.#.#.*.*.*.*.*.k *.*.*.*.*.k *.k j j g g k *.#.*.*.j *.*.c.1.1.=.=.1.=.=.=.=.=.1.*.L I I I I I > . . .   . X *.%.j j j *.k k j k *.k k %.%.j *.*.*.*.%.k k j *.*.k j k *.j j k k k %.%.*.k g f f h f h f f h f h h h f f g f h s g *.*.*.*.*.*.#.*.=.#.=.*.j N N M N N N * .   .     % g g g j g g *.*.*.*.*.*.j *.*.#.=.=.=.*.=.=.*.=.=.$.=.*.*.*.*.*.*.*.#.#.*.*.*.#.#.#.*.#.*.*.*.=.=.=.=.*.=.*.=.*.*.h h f f h f g *.*.=.=.*.h N x N N N <   .           % ; ; u t t f h h g f g *.j j j j j g g j g j g g j *.*.*.#.*.*.*.*.*.*.*.*.j f h h f f h h g g j j k j *.*.j j j k *.j j j j *.",
"g h j *.=.=.=.=.*.*.=.=.=.*.*.=.#.#.#.=.*.#.=.*.=.=.*.$.2 2 2 M 2 M * .       . X s s f f f f i s i s s i g #.*.#.+.*.#.#.*.*.*.*.*.k *.%.k k k j j j k k j f i i f f f f j *.*.*.*.*.*.*.#.#.#.#.#.#.#.#.*.#.*.+.I I I I C I > . .   . . $ g g g g g j j k k k k k k k k k k k j j d g k j g k k k j k j j j j g k k *.g f i i i i i i i i u i i i f k j *.*.*.*.*.*.*.*.*.*.*.*.=.#.#.#.j M N M N N N * . .       % f f f f f g *.=.=.=.*.*.#.#.#.#.#.#.#.*.#.#.#.#.#.#.#.*.#.*.*.g f f f f s f f f f h f h j *.=.=.=.=.=.#.*.#.#.#.*.*.j *.*.*.*.*.#.*.*.*.#.h N N N N M < .                   . . $ f g g g g j j *.*.*.j *.f i i i i i i g j *.*.*.*.*.j j j g j g j j j g j j j i i i i i i f *.*.*.*.*.j *.j j j j j ",
"g h j =.1.1.1.$.1.=.=.=.=.=.=.=.=.#.*.*.#.=.=.=.$.=.=.$.2 N 2 M 1 2 O .         . s f f f f s f i i i i i g *.*.*.*.*.#.*.*.*.*.%.j j j k j j j j j j k k j f i f i f i f j *.*.*.*.*.*.#.#.#.#.#.#.#.#.#.#.#.#.#.L I I I C I > . .   . . @ f g f g g g g g j j j k k j k k k g k j k d k j g g g j g k k g k k k k k k g f i i i i f i i i i i i i f j *.*.*.*.*.*.*.*.*.*.*.*.#.#.*.#.#.d N N N x N N * .       . % f f f f f h *.#.=.=.=.=.#.#.#.#.*.%.#.*.+.#.#.*.#.*.*.#.*.*.*.k f g f f f f f f h f h f g =.=.=.=.#.*.=.#.*.*.#.#.*.#.*.*.*.*.*.*.*.*.*.*.h N N N M M 1                     . . $ s g g g g f j *.*.*.*.*.f i i i i i i g *.*.*.*.*.j j j *.j j j g g j j j j j f i f f i i f *.*.*.*.*.*.j j j j j j ",
"h h j 1.=.=.=.1.1.=.$.$.=.=.=.=.=.=.*.*.*.=.*.=.=.=.=.$.1 2 M 2 2 2 O           X s s f f f f f i i i i i g *.#.*.*.*.*.%.*.*.*.*.*.k *.j j j j j j k g k k g i f i i i i g j j %.*.*.*.#.#.#.#.#.#.#.#.*.#.#.#.*.I C I C L C > . .   . . $ g f f f g f g k g k g k k j k k g k g k k g g g g g k k k j k k g k k k k k g f i i i i i i i i i i i i f j j *.*.k j *.*.*.*.*.*.*.*.#.#.#.#.g N N N N M N * .   .     ; h s f f f f *.*.=.=.#.*.#.#.#.*.#.*.*.*.#.#.#.#.#.*.*.*.*.*.*.j f f f g g f f f h h f f g *.*.*.=.*.*.*.*.*.#.*.#.*.*.*.*.*.*.*.*.*.*.*.*.h N N N M 2 1                         $ i g g g j f j j j *.*.*.h f i i i i i h *.*.*.*.j j j j j j j g g j j j j j g h i i i i i i j *.*.*.*.*.j j j j j j ",
"h h *.=.1.=.=.=.1.=.1.=.=.=.=.=.$.*.*.*.=.=.=.=.=.*.=.$.2 N 2 2 2 2 O   .       X s s f f s f f s i i i i h *.*.*.*.%.*.%.*.%.j %.k j *.j j k k j j j g k k f i i i i i i k *.%.%.*.*.*.*.*.#.#.#.#.*.#.#.#.#.*.*.I C I C L C > . . . . . $ g g g f f h g g k j g k j k k d k j d k g j g g g g j j g j g g k k k k k j k f i i i i i i i u i i i i f j j *.j j j *.*.*.*.*.*.#.#.#.#.#.*.g N N x x N N *           ; f f f f h s *.#.*.*.*.#.*.#.#.#.#.*.*.*.*.*.#.#.#.*.*.*.#.*.*.k f f f g g f f f f h h f j *.=.*.*.*.*.*.#.#.*.*.*.*.*.*.*.*.*.*.*.*.*.#.#.h N N M N 2 <                         % i g f g j h j j *.*.*.*.f i i i i p p f j j j j j j j j j j j j j j j j j j g f i i i i i f j *.%.*.%.*.j j j *.j j ",
"g h j =.=.=.1.=.=.$.=.=.=.$.=.*.*.=.#.*.*.=.*.=.=.=.=.$.2 M 2 2 2 2 O           X s s f f f f i i i y i i f *.#.*.*.*.*.*.*.*.*.k j k j j j g g j j k k k k f i i i i i i g *.*.*.*.j *.*.#.*.#.*.*.*.*.#.#.#.#.k C T I I I C = . . . . . $ g f f f g f g g d k k k g g j k g g g g g g g g g d g j g g j g k j k k k j k f i i i i i i i i i i i i f j j j j *.j j *.*.*.*.*.#.*.#.#.#.*.g N N x N x N *   .       ; i f f f f f *.#.#.#.#.=.*.*.*.*.*.*.*.*.*.*.*.*.#.%.*.*.*.*.j g f f f f f f h f h f h f g *.#.*.*.*.#.#.*.*.#.*.*.*.*.*.*.*.*.*.*.*.*.*.*.h N N x M M <   .                     % i g g g g g g *.*.j j j f y i i i i i h *.j j j *.j j g k g j g j j j j j j j f i i i i i f *.*.%.*.*.*.%.*.j j g g ",
"f g *.=.=.=.=.1.1.=.=.=.=.=.=.*.*.*.=.#.#.#.*.=.$.=.*.$.1 2 2 2 2 2 O           . f f f f f f i i i i y y f *.*.%.*.*.%.*.*.#.j %.k j j g j g k j j k k k k f i i f i i i g *.*.*.j *.j #.%.*.*.*.%.*.#.#.*.*.*.k C C C C C C > . .   . . $ f s f f g f k k j k j k k g g g g g k g g d g g g g j k k k k g g k k g g g k i i i i i i y u i i i u i f j j *.j *.*.*.*.*.*.*.j #.#.#.#.*.*.g N N N x N N *           ; f f f f f f *.#.#.#.#.=.#.*.#.*.*.*.*.k j *.*.*.*.*.*.*.*.k j g f f f f f f f f f i f i h #.#.*.*.*.#.#.*.*.*.#.*.*.*.*.j *.*.*.*.*.*.*.*.h N N N 2 2 1   .                     $ f g j f f g g j j j j j f i i i i i i f j j j j j j g k j j j g j g g j j j j s i i i i f f g *.j *.j j j j j g g g ",
"h h g *.=.#.#.#.#.*.*.j j j g j *.*.*.*.*.*.j g *.*.*.#.2 2 2 2 1 1 O         . . f f f f f f f f f f f f f g g g g g g g g g j k j k k *.k k g k k j k k k d f f f f f f g k j k j g g j j k j %.*.*.*.k k k k d C I I I I C =         . X f f f f f s g j j k g g k g g g g g g g f s d g g f i i i i y i f g g g g g g f i f f f f f f f f f f f g j j j j g j j j j j j g g g g g g g i N N N N N N *       .   % i i i i i f f j g g j j j *.*.*.*.*.%.%.%.*.*.*.*.*.*.*.k k k k f f f g g f f h h h f f g *.*.*.*.*.j j j k *.*.*.j j *.*.j j j j j j j g i N N 2 2 M 1               .       . $ u f i f f f g j g j k g g f f f f i f i f f i i i f g g g g h g g j j j g g g f f f f f f f h g j g g g g j j g g g ",
"f f g j j j j j j i i i i i f g j j j g g g g g g j k d 2 2 2 2 1 1 O           X f s s f f f g k g g g g f f s f f f s g j g j k k k j k j j j k k j j k j k j j j k j k j g g g g g f g g g g g g k k g k k k g I I I I C L > . .   . . O g f g f f g g g g g g g g g f f f d g g g f g g f f y u u t i u f g g g g g g f f g f g f f s g j j j g k g g g j d j g j k j g k g f f f s f f N N N 2 N x *     . . . % u i i u i y i i i i f f f *.*.*.*.j *.*.%.#.*.*.*.*.*.*.j *.*.j k k j *.*.g g g j j j j j g j g g g g j j j j j g j j j j j j g g g g g g p 2 x 2 2 2 < .                       $ i i i i i i h g g k k j g h j h h h i i i u i i i i g g f g g g g g g g h g g j g g g g g g g f f f g g g g f s f f ",
"f f h j j k j j g i i i i i i h j g j g g g g g g g g d < 2 2 1 1 1 O           . s f f f s f g k k k g g f f f s f f f g g j k j k k j j j k k k g k k j j k j j j j j j j g f g g g f g g g g k d k k g k g k f C C I I C C =     . . . $ g g d f f g g g g g g f g g g g g g g g d g f g f f i y u u u u f g g g f g g g f g f f f s s g g g g g k j g g g j k g g g d g g g g f f f f i N N N N x N *     . .   % i u i i u i i i i f i f f *.*.#.%.*.*.*.*.*.*.*.j k k *.j *.#.k k j k j j j g j g j j j j g g g g h g j k j j d j g j j j j g g g g g g g p x 2 2 2 2 <   . . .                 $ i i i i i i f g g j k g h f f f f h i i i i i u u i g g g f g g g g g f g g g g g g g g g g f f f f f f g f f f f f ",
"f f h j j j j j j i i i i i i f g g g g g g g g g g g s 1 < 1 2 1 1 O           . f s s s f f g g j j g j f f s s s y s g g g j k g g j k j k j j j j j j *.j g g j j k j g g g g g g g g g g g g g k k k k k k s I C I I I C = .   . . . X d g g g g d g g g g g f g f g f s f g g s g g g g f u u u u y u f g g g g f g g f g f f f f g g g g g k d k g g g j g g k j k k k f f f f f s f N N N N x N * .     . . % u u u i u u i i i i i f f %.k %.*.*.*.*.*.*.*.j k k k j j *.*.j g g j j j g g g j j j j j g h h g g g g j g g g g g j g j j g g g g j g g i x 2 2 2 2 <                         X u i p i f i f g g g g g f f f f h f f i i i i u u i f f h f h f f g g h g h g g h f g g f g g f f f f f g f f f f s ",
"h f g j j j j j g f i i i p p h g g h g g g g f g g f g 1 1 2 1 1 < *       .     s s s s s f g g g k j g f f s s s s s g g g g g k g k j j g g k k j g j k g g g g j g k g g g g g g g s f g s g g g d k g d g d L I I I L L = o     . . X g g d s f f f g g g g g f f f f f g g f g g g g d f y i u y u t i f f f f f f f f f f f f f f f g g g g f g g g g j g j j g g d k g f f f s f i M M M 2 2 N *   .   . . % u i u u i i i i i i i i f j j k j j *.k *.*.j j j j j k k k j j g g g d g g g g g g j j g f h h h f h g g g f g g g g g j k g g g g g g g i 2 2 2 2 2 <                         X y i i i i i f g g g g f f f f f f f f i i u u u u i f h f f f f f g g f g f h h g f h f g f f f f f s f f f f f f f ",
"h f g j j j j j g p i i i i p f g h g g g g g g g f f s , 1 < < 1 1 O .     . .   s s s f s s g g g g g g f s s s s s s f g g g j g g g g k g g j j k k k k g s g g j g g f g g g g g g s s g g f f d g g g g g s C I I I I L > .   . . . X g g g d f f f f g f f f f f s s s g g f g f g g f f u t t u t t i f f f f f f f f h f f f f f g f g g g f g g g k g g j j g k k g f f f f f f i 2 2 M M N M *     . .   % i u t u i i i i i i i i f k g g k *.j k k k j g k k k k k k j j g g j g g d g j g j g g g g f f f h g g g g f g g g g g g g g f g g g g g i 2 2 2 2 1 < .   .                 . X i i i i i i f f f f f f f h f f i i f u i i i u i i f f f h f f f g f f g f f f f f f f g f s f f f s f f f f s s f ",
"f f s j k *.*.*.j h p i i f h f j j j g g g g g g g g g 2 1 1 1 1 1 O .       .   f s s s f f g k d g g f f f f f f f f g g j g j g g j j j j j j j j g j j g j j k g k j g g k j g g g s k g d k k k g g d g k g V C I C L V = .       . O f f g d g g g g g g g g s g f g d j g f g g k g g f i i i i i i f g g f f g g f f f f f f f f g f g g g g g j j k g g k g g k k g g g f s f g i 2 M 2 2 2 2 * .   .   . % i t i i i i i i f i i f f j j j *.*.%.k k j j j k k j g k d k k k g k g j j k g j k j g g j g g h g h j h j j g g g g j j j j g g g g g g i 1 1 1 1 < <                       . X u i i i i i h f g f f f f h h f f f f i i i i i i i f f f f f g g g j g g f f f f f g g g f f f f f f f f f f s s s ",
"$ $ $ % % % % % % @ $ $ @ @ X @ % $ $ $ $ @ @ @ @ @ @ X O O O O O o             . X X X X @ X X X X X O X X X X X X X X X X @ X X X O X X X X X X O X O O X X X X X X O O X X X X X X X X X X X X X X X X X X X X O o o o O O .           . X X X X X X X X X X X X X X X X X + X X + X X X X X X X X X X X X + X X X X X X X X X X X X X X X X X X O X X X X X X O X X X X X X + X + X + + X o o o . O . .   . . . . X X X X X X X X X O X X X X X X @ X O O O O X @ X X X X X X @ @ X X X X X X X X X X X X O X X X X X X X X O X X X X X X X X X X X X X X X X . . . O o .                           X X O X O X X X X X X X X O X X O X X X X X X X X X X X X X X X X X X X X X X X X X X X X X X X X X X X X X X X X X ",
"  .     . . .                     . . .         .               .                                       o         . .   . . .   . .         . . .     . .   .     . . .   .     . . .   .                   .   . .     .   . .           . . .                   . . .             . .                           . . . .   . . . . .   .     .         .               .             . .           . . . .       .       .     . .   . .             . .     . .   .     o           . .     .   . .                 . .   .       . .                         .                                           .       . .                   . . . .     . .   . .   .                   .               . .   . .     . . .   ",
"            .     .                         .               . . .             .                 . .       . .             .     .   . .                         .               .         .                             .   .                 .   . .               .     . . .       . .   .     .                   .   .     .   . . .           .       .       .                                             .   . . . o     .                     .           .         .                     .         .       . .             .     .                                                                         .                   . .                   .                             .                             ",
"                                    .   . .                                       .         .                             .                   .               . .           . . .   . .             . .     .         .                     .                                   .                             . .       .       .             . . .     . .                 .       .   . .       .                       . .                         . .           .         .                                                     .                                 .                                                                     .                                                                   .           ",
"      . .                                               .                                                                                 .   .       . .                           .           .         . . . .       .                   .               .                                                 . .         .                 . . .     . . . .     .   . .   .           .   .   .                 .         . .                   . . . .                           .       .                                         .                         .                                     .                                       .               .                               .                         .   "
};
