/* XPM */
static char *e53cfce7533346a898d243237c1a02926gzFKV06U0e6wpiH[] = {
/* columns rows colors chars-per-pixel */
"275 183 256 2 ",
"   c #040505",
".  c #060807",
"X  c #050709",
"o  c #070909",
"O  c #0A0C0C",
"+  c #080A07",
"@  c #0E100E",
"#  c #0C0E11",
"$  c #050C13",
"%  c #0E1113",
"&  c #0D1419",
"*  c #121414",
"=  c #14161A",
"-  c #16191C",
";  c #1A1C1C",
":  c #181917",
">  c #111110",
",  c #1D201D",
"<  c #22211E",
"1  c #38271F",
"2  c #1C1D22",
"3  c #161C24",
"4  c #0E1821",
"5  c #1E2124",
"6  c #1D242A",
"7  c #1E2632",
"8  c #232424",
"9  c #23252A",
"0  c #25292D",
"q  c #2B2B2C",
"w  c #292927",
"e  c #34322D",
"r  c #2C2D32",
"t  c #262B35",
"y  c #2D3135",
"u  c #2D333B",
"i  c #2D373C",
"p  c #333334",
"a  c #33353B",
"s  c #34393D",
"d  c #3B3B3C",
"f  c #393936",
"g  c #312F2E",
"h  c #211E20",
"j  c #463C37",
"k  c #48372F",
"l  c #3E413D",
"z  c #46433C",
"x  c #55453B",
"c  c #343B43",
"v  c #3B3D43",
"b  c #363C48",
"n  c #2E3642",
"m  c #403E44",
"M  c #3D4144",
"N  c #3C434C",
"B  c #394349",
"V  c #3D4553",
"C  c #434344",
"Z  c #43454B",
"A  c #45494D",
"S  c #4B4B4C",
"D  c #4B4945",
"F  c #554B48",
"G  c #56534C",
"H  c #444B53",
"J  c #4B4D53",
"K  c #464B57",
"L  c #524E53",
"P  c #4D5155",
"I  c #4C535B",
"U  c #48525C",
"Y  c #535355",
"T  c #53555B",
"R  c #5B5B5C",
"E  c #595957",
"W  c #4E514B",
"Q  c #655B58",
"!  c #66564C",
"~  c #5D615B",
"^  c #64635C",
"/  c #6B645C",
"(  c #75665B",
")  c #75725E",
"_  c #4C5663",
"`  c #545B63",
"'  c #5B5D63",
"]  c #555B68",
"[  c #545D6F",
"{  c #625E64",
"}  c #5D6165",
"|  c #5C636B",
" . c #57616C",
".. c #5C6574",
"X. c #5F717F",
"o. c #636364",
"O. c #6C6B64",
"+. c #63656B",
"@. c #6B6B6C",
"#. c #686769",
"$. c #736C65",
"%. c #766C68",
"&. c #74736C",
"*. c #7B746C",
"=. c #7A7769",
"-. c #646B73",
";. c #6B6D73",
":. c #666C78",
">. c #6D7175",
",. c #6C737B",
"<. c #67717B",
"1. c #747473",
"2. c #7B7672",
"3. c #7C7B74",
"4. c #73757B",
"5. c #75797D",
"6. c #7D7D7A",
"7. c #787777",
"8. c #706E70",
"9. c #85796A",
"0. c #837C74",
"q. c #837E7A",
"w. c #887C76",
"e. c #8C7668",
"r. c #836D5D",
"t. c #7F807B",
"y. c #84837C",
"u. c #8B847C",
"i. c #8C8A7D",
"p. c #898575",
"a. c #93887C",
"s. c #94927D",
"d. c #9A947D",
"f. c #86836E",
"g. c #A1917E",
"h. c #6C7683",
"j. c #747A83",
"k. c #7B7D83",
"l. c #757B88",
"z. c #6F798D",
"x. c #827E83",
"c. c #7D828B",
"v. c #7C8187",
"b. c #7B8695",
"n. c #6F8093",
"m. c #7D8BA4",
"M. c #858582",
"N. c #8B8682",
"B. c #8C8A84",
"V. c #83858B",
"C. c #8D8D8A",
"Z. c #86888A",
"A. c #918781",
"S. c #938C84",
"D. c #938E8A",
"F. c #998F89",
"G. c #998D85",
"H. c #8F908A",
"J. c #949284",
"K. c #9A9584",
"L. c #9D9984",
"P. c #94928C",
"I. c #9A948C",
"U. c #9D9A8C",
"Y. c #979987",
"T. c #858B93",
"R. c #8B8D93",
"E. c #868B98",
"W. c #8D939C",
"Q. c #8C9296",
"!. c #959592",
"~. c #9B9691",
"^. c #979894",
"/. c #9C9A94",
"(. c #92949B",
"). c #9D9D9A",
"_. c #95999C",
"`. c #928C95",
"'. c #A19C85",
"]. c #A1968E",
"[. c #A29D8B",
"{. c #A89B87",
"}. c #A19691",
"|. c #A29C95",
" X c #A39E99",
".X c #A99E97",
"XX c #9FA09C",
"oX c #9EA195",
"OX c #9EA08C",
"+X c #A5A18C",
"@X c #A9A48D",
"#X c #A8A48A",
"$X c #A4A295",
"%X c #AAA593",
"&X c #ADAA94",
"*X c #A4A29C",
"=X c #AAA49D",
"-X c #ACA99D",
";X c #A7A99B",
":X c #B1AD95",
">X c #B2AE9A",
",X c #B0A59F",
"<X c #B5B19C",
"1X c #B7B39A",
"2X c #B0A98F",
"3X c #8B96A6",
"4X c #949AA4",
"5X c #9B9DA4",
"6X c #949CAB",
"7X c #969AA7",
"8X c #8E98AE",
"9X c #9BA3AC",
"0X c #9AA1A7",
"qX c #9BA4B3",
"wX c #9AA7B7",
"eX c #A5A5A2",
"rX c #ABA6A1",
"tX c #A7A8A4",
"yX c #ACAAA4",
"uX c #ACADAA",
"iX c #A4A6AB",
"pX c #B1ACA5",
"aX c #B2AEA9",
"sX c #B2A8A2",
"dX c #AEB0AD",
"fX c #AEB0A5",
"gX c #B4B1A5",
"hX c #B3B2AC",
"jX c #B9B4AD",
"kX c #BAB6A6",
"lX c #A3ACBB",
"zX c #A6AAB5",
"xX c #ABB2B9",
"cX c #B4B4B2",
"vX c #BBBAB4",
"bX c #B8B9B7",
"nX c #B0AFB3",
"mX c #A19FA2",
"MX c #C1BEB7",
"NX c #C3C2BB",
"BX c #9DAAC2",
"VX c #A5ADC3",
"CX c #ABB4C4",
"ZX c #A9B6C7",
"AX c #B3BCCB",
"SX c #B4B9C5",
"DX c #B0BCD2",
"FX c #B7C2CD",
"GX c #B9C5D6",
"HX c #AEC0D1",
"JX c #BBCCE1",
"KX c #C3CAD8",
"LX c #CED2D2",
"PX c #C9D5E4",
"IX c #E4E5DD",
"UX c #C0C0C0",
/* pixels */
"eXeXtXuXuXuXuXuXeXP.y.M.!.eXuXtXdXuXuXuXuXtXtXtXuXtXtXtXuXnXnXuXeXXX).^.^.^.^.^.!.P.C.C.C.C.C.C.M.C.!.!.!.!.^.).hXuX*X^.!.^.). X/.~.I.I.!./.|. X=X=X*X X|.|.|.|. X X X X X/.!.P.!.!.!./.|. X X X/. X.XrXeX X/.!./. X.XrX.X|.D.N.u.u.u.u.u.0.w.0.N.u.w.w.N.D.~.|././.|.*X=X*X/.P.S.S.S.D.D.I.I.I.I.F.G.S.A.u.w.0.D.D.S.S.S.A.A.A.w.w.u.A.S.F.}.|.F.I.I.I.I.~.~./.I.I.~.|.|./.~.~.P.D.S.S.S.P.I./././.).)./.!.P.C.B.C.P.).eX*X!.C.P.^.).).).).*XtX^.^.^.!.C.M.M.C.!.H.C.C.R.H.^.^.).).).).).).).).).^.P.C.B.M.q.3.y.M.M.M.y.q.3.3.6.6.y.y.y.y.q.6.y.y.6.3.2.&.@.O.2.*.*.",
"^.).*XeXtXuXtXtXtX^.M.M.^.tXuXuXdXdXuXuXuXuXuXuXuXtXeXtXuXnXuXuXeX).).).).^.).).).).!.C.C.Z.Z.C.C.!.).)._.).).eXhXuXeX^.P.P.^.^././.~.~././.|.*X*X*X X|././././.!.~.!.!.P.D.D.B.D.P.!././. X/./.D.!.|. X X|.!.F./. X X=X X|.!.D.S.S.S.S.i.i.i.i.S.N.N.B.D.!. X X|./.!./. X X|.~.D.I.F.F.D.D.D.D.D.D.S.S.A.i.i.u.i.i.u.u.u.u.u.u.A.A.N.S.F.~.|..X|.|. X X X X X X~.~.~.~.~.~.I.I.I.I.D.D.D.I././. X). X X).).^.^.D.C.D.!.).).^.P.!.^.).).^.).).eX^.).).^.C.C.C.P.^.H.C.C.C.H.^.^.).).5X0X0X0X0XeX).^.P.M.3.1.&.&.3.6.y.M.M.y.6.3.3.3.6.q.6.3.3.1.1.1.&.&.&.&.&.&.&.&.&.",
"C.!.^.).eXeXeXeXuX).C.C.^.eXhXcXnXdXnXuXuXuXuXuXuXtXeXeXuXuXuXtX).).).).).).eXeXuXeX^.C.M.M.Z.C.^.).eXeXmXeXtXuXhXtX*X^.P.P.P.P.|.|./././.|.*X*X X|.|.|././.!.I.!.P.D.B.N.N.y.y.B.D.P.!./.!.!.P.B.D.D.!.I.D.D.S.~./.|. X X X/.~.I.I.I.D.D.D.D.D.D.D.D.I.~.|. X X|.I.P.P./. X X|.I.I.I.I.F.D.S.S.S.A.A.A.A.A.S.S.0.0.0.0.0.0.w.w.A.A.A.G.I.}..XrXrXrXrX=X=X=X*X X|.|.|.~.I.I.I.I.~.I.I.I.~.|.|. XeX*X*X X X*X*X*X!.D.Z.Z.D.!.!.!.!.^.).^.!.!.^.).^.).).).^.!.!.^.)._.!.C.C.H.^.).).).XXeXeXeXtXtX).^.C.6.#.R ^ O.&.1.6.y.M.y.6.3.3.3.6.3.3.1.&.&.#.#.o.o.#.@.&.2.&.*.*.",
"Z.C.^.).eXtXtXeXtX).!.C.!.*XuXcXnXnXnXnXnXnXnXnXtXtXeXeXtXuXtXeX).).).).).eXtXuXuXeX^.C.M.M.C.!.).eXtXtXeXeXtXuXeXeXXX^.!.P.P.P./.~.~././. X*X=X X X X X|.|./.!.!.P.D.N.N.y.q.y.N.B.D.!.!.D.D.S.N.B.S.S.B.N.q.q.D.D.F.!.~././.~.I.I.I.P.D.I.I.I.I.~.~././././.!.I.P.D.P./. X X|.I.I.I.F.F.D.D.D.S.S.A.i.u.i.i.a.0.0.0.0.0.w.u.u.G.G.F.F.}..X=XsXsXrX-X=X=X X|.|. X X|.I.I.I.D.I.|.|.|.|. X X*X=XtX*X X).). X*XtXP.C.y.6.q.N.P.!.!.!.^.!.C.C.C.C.^.).).).^.^.^.).tX0X).^.!._.).0X).).).XX0XeXeXeX).^.C.1.E W Y Q #.@.3.y.M.M.y.6.q.y.y.q.6.1.&.@.O.#.o.^ O.@.1.3.0.0.0.",
"C.P.).eXtXuXtXtX*X).^.!.!.).tXhXcXcXcXcXcXcXcXcXuXtXeXeXtXtXtXeX).).).).).eXtXuX*X).P.C.Z.C.!.).5XeXtXtXeXeXtXuXXXXX).).^.!.P.D.P.D.P.P.~.|.=X=X*X=X=X=X=X*X|./.!.!.P.D.D.B.B.B.N.B.D.D.D.D.B.B.S.S.B.N.u.q.0.2.N.N.S.D.D.F.I.I.D.D.S.S.S.D.I.I././.~.!.F.D.S.B.B.C.P.^. X X/.I.D.D.D.D.D.F.F.F.D.S.i.w.0.0.0.w.0.0.0.w.u.i.S.S.I.F.I.~.}. X=XsXsXsX-X=X=X X X|. X|.~.I.D.D.D.P.|.|. X=X=X=X=X=X*X*X).^.^.^.).*XD.Z.q.2.1.6.Z.P.C.P.!.C.M.M.M.M.!.^.).).).^.^.^.uXtX0X).).0XtXuX_._.).).).).).).^.!.C.1.R G Y ^ o.@.1.6.M.M.M.y.M.M.N.M.y.6.3.1.1.&.@.O.@.&.3.q.w.w.w.",
"C.!.).tXuXuXtXeX^.).).).!.^.eXuXcXcXcXcXcXbXbXbXnXuXtXtXuXuXtXeX).^.^.).).eXtXtX).^.P.C.P.^.).eXeXtXiXtXeXeXtXuXXX*X*X*X).!.H.B.y.y.u.B.P./.*X=X*X=XrXrXrX=X|././././.|./.~.P.D.D.D.C.B.B.B.B.B.D.D.S.N.u.q.q.0.u.N.D.D.F.F.D.D.S.S.i.u.i.S.D.I./.~.F.D.B.N.N.y.B.B.P.^.|.|.I.S.N.N.A.S.S.D.D.F.D.S.u.0.*.*.9.0.0.0.u.i.S.D.I.I.}.}.}.}.}.|. X.XrXrXrX-X-X=X*X*X X|.I.D.D.D.I.I.|. X X=X=X-X=X=X*X X).^.!.!.!.!.B.Z.y.6.3.3.M.C.C.!.!.C.Z.M.M.C.!.).*X*X).^.!.!.eXeXeXeXeXtXuXuX).).).)._._._.^.!.!.C.3.#.^ o.@.O.&.1.3.y.M.Z.Z.B.Z.Z.B.N.y.6.6.6.6.3.1.1.3.6.y.q.0.0.",
"C.^.*XtXuXuXeX).!. XtXtX).).eXuXcXcXcXbXbXbXbXbXcXnXuXuXuXuXtXeX).).^.^.).).eXeX).).).).).eXtXuXtXiXuXuXtXtXtXuXtXtXtXtX*X!.Z.y.&.*.3.w.B.I. X=X X*XtXrXrX=X|.~.!./. XtXtX*X X!.P.D.B.N.N.N.B.D.D.D.S.S.S.S.S.S.N.S.F././.~.D.S.S.i.u.0.u.i.D.I.I.D.S.N.q.N.N.N.D.S.D.P.~.!.P.S.N.N.N.N.N.A.A.A.i.u.0.*.%.*.*.0.0.w.u.A.G.I.}.|..X.X}.}.}.}.}.|. X.X X.X=X*X*X X|.~.I.D.S.D.I.~.|.|. X=X-X-X=X*X*X*X*X).^.!.D.C.B.C.C.Z.y.y.N.C.!.^.).^.P.C.D.!.).*XtXtX X^.!.!.^.).*XtXuXuXuXuX*X).).).^.^.^.!.!.P.C.M.6.3.3.3.&.1.1.3.q.M.C.P.N.Z.Z.B.Z.N.M.y.6.6.6.q.q.y.y.y.y.y.w.",
"C.^.*XtXuXtX).^.!.eXaXuXeX).eXuXcXcXcXbXbXbXbXbXbXcXuXuXnXuXuXeX).^.^.^.^.).).*X*XeXeXeXtXtXuXuXiXuXuXuXuXiXuXuXhXhXhXuX*XP.y.3.O.O.&.3.u.P.|.=X|. X=XtX=X X/.I.D./.eXpXaXrX X/./.P.B.y.y.N.D.D.S.S.S.D.D.I.~.~.S.D./. X X|.F.S.B.i.u.0.u.i.D.I.D.S.u.w.q.N.D.D.!.P.S.S.P.P.P.S.S.B.N.i.u.u.u.w.0.0.*.%.%.*.9.0.0.w.u.S.F.I.|.|..X.X|.}.I.I.I.I.I.I.I.~.~.|./././.I.D.S.S.P.~.|.~.|. X=XrX-X=X XeXeXeX*X).!.C.Z.C.P.^.!.C.Z.B.D.^.).).).^.!.^.).*XtXuXuXtX).^.!.C.!.).tXuXuXuXtXtXeXeX).).).^.!.!.P.C.B.Z.Z.N.M.3.3.2.3.6.M.C.!.y.M.Z.Z.Z.Z.M.M.3.3.6.y.y.M.M.M.B.N.N.",
"C.^.eXuXtXeX).).eX).*XdXcXhXuXcXcXcXcXbXbXbXbXbXcXuXuXuXnXcXcXnXtXeX).^.^.^.).).uXtXtXtXtXtXuXuXuXuXcXcXuXuXeX*XeXtXdXdXtX^.Z.q.y.3.*.3.B.~. X*X*X|./.|. X X!.D./. XtXrX*X X*XeX/.!.D.N.q.q.q.q.0.u.D.I.P.D.I.|.I.I.I.I.I.D.S.N.i.i.u.u.u.S.D.I.F.D.S.S.B.S.D.D.P.P.P.S.u.y.w.y.y.0.0.u.S.S.i.w.0.w.w.w.0.0.9.*.%.*.0.u.S.I.|. X}.}.I.F.D.S.N.u.N.A.S.D.D.S.B.B.S.I.~.|. X|.I.D.P.I. X=XrX=X|.~. X*XtXtXtX*X^.!.Z.M.M.C.!.!.P.B.C.P.!.^.).).).^.^.).eXtXtXeX).^.C.C.C.C.P.).eXyXtXeX*X*X*XXXXX*XC.Z.N.M.N.C.P.!.P.y.3.y.M.y.M.C.M.M.M.C.P.D.M.3.&.&.&.1.3.6.y.N.B.B.u.",
"M.C.^.^.^.!.!.^.^.C.!.eXuXhXhXcXcXcXcXcXcXcXbXbXbXnXuXuXnXnXuXuXeX X).^.^.).).*XtXeXeXeXeXtXuXuXuXuXuXdXcXuXuXtXeXtXyXyX*X^.C.M.u.y.y.B.!.*X=X*X*X X|.|.*X*X/.P./. XeXeX X X X XP.D.N.q.3.3.q.q.2.u.S.I.I.I./. XI.D.D.S.N.i.u.u.u.u.u.u.i.S.I.I.D.D.S.N.N.N.B.B.D.P.P.S.u.0.3.3.u.y.w.N.D.I.D.A.S.S.D.D.S.S.i.i.*.*.0.u.D.I.|. X}.}.I.F.S.A.A.N.u.N.S.S.S.S.B.N.D.I.|. X X|.I.D.S.D.I.~.|. X X X*XeXtXuXtXeX X^.C.B.B.P.!.!.C.M.y.M.C.!.^.).).^.).).*XeXeX).).^.P.C.M.y.y.C.!.).).).).).).).)./.P.C.B.Z.C.P.!.^.^.B.M.Z.C.Z.Z.P.Z.Z.Z.C.C.B.M.q.6.3.&.&.&.3.y.M.N.y.y.",
"!.!.!.!.C.P.^.).!.M.M.P.tXcXcXcXbXbXbXbXbXbXbXbXbXcXnXuXnXuXtXeXeX).^.!.^.^.).*X).).).).*XeXuXuXtXiXuXdXcXcXaXuXtXtXtXeX*X^.P.P.S.S.P./.*XrXrX=X=X*X*X*X=X*X|.I./. XeX=X X/./. XD.D.N.y.q.q.N.N.u.i.D.P.D.D.J.I.S.i.w.0.*.*.*.*.0.0.u.B.D.I.I.I.D.D.S.N.q.q.q.y.B.S.P.B.y.2.&.%.u.u.i.S.I.~.I.I.I.I.I.}.}.].I.I.0.0.u.A.D.I.}.|.}.}.F.A.A.A.A.A.i.N.S.S.S.B.N.u.I.~.|. X|./.I.D.N.S.S.D.I.|.=XtXeXtXyXuXaXyXtX*X!.!.!.^.^.!.Z.y.7.6.N.!.).).).).).).).).).).).^.!.C.6.&.@.&.6.y.B.C.!.^.^.^.!.!.!.P.P.P.P.!.^.^./.P.B.C.P.C.Z.B.B.C.P.C.Z.N.N.Z.Z.y.2.&.&.1.6.y.y.q.3.",
").).^.C.C.!.*XuX*XC.M.C.eXcXbXbXbXbXbXbXbXbXbXbXcXnXuXuXnXnXuXeX*X).^.P.C.C.!.^.).).).).*XtXuXuXuXuXuXuXuXdXaXhXtXeXeX*X).).^.^.I.I.~.|.*X=XtXrX*X*X*X=X=X*X|./. X*XrXtX X X X X X/.P.D.B.B.D.D.D.D.I.D.S.i.u.0.u.0.%./ Q Q / / *.0.u.D.I.I.~.~.!.I.D.S.B.N.N.y.q.y.N.u.3.&.$.$.w.u.N.D.I.~.}.~.F.I.I.|.|.|.}.I.S.S.S.S.D.D.D.F.G.A.N.w.w.N.S.S.S.S.S.D.S.S.N.u.~./.|.|.|.~.I.P.S.S.S.D.I.|. X*XtXtXyXaXaXaXyXtXeXeXtXtX*X^.C.M.6.M.P.).eXeXeX*XeX*X).).).^.).).^.C.3.O.Q ^ #.&.3.y.Z.P.P.P.C.B.!.!.^.^./.^.^.^.!.D.B.C.C.B.M.y.B.P.P.C.M.y.B.D.P.B.y.6.3.3.q.y.y.0.3.",
").^.!.C.C.!.eXhXcX*XC.C.eXcXbXcXcXcXcXcXcXcXcXcXuXuXuXuXcXcXuXtX X).!.C.M.M.Z.C.).).).). XtXuXuXuXuXuXuXuXuXuXuXtXtX*X*XXX).XX)././.I.I.I./. X=X|. X*X*X X/.~.!. XtXpXpXtX*X*XeXrX*X/.P.D.D.D.D.D.D.D.S.S.u.0.0.0.*./ Q G G Q ^ *.0.S.I. X X X|. X X|./.~.F.D.S.2.3.q.0.*.&.$.$.0.w.N.S.D.I.I.I.I.I.I.|.|.|.|.I.}.I.I.D.S.i.u.w.0.0.0.0.w.u.S.D.D.D.D.D.D.S.N.N.I.I.~.~.~.I.I.I.D.I.I.~.~.~.I.I.*XeXtXyXuXaXuXuXhXhXcXhXtX X!.P.!.^.eXtXuXuXtXtXtXeX*X).).).).).^.C.3.#.Q R ^ ^ &.1.q.N.B.B.N.M.!.!./.).).^.!.P.D.D.C.C.D.C.M.3.N.C.D.C.M.M.B.P.P.P.P.C.B.Z.M.y.M.y.y.",
"!.!.!.D.!.).tXcXbXcX).!.).hXcXuXtXtXtXtXtXtXuXuXtXtXtXuXcXcXuXtX).).P.C.M.M.M.M.^.^.^.^.).*XeXtXuXiXtXeXtXtXtXtXtXtXeX*XXXXX).)./.!.P.S.N.B.I.|.I./.|.|.!.P.P.P. XeXpXpXyXrXrXuXrX*X/.P.D.B.B.B.S.S.S.D.I.I.S.i.u.0.%./ Q / / $.0.u.D.|.=X=X=X=XrXrXrXeX=X X X/.w.y.y.3.*.&.&.&.2.w.N.S.S.S.F.I.}.|.|. X.X X|.|.|.|.I.D.i.w.0.*.*.9.9.0.w.u.A.S.D.D.D.D.D.S.u.u.D.D.D.I.I.I.I.I.I.~.~.~.I.I.D.S.).). X*XtXtXuXuXcXbXbXhXyX*X*X XeXtXuXuXuXuXuXuXuXtXtXeXeX).).^.!.P.M.3.&.#.o.o.@.&.2.6.y.y.y.y.D.!.^.).).!.D.Z.B.P.P.P.!.!.Z.3.6.y.N.Z.Z.Z.C.D.P.P.!.^.!.!.D.C.C.C.B.",
"y.M.C.P.!.).tXuXbXcXeX!.!.eXtXeXeXeXeXeXtXtXtXtXtXtXuXnXcXcXtX0X).^.P.C.C.C.H.!.!.!.P.P.!.!.).).eX).).).XXeXtXuXyXtXtXeX*X)./.^.P.P.P.S.u.u.B.D.S.P.!.I.S.B.B.S./. XrXyXrXyXuXaXrX*X).!.D.D.D.P.D.D.D.I.|. X|.I.I.S.u.0.0.0.0.u.i.S.I. X-XrXsXsXpXpXaXaXpXrXrX*X~.I.D.y.2.&.*.2.0.u.S.D.S.A.S.F.|.|. X.X X|.}.I.}.I.F.S.u.0.9.*.9.0.w.u.A.A.i.u.A.S.S.S.N.u.0.0.i.i.N.S.D.D.I.I.|.~.I.D.S.S.S.B.P.!.!./.*XeXtXyXhXcXcXuXeX*XeXyXuXtXtXtXtXtXuXuXuXuXuXuXtXeX).^.P.P.P.D.N.q.&.&.&.&.&.2.3.3.q.q.Z.C.!./.^.P.Z.y.y.Z.D.D.P.!.Z.3.1.2.6.M.C.P.C.Z.C.P.P.!.!.^.^.^.^.^.P.",
"#.&.6.M.C.P.^.).hXuX).C.C.^.*X).uXuXuXuXuXuXuXuXuXuXuXnXcXuXeX).^.!.C.C.P.^.).).D.C.C.C.C.C.C.P.)._.^.).).tXuXuXyXyXtXtX*XXX^.!.B.P.I.P.N.y.y.N.N.S.I.P.B.y.u.N.I./.*XrXtXrXuXaXyXtX X/././. X X|.~.~.|.=X-X X/.*X|.~.I.D.P.I.~.D.I.|.*XrXyXpXpXpXpXaXaXaXpXpXtXpXtX/.B.3.*.*.3.w.N.D.D.S.A.S.F.|.|.|.|.|.I.I.F.I.F.S.A.u.0.9.9.0.w.A.S.D.A.u.0.u.u.u.u.u.0.0.*.w.w.u.i.S.D.I.I.|.I.S.u.y.u.S.D.D.D.P.!./.*XtXtXuXhXuXtX*X*XtXhXtXeX).).).eXuXuXuXuXhXcXuXtX).!.C.P././.!.B.q.2.&.&.&.&.2.3.3.q.M.B.P.^.!.C.y.6.1.y.B.Z.C.P.M.&.&.&.2.y.D.P.D.N.D.C.D.D.P.^. X*X*X).^.",
"#.&.6.y.y.Z.P.).eXtXeX!.M.Z.*XbXuXuXuXuXnXcXcXcXeXtXuXdXuXeX_.!.M.C.P.D.P./.).!.P.Z.M.C./.*X X!.!.!.!.^.).tXuXcXuXuXuXuXtXeX X).^.P.P.C.N.y.y.y.B.C.B.i.y.y.u.B.P.I./. X*X*X X|.I.I./.|.*XrXpXaX X*XrXrXtX*X X X*X=XtXrXrXeX*X XeXtXtXrXyXpXpXaX*XtXpXhXjXaXrXeX*X|.~.F.D.D.N.q.q.u.B.D.F.I.I.F.~.}.~.F.D.S.S.A.A.u.w.0.0.9.0.w.S.G.S.G.S.S.a.a.u.0.9.9.0.0.0.*.0.u.i.S.I.I.}.|.S.u.0.0.w.u.u.u.D.P.!./. X X/.^.aXpXtX*XeXeXtXtXuXtX X!.P.P.!.^.tXtXtXyXuXtX).!.!.!.^.^.^.!.P.P.M.6.&.&.3.y.y.q.D.P.!.!.!.P.D.C.!.Z.y.y.Z.C.y.3.Q ^ &.0.S.P.P.S.I.P.I.P.I.P.I.P.!.!.!.",
"1.3.y.M.M.M.Z.Z.XXeXeX^.Z.M.^.yXtXtXuXuXuXnXnXcXnXnXuXuXtX0X).^.C.P.P.C.P.^. X/.^.P.B.P./.*X X!.^.^.).).*XtXuXaXuXuXuXuXtXeX)./.P.P.P.P.P.P.P.C.P.P.P.J.B.B.J.P.P.I.|. X*X|.~.I.P.I.~.|.*X=XrXpX*X=XtXtXeX X X XeXrXyXpXaXaXaXpXtXtXrXrXyXpXaXaXtXtXyXyXyXeX X X.X|.~.~.!.I.D.N.w.u.B.D.D.D.D.S.D.D.D.D.S.S.S.S.A.A.u.w.w.w.p.u.S.S.S.G.S.S.S.S.S.i.u.w.u.u.p.0.u.u.S.D.I.}.|.|.D.S.i.i.S.S.a.u.B.B.B.S.D.P.!./.tXeX*X*X*XeXeXeXtXeX X^.!.!.!.!.*X*X*XeXtX*X!.D.P.!.^./././.!.!.P.Z.y.y.M.C.C.B.!.!.^.^.^.!.!.!.^.P.N.N.C.C.M.3.^ / O.*.y.B.B.N.P.P.P.P.P.P.P.P.!.!.!.",
"3.t.M.H.!.P.B.M.^.XXeX).C.Z.H.^.tXtXtXuXuXuXuXuXbXcXnXtXeX0X).).!.!.C.M.Z.!. X X*X!.D.P.^.).).!.).).eXeXtXtXtXtXtXuXuXuXtXeX*X).!.^.).$X*X)./.^.^./.).^.P.P.^.oXI.~./.|.|.!.P.S.P.P.I./. X*X=XtXtXtX*X*X X X*X*XeXtXyXaXaXaXaXaXtXtXtXrXrXyXuXuXtXtXtX*X X X/.^. X|.I.I././.I.D.w.u.S.D.D.S.N.u.N.N.N.A.S.S.S.S.S.S.a.a.a.a.S.G.G.G.G.G.G.G.G.G.D.S.a.a.S.G.S.a.a.S.D.I.I.|. X.XI.I.I.I.I.I.A.u.u.w.0.3.q.N.P./.).). X*XeXeXeXeXtXeX*X)./.^.^.^./.^./.). X).P.B.P.!.^.). X). X).*X/.!.P.!.^.).).*X*X X).).).). X*X/.P.P.P.P.Z.y.&.O.O.&.2.y.u.u.D.D.D.D.D.D.D.P.!.!.!.",
"6.t.Z.^.eXeX/.P.P.).tXeX^.C.C.P.tXuXuXuXuXuXuXuXbXbXcXuXtXeX0X).!.P.Z.6.6.C./. X).!.B.Z.P.^.)./.eXeXtXuXuXuXtXeXeXeXtXuXuXuXtXtX*X*X*X*X$X).^.^.).*X*X)./.).*X;X|.|./.!.I.P.D.D.P.P.I./.|. X*X=XyXtX X X X*X=X*X X*XtXrXrXrXrXeX*X*X*X*X*XeXeXeXtX*X X X/./././.I.I.D.I.~./.~.I.w.i.S.I.D.S.i.y.N.N.N.A.S.A.S.A.S.S.D.G.G.K.I.I.].I.K.G.a.a.a.a.u.u.u.a.G.I.I.G.D.D.F.I.I.|.|. X}.].I.I.I.D.A.i.u.w.0.0.q.B.!. X!./. XtXtXtXtXtX*X*X*X*X*X X)././.^.^./.).).!.D.!.^./.).*X*XeXeXuXtX*X).).*XeXeXtXtX*X*X*X*XeXtXyX*X/.^.^.!.C.M.3.*.$.$.*.q.u.B.S.S.S.S.S.S.S.S.!.!.!.",
"6.t.B.!.*X*X^.H.C.^.eXtX*X^.P.P.uXuXdXdXnXnXnXnXcXcXcXnXuXeXXX).!.P.y.&.1.N.!./.P.B.y.y.Z.P.).*XtXuXuXuXuXtXeX*X). XeXtXuXuXuXuXhXuX*X/.P.P.C.H.).*X*X*X).).*XyXrX=X/.P.S.D.I.~.I.I.!./.|. X*X*XpX=X|.|. X=X=X X*X*X=XeX*X X/././././././.~.~.~. X X|.|./.|. X XS.N.i.S.D.I.I.D.u.N.S.D.P.S.N.u.A.A.A.S.S.A.A.A.G.G.G.I.I.I.I.I.I.G.a.w.9.*.*.*.*.*.9.u.G.].].I.I.I.F.D.D.F.I.I.}.I.I.S.A.i.i.S.u.u.B.S.P.~. X X!./.*XtXuXuXuXuX*X*XeXeXeXeX*X*X*X X). X*X*X).^.).). X*X*XtXtXyXuXyXeX*X). X*XtXuXtXtX*X*XeXtXyXuXeX*X).^.!.D.Z.B.q.*.&.2.y.S.D.S.S.S.S.S.S.D.S.!.!.P.",
"M.M.M.Z.Z.M.y.6.M.P.).eX*XXX).).cXcXcXnXnXnXnXnXuXdXdXuXuXtX0X).^.P.y.&.&.M.!.^.D.Z.q.6.y.C./.eXuXuXuXuXuXtXeXeX).).*XeXtXtXtXeXuXtX*X^.P.C.B.i.$X*X*X*X*X*XtXgXgXrX X!.P.I.|. X~././.|. X*X*X=XpX*X|. X=XtX*X|.*X*X*X*X X/.!.P.I.I.P.P.D.D.D.D.!././.|.|.|.|./.u.w.0.u.B.D.S.S.u.u.N.S.S.S.B.N.A.A.A.A.A.A.a.a.G.G.I.I.I.I.K.G.i.w.9.$./ / / / $.%.9.a.I.|.|.].|.I.D.A.i.i.A.S.F.F.S.u.0.0.u.S.N.D.I.|.*X*X X X). X*XtXuXuXaXaXeXeXeXeXeXtXtXtXtXeX*XeXtXtXtX*XeXeX*X*XeXtXuXuXtXtXeX).^.^.).*XtXtXeXeXeXeXeXtXeXeX*X).^.P.P.C.P.N.3.2.0.N.P.I.D.D.D.D.D.D.D.P.P.P.P.",
"P.H.Z.6.&.@.@.@.6.M.P.^.).*XeXtXnXnXdXdXuXuXuXuXuXuXtXeXeXeXeXeX).!.Z.3.3.Z.!./.!.C.y.6.6.Z.^.eXuXuXtXtXeXeXeXtX).).).).).^.!.P.P.^.).).).P.C.y.*X*XtX;X*XtXuXhXaXpXrX=X*X*X*X*X|.|.|. X*X*X=X=XrX X/. XtXyX X!.~.~./.~.!.P.D.B.I.I.P.P.D.D.D.S.P.!.~././.!.P.D.w.0.0.0.i.S.B.i.0.0.0.0.0.u.i.i.w.w.w.u.u.a.a.a.S.G.K.I.K.G.a.a.0.9.%./ / / / ( *.9.u.G.|.%X.X|. X].S.u.0.9.0.0.u.A.S.i.w.0.u.a.S.I./. X=X*X X|. X X X*XeXtXuXuXtXeX*X*XeXtXaXhXuXtXeXtXuXuXuXtXuXtXtXeXtXtXuXaXeXeX*X^.P.P.^. X*X*XeXeXeX*X*X*X).).).^.!.P.D.D.P.N.0.3.y.S.I.~.P.P.P.P.P.P.P.P.P.P.P.",
"/.^.B.3.#.^ #.&.3.6.M.H.^.*XtXhXuXuXuXuXuXtXtXtXuXtXeX).).0XtXuX)./.C.6.6.C.^.).).!.Z.q.6.Z.^.eXuXtXeXeX*XeXtXtX).).).^.P.Z.y.6.y.B.^.*XtX$XP.B.*XtXyXyXtXuXhXvXrXpXaXaXaXrX=X*X X X*X*X*X=X=X=XtX X/. XyXyX XP.N.B.S.S.S.B.N.N.!.!.!.P.P.D.D.D.D.P.!.~.!.D.N.w.u.0.0.0.i.S.i.u.*.*.*.*.*.0.u.i.9.9.0.w.u.i.a.S.S.D.G.K.G.S.i.p.w.9.*.%.$.%.*.9.u.i.D.].=X,X=X|..X].S.w.*.*.%.*.0.u.S.S.i.w.u.u.D.I.~.|. X X|./. X X).).).eXtXuXtXeX*X*X*XtXhXbXuXtXtXtXuXhXaXuXhXuXtXtXtXtXuXaX*XeX*X^.P.D.!.).).*X*XeXeX*X)./.^.^.^.!.P.D.D.P.D.u.0.3.y.S.I.!.I.I.I.I.I.I.I.P.P.P.P.",
"/.).^.M.1.@.1.y.&.3.M.P.).*X*X*XeXuXbXbXbXnXuXtXtXtXeX).).).eXeXeX!.M.y.Z.!. X*X!././.D.y.6.Z.!. XeXtXtXtXeXtXuXuXuXtX X!.M.1.#.^ &.H.*XgXuX*XI.*XtXhXhXgXuXpXhXpXpXpXpXrX=X*X|.|.~.~.|.=XrX*X/.P.P.I.|.*X X!.D.2.3.3.0.y.u.B.S.D.D.S.S.B.B.S.B.D.D.D.N.u.0.u.i.w.0.0.0.0.0.0.0.*.*.*.*.*.*.*.%.( $.%.*.9.w.a.G.S.S.a.a.a.i.i.a.a.a.u.p.u.i.a.S.I.].|..X=X=X%X%XI.I.S.A.i.i.A.S.S.S.D.G.I.I.I.I.|. X X X*X*X=X=XtX*X X X).).*XeX*X*X*X*X*X*X*X*X X).).).*XtXuXhXbXhXtX*X X*XtXyX/. XeXtXtX*X/.!.).).).).*X*XeXeX*X X).^.!.!.P.P.0.u.u.3.3.B.I.~.P.P.P.!.|.|./.P.!.!.!.",
"/./.!.M.1.&.6.Z.2.6.M.B.H.P.^./.tXuXcXcXuXuXtXtXtXeXeXeXXXXX0XXX).P.y.y.C.^.).).*XeX*X!.Z.y.N.C.*XtXuXuXtXeXtXtXtXtXeX X^.C.q.2.&.3.P.*XuXtX).P.*XyXhXhXgXyXuXpXrXpXpXpXrXtX=X X=X X X*XrXrX=X|.I.I.~. X*X*X/.P.w.y.y.u.N.B.S.S.D.S.i.w.w.w.u.u.u.u.u.0.2.2.0.0.u.u.y.0.0.0.0.0.0.0.*.*.%.$./ / ! ! Q ( %.0.a.G.S.S.S.S.S.S.D.D.].I.I.K.K.I.I.I.].].|..X|.|.].I.G.G.D.F.I.I.].}.}.}.}.].|.|.|.|.|.|.|.|. X X*X=X*X*X X).).). X*X). X*X*X*X*X X).)./.^.^.).*XtXuXcXhXyXeX*X*XeXtX).*XeXtXtX*X).^.*X*X*X*X*X*X*X X*X X).^.^.!.P.P.y.N.u.2.*.u.P.I.P.P.P.I././.I.P.!.!.!.",
"!.P.Z.6.@.@.3.M.t.M.Z.M.y.y.B.P.tXtXuXtXeX0XeXeXeXeXeXeX0XXX).).!.Z.y.M.P./.)./.eXeX*X/.!.P.D.D.).eXuXuXtXeXeXeXeXeXeXeX X^.D.B.M.C.^.*XtX*X).^.;XuXhXhXuXtXtXuX=XtXrXrXrXrX=X*XyXrXrXrXpXrX=X XI.U./.*X=X=X|.I.B.B.S.S.S.S.B.B.S.u.0.*.%.%.*.*.*.*.*.%.$.%.*.0.i.i.i.u.u.u.p.p.i.u.0.*.$./ Q Q G G G ! / $.9.u.a.a.G.G.I.I.].]..X.X.X.X|.|.].I.|.|.|.].I.G.S.a.u.i.D.I.|. X=X=X=X=X X X|.|.|.].|.|.~.~./. X X=X X X X).). XeXeX/.).*X*XeX*X).).^.^.^.^.).*XeXtXuXuXyXtXeXeX*X*X*XeXtXtXtXeX*X).tXtXeXeX*X X).). X).)./.^.!.!.P.D.S.u.2.&.0.B.P.I.P.P.I.~.~.P.S.!.!.!.",
"H.Z.6.@.^ ^ @.3.Z.H.P.H.M.y.M.B.).0XtXtXeX).).).).).0X0X0X)._.!.C.M.y.Z.!.).).^.^.^.^.^.)./.^.!.!.).eXtXtXeXeXeXtXtXuXuXtXeX X).).*X*XtXtX;X*X).*XuXhXhXyX;X;XtX*X=X=XrXrXrX=X=XpXpXpXyXrX=X X|.|./.|.$X=X=X$X/.P.P.P.P.S.B.i.u.u.0.%./ Q / / $.$.$.%.$.$.$.*.0.i.a.S.S.S.i.i.u.G.S.u.0.*.( / / ( / ! G ! / $.=.p.i.S.K.I.|.|.|.|..X%X%X.X].I.G.].I.I.G.S.a.a.u.0.u.S.I.|..X=X=X=X=X.X X|.I.I.I.|./.I.I.!./. X=X*X*X X X XeXtXtX). X*XtXtXeX X)./.).).).*X*XeXtXeXtXtXtXtXeX*X).eXeXtXtXtXeX*X*XtXtXeXeX*X*X*X X X).)././.^.^.!.~.P.N.3.&.*.y.B.I.I.P.I././.I.S.P.P.P.",
"!.H.y.&.#.#.&.3.P./.XX).!.B.M.M.C.).tXuXuXeX)._._.).).).)._.^.!.C.M.M.C.^.*X).^.!.!.!.!.^.^.!.P.C.!.).*X X XeXtXhXcXhXaXuXtXtXeXuXuXuXpXuXtXtX*X*XtXfXfXtX*XtXtX X*X=XtXrX=X=X*XrXrXrXrX=X|.~.~.|.|.|.|.=X=X*X|.P.I.I.P.J.B.u.y.0.*.O.Q Q Q Q / %.%.*.*.%.*.0.u.G.D.K.K.I.D.S.i.D.G.a.u.0.*.*.%.9.) / ! / ( $.$.0.p.a.K.].|.|.|.|..X.X.X|.].K.G.G.G.G.S.S.a.a.a.a.S.I.|. X=X=X.X,X-X=X.X|.}.I.I.|.~.I.I.!.|. X*XtXeX*X*XeXtXuXaX*X*XeXtXtXeX*X*X*X*X*XeXeXeXeXeX*X*XeXtXtXeX X/.eXtXtXtXtXeX*X*X*X*X*X*X*X*X*XeX).).).)./.^.^.^./.I.B.0.&.&.3.u.!.I.I.~.|.|.~.P.D.P.P.",
"tX*X!.C.M.M.Z.C.XX*XeXtX*X/.P.Z.M.^.tXcXcXtX0X).).).XX0X).)._.^.!.C.N.C.^.*X*X/.).).^.!.C.Z.Z.Z.Z.C.!.!.!.^.).eXhXaXuXuXuXtXtXeXuXuXpXpXuXuXtXtX).*XyXuXtXtXtXuX*X*X=X=X=X=X*X X*X=XrX=X|.~.I.I.|././.|.*X*X$X|.I.I.U.I.P.S.u.p.0.*.%./ / / / $.0.0.0.0.0.0.i.S.J.I.I.].].I.D.S.S.S.a.i.i.p.p.f.w.=.( ( =.9.9.9.9.w.S.I.}.|..X|..X.X.X X|.].I.I.G.G.S.S.S.D.G.K.|.|. X=X=X-X-X-XpXsXsX-X=X X|.|.~.~.|.|. X X X XeXeX*XeXeXtXuXhX*XeX*X*X*X*X*XeX*X*XeXtXtXtXeXeX).*X*XeXeX*X X).eXeXeXeXeXeX*X*X/./.).).*X*X*X*X).).).).).).).)./.P.B.y.2.&.*.q.P.D.D.I.|.|./.I.D.D.D.",
"hXuXtXeXeXtXtXtXuXeX*XeXtXtX).P.Z.^.tXcXcXnXuXtXuXtXtXeXeXeXeXeX).P.C.D.^.*X*X).*X*X X!.N.y.M.C.P.P.P.C.Z.C.!.).eXeXeXeX*XeXeX*X*X*X;XrXyXtXtXtX^.$X;XyXtXtXuXhX=X=X=X=X=X X|./.|.*XtX=X|.~.I.~.|./.I./.|.$X|.|.U./.|.|./.P.B.u.u.w.0.*.*.*.*.9.i.i.S.i.u.i.S.I.I.U.|.$X|.].I.G.a.i.i.i.i.i.i.u.f.9.) =.f.a.a.i.w.u.G.]..X=X.X.X|.|.|.].].].].|.I.I.G.G.D.G.I.].=X=X=X=X=X-X,XsXsXsX,X=X=X X|.|.I./. X=XeX*X X X X X X X*XeXtXuX*X X).!.!./. X*X*X*XeXtXtXeX*X*X). X*X*X*X*X*X XeXeX*X*X*X*X*X*X/./././././././.).).).).).). X X!.S.B.N.0.&.%.3.u.u.N.S.I./.!.P.D.C.C.",
"hXdXdXhXvXbXvXbXcXtX/.).tXuXeX^.C._.tXnXcXcXcXcXcXnXuXtXtXtXuXuX*X^.D.P.^.*X*X X).*X*X!.M.y.C.^.^.!.D.M.y.M.C.!.^.^.^.^.).).). X!./.*X*XtX;XtX*XI.).=XtXyXtXaXgX=XrXrX-X=X|.|.!.|.*XrX=X|.~./.|.|.U.I.I./.|.|././.|.*X=X$XU.J.B.B.B.N.i.i.u.u.u.S.D.D.S.A.S.F.I.I.].|.%X%X|.I.K.i.i.i.i.i.u.u.p.a.9.9.9.a.K.S.i.u.S.I..X=X,X=X.X}.].I.K.K.I.].|.|.].I.K.G.K.I.].=X.X X|.|..X=XsX=X.X.X X|.|.}.~.I./.=XrXyXtX X|.~.!.!./. X XtXtX X/.!.D.D.P./.*X X X*XtXeX*X X/. X). X X X*X X*X*X*X X X X). X X X X)./.^.!.!.P.).). X X X X X XP.S.B.B.w.%.$.2.0.0.w.N.P.I.I.P.C.C.D.",
"hXcXcXbXbXbXbXcXbXhXtXeXuXcXcXcX).!.^.uXcXuXeX*XtXtX*X).^.!.!.!.P.Z.C.).eX X^.).^.).*X*X X XeXtX).).).).).).^.!.C.P.!.).)./.!.P./.*X X/. X*X XP. X|. X X X*XtXtXrX=X=X=X=X X}.I.|. X*X=XtXrXrXyXpX=X~.S.B.S.I./.I.~./.|.|.|./.^.!.!.!.!.^.^././.~.I.D.S.D.I.I.|.I.].].].].I.G.G.i.S.S.a.w.0.u.a.u.a.a.a.w.w.a.G.a.u.G.|.pXsX}.A.S.G.F.].|.=XsXpX.X|.I.S.S.F.].|.].].].].].]. X.X|. X X=X=X X|.|.~.|. X=X=X=X=X=X|./.~.!.!././.|./.~.I.P.P.!./.|.|./././. X X X|. X*X*X*X*X*X X). X*X X/.I.P./. X~.~.~./.~./././.tX*X X=XrXyXyXtX X|.~.D.u.2.$.O.O.*.y.S.D.I.|.=X/.I.D.",
"uXuXhXcXcXcXcXhXuXuXtX*XtXbXbXhX).^.).tXuXeX).^.C.P.P.H.C.C.Z.B.Z.M.M.P.^.^.!.!.N.P.^.).).*XtXhXtXtXeXeXeXtXtXeXeXtXtXtX*X/.P.B.~. XeX X XtX X!.|. X X X X*X X XrX=X=X=X.X|.}.I./.|. X*XeXtXtXyXtX*X~.D.S.D.I././././.|.|.|. X*X).5X5XmXeXeXeX*X/.I.I.D.D.I.}.|.I.].].].I.K.G.S.G.I.].I.S.a.a.S.a.a.u.9.*.*.0.u.A.u.u.S.}.|.F.N.S.G.F.].|.|..X.X|.}.I.F.F.I.].|.|.].].].].|. X=X|. X*X=X=X=X X X|. X X*X X X|.|.~.~.~.~.~.I.I.I.~.~.I.I.P.D.D.I.D.D.I.I./.|.|.|.|.|. X*X*X X|./.|. X|.~.P.D.I./.|.|.|.|.|.|.|.|.=X.X X.XrXpXrXrX X|./.P.N.0.&.$.$.3.N.P.I./. X=X|.~.D.",
"uXuXuXhXhXuXuXuXeXuXuXeXuXbXbXuXeX).^.^.^.!.C.P.M.M.Z.Z.M.M.6.6.y.q.6.q.N.P.!.P.q.B.^.^.!.^.eXhXaXuXtXtXtXuXhXcXbXbXbXhXtX X!.D.!. XtXtXtXtX X/. X XeXeXeX X X~.=X=X=X=X X}.I.I.I.~.~.|. XeXtXyX X|.!.P.D.D.D.D.I.!././.|. X*X*XeXeXeXeXeXtXtXrX X|.I.F.D.G.I.I.I.I.I.I.G.S.a.u.I.]. X|.].K.G.G.G.a.w.9.%.*.0.u.G.w.0.0.u.S.S.a.G.F.I.}.}.I.I.F.}.}.}.}.].}.}.]..X.X|.].].|..X=X|. X*X=X-X=X=X*X X X X|./.I.D.S.D.I.I.~.~.I.D.S.I.I.I.I.D.S.N.i.u.N.S.D.I.I.|.|./.|.|. X X|./.~.|. X|.~.P.S.P.I.|.|.|. X X X X X=X X X X-XrX-X=X*X X|.!.S.u.0.2.*.q.S.!.|.|.*X*X/.!.P.",
"uXuXhXcXcXhXuXuXeXuXuXtXtXuXuXeXtX).C.M.M.M.M.M.P.P.C.Z.M.6.6.3.q.y.3.1.6.C.P.C.M.P./.^.C.B.!. XyXtXeX*X*XtXhXbXcXbXcXcXaXtX*X).!. XrXyXrXeX X|. XeXrXyXrX X/.I. X.X=X.X|.I.I.I.I.P.I.~.). XtXyX|.|.!.P.S.N.y.w.B.D.I./. X X X X).).). X X*X*X*X-X.XI.S.i.i.i.a.S.S.S.S.A.u.w.0.D.I.|.|.|.I.G.S.G.a.u.w.w.u.G.K.A.w.0.0.u.S.G.G.I.I.|.|.}.I.S.a.].}.|..X.X|.|.]..X.X|.|.|.|..X.X|.|.=X=XrXrXeX=X X X|.~.D.B.u.0.i.S.P.~.~.I.D.S.D.P.I.I.I.D.N.u.u.i.S.D.D.P.I./.~./.|.|.|./.~.I. X*X*X|.I.P.P.I. X X X X X*X*X=X.X|.|. X=XrX=X=X*X*X X/.I.S.u.y.3.w.B.I./.|.|.|.!.I.D.",
"hXhXcXcXcXhXuXuX).).).).^.C.C.P.XX).^.H.M.M.y.y.^.!.C.M.y.y.M.Z.M.M.6.1.6.C.P.C.B.P.^.!.Z.M.C.!.tXtXtX*X X*XaXbXhXhXhXaXyXtX*X*X~. XtXyX*X/.!./.=XtXyXpXyX*X/.I.I.|..X XI.I.I.I.!.I.I.!./. XtXtX X|.~.P.B.w.2.&.0.u.P./.|.|.I.P.!.!.^././.|. X|.sX.XI.A.0.9.*.*.u.u.i.i.N.u.w.0.i.S.D.I.}.I.F.S.w.w.u.G.].}..X.Xa.u.u.a.G.].].].].}.|..X|.].S.A.I.}..X=X=X=X|.|.%X.X|.].].].|. X|. X=X=X-X=X*X*X~.~.I.I.S.i.w.0.w.u.D.I.~.I.I.D.S.D.I.I.I.I.D.S.N.D.I.I.D.S.I.~.~./.|.|.|./.~.I.*X=X=X=X|.~.~./. X X X X*X X=X=X X|./.|..X=X=X X*X*X*X X/.I.D.S.0.0.u.B.P.I.I.I.P.P.D.",
"uXuXuXuXuXuXtXeX!.Z.M.C.M.&.&.6.!.*XtX*X^.P.Z.y.P.C.M.y.y.B.!.).P.B.y.6.y.B.C.B.M.Z.C.C.C.D.P.!.tXuXaXyXeXeXaXbXaXaXyXtX*X).^.^.|. X*X*X!.B.B.I. X*XeX=X*X|.!.P.S.I.|.|.I.I.I./.|./.!.!.!. X*XtX*X X/.P.B.w.3.*.0.u.S.~./.I.D.B.~./.|./.|.|. X X=X|.F.u.0.*.%.%.u.u.N.B.S.S.S.N.S.B.D.P.~.!.I.S.9.9.w.G.}..X.X.Xa.A.G.G.].].].].].}.|.|.|.].F.G.].|..X=X=X=X=X.X.X.X|.].I.].].}.|..X=X=X=X X X/.D.I.I.I.I.D.S.N.u.i.S.I.I.I.I.I.S.S.D.I.I.I.I.D.S.I.~.I.D.S.D.~./.|.|. X X|./.~.|.*XtX=X*X|. X X X X X X X X X X|.|.I.~. X X X|. X X X X|./.I.I.y.0.0.w.N.S.P.P.P.P.P.",
").*X*X*X).).^.!.C.M.M.M.3.@.&.6.C.).tX*X^.^.P.M.C.C.Z.Z.C.!.XXtX^.C.M.M.N.M.M.N.y.y.y.Z.P././.^.tXhXcXhXtXeXuXcXuXtXtX*X).^.!.!. X X X/.B.3.q.S.~.~.~.!.I.P.D.S.u.D.I.|.I.P.!. X=X*X/.!.!./.*XtXtX*X|.I.D.B.u.u.B.S.S.D.P.P.P.D.~.I.}.|.|.|. X X|.I.S.u.0.9.9.0.N.B.D.P././././. X/.!.!././.!.D.u.w.u.S.].|.}.].G.G.G.G.G.G.G.G.F.I.I.I.].].I.I.|.|..X=X=X,X,X,X.X|.].I.I.I.I.I..X.X.X X X|.!.P.D.I.I.|.|. X X|.D.D.D.D.D.D.D.D.D.D.S.S.S.S.S.S.u.S.I.I.S.S.I.|.|.|. X*X*X X|./.!.|.=X=X*X X X*X|.|.|. X|. X X X|.I.I.I.|. X X|./.|. X X X|./.!.B.y.2.2.w.B.P.P.I.!.!.",
"!.!.!.!.!.C.C.Z.P.C.C.M.3.7.6.Z.C.^.).H.Z.C.P.P.!.!.!.!.^.).*XeX).C.M.Z.Z.y.q.y.N.y.q.Z.!. X).!.eXaXcXhXeX*XeXuXeX*X*X).).^.^.^.*X|./.P.w.%.2.B.P.D.D.S.B.B.B.B.0.S.I.I.I.P./.*XyX=X X^.!./.*X*XtX=X X/.I.I.I.I.I.P.S.B.B.D.I.~.I.I.I.I.I.I.}.|.I.F.S.u.w.w.u.i.B.D.!.).*XeXtXtXhXtX X). X).^.D.}.F.S.S.I.].I.I.].].G.a.w.w.u.a.S.S.S.G.F.I.].}.|..X.X.X=X,XsXsX.X].].I.G.G.I.I..X.X X X|.I.D.D.D.I.|.=XrXpXpXpX|.~.I.D.D.S.S.S.I.D.S.u.u.u.u.i.0.i.P.P.S.S.I. X|. X*X*X*X*X|.|.D.!. X*X X|. X*X|.|.|.|.|.|.|.|.|.I.I.I.|. X|.~././.|. X X|././.P.u.2.*.0.B.P.I././.).",
"M.M.M.C.M.1.@.3.^.eXtXC.7.7.M.P.B.Z.t.@.O.&.2.3./.*XeX)./.XX^.P.P.P.P.P.Z.Z.C.P.Z.y.y.B.).eX*X^.D.!.*XeXeX*X)././.*XeXtXtX*X/.!./.B.0.2.*.*.0.B.|.I.B.y.q.u.S.I.0.i.S.S.i.i.S.I./. X X*X).^.!.P./.~.~.~.|.*XrXpX*X|.I.I./. X X XD.G.F.D.D.S.i.u.u.u.u.u.u.i.A.B.D.P.^.).eXeXeX).tX).^.C.!.!.).)./.rXI.w.D.F.N.A.I.G.a.w.0.0.w.u.A.A.i.i.A.G.I.}.I.}..X=X,XsX,X=X.X].].I.G.I.I.}.|.I.I.D.D.D.P.I. X|.|.|. X=XrXpX=X*X X X~.I.S.N.u.N.S.S.D.S.N.i.D.S.S.N.N.S.I.I./. X=XrXrX*X/.I.I./. X=XrXrXrXrX-X=X X|.|.|.|.|.I.I.I.I.I.I./.|.|.|././.!.I.I.I.D.P.u.%.O.3.B.D./.).).",
"M.M.C.!.C.M.6.M.^.tXtX^.M.M.Z.C.P.C.3.#.^ &.y.y.!.XXeXtX*X^.C.y.y.Z.C.C.C.C.P.!.N.y.q.Z.^.*X).!.Z.D.^.*XtXeX X^.eXeXtXyXtXeX X/./.S.w.0.2.&.2.y.B.N.y.q.w.y.u.u.0.u.A.S.i.i.S.P.^././.).^.!.P.C.P.I./.|.*X=XrXrXtX X/./.|. X X|.I.I.G.S.S.u.w.w.3.3.q.y.N.B.S.D.^.H.R.^.eXeXeX).uXeX).C.C.!.).).mXtX^.D. XP.q.N.N.S.S.A.u.w.0.9.w.u.a.S.G.F.F.F.F.I.].}.|.|..X|..X.X|.|.].].|.|.I.I.I.D.D.D.I.!.|.|./.~.|. X=X-X=X=X-X=X=X|.I.D.D.D.I.~./.~.I.I.|.~.I.D.D.P.I.I.|. X*X=X=X X/.I.|.*X=XrXpXpXpXpXrX-X=X X|.|. X XI.I.I.I.I.I.I.I./.~.!.I.I.P.P.P.P.I.B.*.&.3.N.B.).).).",
"Z.C.C.).*X^.C.C.!.*XtX*X^.!.P.Z.M.Z.M.3.3.M.Z.M.Z.H.^.*X).Z.1.O.1.6.Z.D.P.P.!./.Z.y.y.B.!.)./.!.Z.Z.D./.tXtX*X!.eXeXeX*X*X*X X).|.P.u.y.3.%.%.2.*.*.3.0.0.0.3.2.u.i.S.S.S.J.P./.!.^.^.^.^.P.H.C.D.P./.*XtXrXrX=XpXrX X|. X X|./.~.I.D.S.u.q.0.3.&.2.q.N.D.P.D.P._.(._.(._.).5X5X5X)._.^.R.R.R.Q.5X5X_._.iX_.N.!.N.B.D.F.D.N.0.*.*.0.A.I.].I.F.S.S.S.S.S.G.F.I.I..X%X%X%X%X.X X|.I.I.I.I.I.I.!./.I.I.I.I.I.|. X X X=XrXpXpX-X X|.|.|. X=X-XrX-X=X-X=X X|.|.~.~.|. X X X X|.|././.tXrXpXaXgXgXgXgXrX-X%X|.|.|.|.|.I.I.J.S.S.S.G.D.I.I.I.P.P.P.D.D.P.P.S.0.*.0.u.B. XXX*X",
"!.P.^.*XtXeX^.C.M.!.eXtXtXtX^.Z.y.C.P.^.).*X^.Z.3.1.3.y.3.O.^ ^ &.3.Z.!.!.^./. XP.B.Z.C.!.).)./.!.C.Z.P.).eX X!./.^.!.!.!./. X*X XI.B.u.3.$.O.$.$.&.2.0.0.0.3.2.J.P.I./.|.|.*X*X).).).^.^.^.!.P.P.I./.*X=XrXrXrXgXpX=X*X=X*X|.!. X~.D.N.q.3.2.2.3.y.Z.!.^.^.!.!._.5X0X_.T.Z.Q.5XT.Z.Z.T.k.V.v.V.R.W.R.(.iX0X_.5XC.D.D.P.D.S.N.w.9.0.A.I.].].I.F.S.A.a.u.a.S.G.I..X.X=X=X=X.X|.].F.I.I.I.I.~./.|.I.I.D.D.I.I.~.|.|. XrXpXaXpX-X=X=X-XrXpXpXaXaXaXpXsXrX-X=X=X=X=X*X X/.~.~.~./.|.rXrXpXpXaXaXgXgX-X=X$X|.].].|.|.].I.D.a.i.i.a.S.P.P.P.P.P.P.D.D.S.S.S.u.q.y.N.D.*X*X*X",
"!.!.^.).eXXX!.M.6.C.).tXuXuX).C.Z.P.oX*XuXhX*XP.O.~ G G G W G ^ 1.q.C.!.^.^.). X^.!.P.P.^.).*X*XtX^.Z.Z.P.).).^.!.P.P.P.!.).eXtX|.P.i.y.3.$.O.$.3.3.3.0.0.p.y.u.I.I.I.|.*X=XrXtXeXeX*X*XXX).).).).|.|.|. X=XrXpXhXpXrX=X=X*X/.I.|.!.B.q.2.2.2.6.M.C.!._._.^.Q.R.R.Q.Q.V.4.>.5.c.5.5.;.;.} >.5.T.c.T.c.c.W.5X5X5XR.R.!.^.!.D.B.u.w.u.u.A.G.F.I.].S.A.a.a.A.S.F.I.]..X.X.X.X|.I.I.I.I.~.|.|. X X XI.I.I.D.P.I.I.~.~.|.=XsXpXpXrX-XrXsXsXpXpXaXjXjXrXrXrXsXpXpXpXsX*X|.~.I.P.I.~./.*X*X=X=XrXrXpXpX=X%X|.].I.I.].].|.I.J.a.i.a.G.D.P.P.P.I.I.I.I.I.N.B.B.B.u.u.S.!.*X*X*X",
"Z.C.C.C.C.C.Z.6.6.C.).tXuXuX*XP.M.P.).tXhXhX*XH.O.E W z z D G ^ 2.y.C.P.!.!./.).*X).^.^.^.).*XeXuX XP.Z.D.^.).).^.^.^.^.).eXuXhX|.S.u.0.2.$.$.*.B.i.y.p.y.u.B.J.P.J.P.U.$X=XtX*XaXuXtXeXeXeXeXeXtX*X X|.|.*X=XrXaXyXtX=X=X*X~.P.D.B.q.&.&.&.2.6.C.Z.C.R.R.V.v.k.4.,.;.-.+.| } } +.>.+.;.T +.-.j.l.c.l.,.l.T.R.V.k.Z.!.).).P.N.q.N.u.w.w.w.a.G.I.i.a.A.S.G.F.I.].].].].].].].I.I.|.|. X=X=X=X*X X|.~.I.I.I.I.~.~.|.|. X=XrXrXrXrXpXpXsXrXsXsXpXpX X=X-XrXsXsXrXsX|./.I.P.P.I.I.~.!.~.~.|. X=XrXpX=X=X|.|.].U.].|.%X|.I.G.S.D.I.].U.~././.|.|.|.|.S.B.B.S.B.u.S./.).).).",
"1.6.y.6.3.6.M.6.C.).tXuXuXtX*X!.6.y.H.^.;XyX^.y.&.O.^ G W G ~ ^ &.3.y.Z.C.P.^. XeX*X).!.!.^. XeXeX X^.P.!.^.).*X X X X*X*XeXtXtX/.B.0.3.*.&.*.y.I.P.S.i.i.B.S.J.P.J.J.I.*XrXtXtXhXhXuXtXeXeXtXtXrXrX=X*X*X X X XrX=X=X=X=X X~.D.q.2.@.o.^ #.1.5.6.k.6.5.4.,.>.:.' T I ` } } T I ` >.,.c.| -.` | :.....:.<.l.l.,.j.k.Z.R.`.Z.x.2.u.0.9.*.*.0.w.u.0.w.a.S.I.].}.|.|.].].I.I.I.I.I.=X=XrXrXsXrX=X*X X X|./.~./.|.|.=X X X=X=XrXpXaXjXaXpXrX=X-XrXsX X X=X=X=X=X X X/.~.I.I.P.P.P.P.D.D.P.I./.*XrXpX,X-X=X%X|.|.$X$X=X$XU.K.K.U.$X=X|.|. X*X*X=X=X=X/.P.S.S.N.y.B.!./.).).",
"^ &.1.@.#.1.6.6.).tXhXuXtXeXXX^.y.y.3.3.B.^.P.y.6.t.2.O.^ O.O.^ O.&.3.y.M.C.^.*X*X*X/.!.P.!.).*X^.^.).).).).*X*X*X*X*X X X).). XI.u.3.*.&.&.3.i.I.I.P.S.S.S.S.S.U.I.P./.;XgXhXuXhXhXuXtXeXeXtXtXtXrXyXyXtX X/.I.=X*X*X*X*X*X!.P.&.#.R Y E o.;.4.;.;.-.+.| | | | J J Y T } } ' T +.5.k.T.-.;.T ] ` U _ -.<.<.,.,.j.j.k.k.k.k.k.6.3.2.*.%.%.8.*.2.2.0.u.G.I.}.}.}..X|.].I.I.I.I.}.-XsXpXpXpXrX=X.X=X=X X|.|.|. X XrX-X=X X=XrXaXjXjXjXpXrX=X=X-X-X X X=X=X*X|.~.I.!.I.I.I.P.P.P.P.B.S.S.P./.*XyXgXgXpX,X=X=X=X=X=X-X%X].I.I.|.-XpX*X*X=X=XtXrXrXyX=X/.P.D.u.0.y.P.^.^.^.",
"^ ^ ^ ^ o.&.B.^.tXtXaXhXhXuXeX*XM.6.1.&.&.&.3.q.M.N.N.y.q.2.&.#.1.6.M.Z.C.P.^.*XtXtXeXeX*X)./.^.).^.^.P.C.P.).eX^.^.^.).*X).P.B.y.y.y.y.3.&.&.3.B.H.P.P.P.H.S.P.~.I.~. XyXjXjXjXuXtX*X|.|.*XyXaXaXpXtX*X X X X XtX).!.!.P.3.E z p d C P R +.>.4.>.,.,.-.] I I I ' T Z m A R R S &.t.C.C.4.' L L I _ ` ` ] ] | ..,.l.c.b.T.V.c.k.T.T.V.M.6.5.6.M.B.D.I.}.}.].G.G.F.].|.|.}.}.|..X=XsXpXjXjXsX=X.X X-XsX=XI.D.I. XsX-X X=XsXpXpXsXjXpXsX-X=X X=X=X=XsXpXpX=X X|.|.P.~. X*X*X/.P.S.y.u.B.P./.=XpXjXgXpX=X$X*X*X-X-XpX-X*X/.I.U./.|.rXrXrXrXrXrXrXrX*X X/.I.D.B.u.y.).).).",
"^ ^ O.&.3.y.P.).*XtXuXhXhXyX*X*XP.M.1.o.^ o.&.3.y.y.y.y.y.6.3.3.y.M.H.!.!./.*XtXtXtXeX*XXX).).).eXXX^.C.M.B.!.*XP.!./.*X*X).P.u.y.y.y.y.3.&.&.3.C.P.^.^.P.P.P.P.I.I.I./.*XrXrX=X=X*X|././. X=XrXeXrXpXaXaXtX*X).).).*X/.B.2.^ z y s M P +.>.4.,.>.>.;.| T H H H J L L A S R 1.y.C.).eX).M.8.{ T T L J J J _ | -.,.,.,.h.l.c.T.E.V.V.c.c.k.v.Z.C.D.P.~.~.}.I.G.G.F.].|.|.}.].}.|..X.X,XsXsX=X.X|.|.=X-X=XI.S.K.I.=X X/.|.=XsXsX-XrX-X=X X X X=X=X-XpXaXpXrX=X X=X/.|.*X*X*X|.~.I.D.D.D.P.!. XrXpX-X=X=X=X=X=XrXpXyX=X*X|.|.|.|.|.rXtXrXrX=X=X=X=X*X X/.I.D.B.u.y.^.^.^.",
"G ^ &.y.J.P.^.).).*X*XtXtX*X*X/. XP.3.#.^ O.&.6.y.y.y.y.M.Z.C.D.C.!.).XX*XeXyXhXdXyXeXXX).).).XXtXeX^.C.y.y.C.^.C.P.^.*X*X*XP.u.J.B.B.B.y.&.&.2.C.P.^./.^.P.^.^./.I.I.I./.|./.!.*X|./.~./.|.*XtXaXhXaXaXyXtX X).^.C.Z.M.6.y.2.E D l d Z } >.5.,.;.-.} T Z b v C v m A J E @.R.dXuXbXbXuX).`.6.{ L J Z Z H P T ` ,.<.:.:.>.h.l.l.l.l.j.,.4.5.V.C.D.D.F.I.F.G.G.G.I.}..X.X|.].I.].I.].|..X.X|.}.I.F.|.=X XI.D.D.J./.I.I.I.U. X X X|.|.|./.|. X=X=XrXpXaXaXpXrXsXpX=X=X=X=X=X*X X X X/.I.P.P.I.|. X|. X=X-XrXpXpXrX;X=X=X*X$X$X*X*XtXtX=X=X=X=X=X=X*X X|.!.P.S.N.u.P.P.P.",
"D E &.y.P.P.P.P.P.P.P.^.^.^.^.^.eX^.Z.6.3.q.Z.P.C.Z.Z.Z.D.!.).*X!.^.XX*X*XeXyXhXhXuXeX)./.).XXeXtXtXXX!.B.y.M.Z.M.Z.P.^.*X*X/.P.I.P.P.C.y.&.&.2.y.C.P.^.^.^.).*X=X X/./.|./.I.D.|./.~.~.~.|.*X=XpXyXtX*X X X*X*X!.y.3.3.&.3.6.@.#.Y l C E @.>.-.@.o.E A v s d d f g d Y ;.Z.iXSXSXKXKXbXnXuX!.1.E L S Z A A A Z H I  .:.h.j.j.h.-.-.| | ' +.>.6.M.u.u.N.S.G.F.I.}..X=X=X.X}.].].G.F.I.].}.].I.I.a.I.|. X|.I.I.I.I.I.D.D.D.J.I.I.I.I.I.I.~.|.=X=XrXpXaXaXpXpXaXjXpXpXrX=X*X=X=XrXyX=X/.D.S.S.D.P.I./.*XrXpXpXpXrX*X=X=X=X=X=X=X=XtXtXtX=X=X=X=X=X=X*X X/.I.P.S.C.P.P.P.",
"W ^ &.y.C.B.C.C.y.y.t.y.y.B.P.P.^.!.!.!.!./.*XeX X)./.^.).*XeXtX!.^.).XXXXXXeXtXhXuXtXXX).).*XeXeXtXuXeX^.B.y.y.B.M.M.C.^.*X*X*X).^.P.P.i.2.&.3.y.J.^.oX*X*XtXuXpXrX*X*X X|.~.P.S.S.S.S.P.I.~./.*X X X/.!.P.D.D.3.&.2.3.1.1.t.y.&.R D S o.&.#.R o.R J Z v d d v j f C #.R.5XxXSXAXKXKXSXbXcX).3.8.Q S j d M M M T ] -.,.:.+.` K |  .' T I T ' o.8.8.2.0.u.S.I.}..X=XsXsX=X|.|.|.F.F.I.I.I.I.F.F.u.S.I. X$X X X X|.I.I.D.S.i.S.S.P.P.P.I.~.|. X=X-XsXpXpXpXpXgXjXgXpXrX=X*X=XrXyXpXtX|.P.B.B.B.B.I./.*XrXpXpXrX=X$X=X=XrXrX=X*X$X=X=X=X=X=X=X=X=XrX=X*X|./.I.P.P.!.!.!.",
"^ $.y.B.B.y.y.y.O.O.^ ^ O.2.B.P.D.!./.*XtXyXtXtXuXyXtXeXeXtXeXtX!./.XXXX).).*XeXhXuXtX*XXXXX*X*XeXuXcXcXtX^.B.M.C.B.y.M.P./.*X=X*X).^.^.C.3.3.y.P.^.*X*X;XtXuXhXpXrX=X*X*X*X|.!.0.0.w.y.u.B.B.S.!.P.D.D.B.N.N.N.C.y.2.&.2.6.3.t.1.R S S o.1.@.o.R Y J Z A Z Z C S Y #.V.iXxXSXAXKXKXKXKXbXcX^.3.q.$.G D C C C M d m J ' +.;.;.,.| | | ' T P T E Q o.&.0.N.F.}.|..X=X,X=X.X|..X=X}.}.}.}.I.I.I.I.u.S.I.|. X=X=X=X|.|.|.I.S.S.S.D./.~.~.~.~.|. X=X=XrXrXrX=X-XpXjXpXrX=X*X*X*X=XtXpXrX*X/.I.P.S.S./.|.=XrXrX-X*X$X|.*X-XrXrX=X|./. X X X X|.|.|.|.*X*X|.|.~.I.P.P.^.^.^.",
"$.3.C.P.C.y.&.O.E G D z W O.y.P.^.).eXuXhXaXyXtXuXuXuXuXyXtXeX*X).*XtXeX*X*XeXtXdXuXtXeXeX*X*XXXeXdXbXbXdX*X^.P.P.C.B.Z.P.P././.*X).).).P.y.y.B.^.).*X*X*X*X*X*X=X X/./.|.|./.I.3.3.0.y.u.N.B.S.w.q.u.N.N.N.y.y.*XhX!.$.$.1.&.1.6.#.G W R #.#.o.Y L S J Y E E L Y #.M._.zXSXAXDXKXKXKXKXKXcX).B.w.%.Q G G G S C C Z J L ' +.-.;.] | +.| ' T Y Y R o.8.q.D.~.|.|. X.X.X}.].}..XsX,X=X.X|.|.}.].I.S.S.D.I.U.|.|.|.|.|. XU.I.J.I.|.=X=X X|.|.|. X X=X=X=X=X|. X-XpX=X=X*X X X X X XrXrXrXrX=X*X|./.=X=X-X-X;X*X|.U.|.*X-XpXrX*XI.J.I.I.I.P.P.P.P.P./.~.I.I.D.S.B.B.^.^.^.",
"&.y.P.P.C.2.^ E G D f e z ^ y.I.tXyXhXcXhXaXtXeXtXtXuXuXyXtX*X XeXtXuXyXtXeXtXuXuXuXyXtXtX*X*X).tXdXbXbXhXtX*X*X^.P.D.C.P.P.S.B.*XoX).).P.y.y.B.^.).$X).P.J.C.P./.I.P.P.!./.I.P.0.w.u.N.S.D.P.P.S.P././.C.2.Q D @.hXcXy.@.7.M.^.q.&.^ R o.o.R L Y S S Y R o.{ R R 1.C._.zXAXDXDXDXGXKXKXKXbXtX XB.*.Q F G E E E S J J L T ` { +.` ' +.| ' T Y L { #.2.N.!./.|.|.|.}.].F.G.I..XsXgXpXsX=X X|.}.].F.D.S.D.J.I.I.I.I.|. X|.I./. X-XpXsX=X X X|.|. X X=X X|.~.~. X-X*X*X X X|.|.|.|.rXpXaXjXgXpXrX=XpXpXrX-X*X|.U.I.|.*X-XpXrX|.P.B.B.B.B.B.B.B.B.B.P.D.S.S.B.u.u.y.^.^.!.",
"O.3.C.P.y.^ z e e e e e z ^ y./.eXyXcXcXhXyXtXeXeXyXhXaXtX*X X*XXXyXuXtXtXhXuX*XeXXX*XuXuX*X/.XXcXcXbXbXcXhXuXyXXX/.!.P.P.C.y.3.y.B.P.^.P.C.y.2.P.P.^.^.P.J.y.y.I.D.S.D.I.I.D.B.N.S.I./././.|.*XU.|.|.S.3.2.3.< z Y bXLX3.^ !.P.y.#.^ R S C S S S Y L E ;.;.' R R R 5.iXAXAXZXDXDXGXKXGXKXbXtXeXI.0.*.O.G G Q Q { L m m J ' +.| -.T H H P P Y E 1.7.M.eX*X*X^.S.u.w.w.u.S.I.|..XpXsX,X|.I.G.F.I. X X X|.I.D.S.i.D.I.|.=X-X-X=X X X X=X=X-X=X=X XI.I.I.I.D.P.~. X*X|./.I.P.I.!./.rXrXrXrXrXpXaXgXrXrXrX=X*X|./././.|.=XrXrX=X|./.S.S.P.~.|.|.I.S.u.N.B.S.B.N.y.y.C.!.^.",
"/ &.2.2.O.G f g e e e e z E y.^.uXcXvXbXhXuXtXtXeXtXuXuXtX*XeXtX).tXtXeXtXdXdXtX*X).*XtXyX*X*XtXcXcXcXcXhXdXtXtXXX^.C.B.B.B.B.u.y.B.P.^.P.C.y.2.y.y.P.^.).)./.^.~.I.I.I.I.I.P.S.P./.*X=X=X*X*X=X|.$X/.B.2.&.3.w > f Y !.bX6.Y M.@.E L S C m S L R R L R 4.k.;.#.1.4.c.zXAXAXZXDXVXZXAXSXAXSXdXcX^.B.w.%.E E #.#.#.Q T T ' o.' ' | I M M Z J ' ;.k.eXmXeXeXpX).!.w.w.u.a.S.F.].}..X.X.X}.I.F.I.|.=X=X=X X|.I.D.S.I.I. X=X-X=X X X|.|. X=X=X=X=X=XI.I./.I.D.I.I.|.|././.~.!.!.~./.*X X|.|. X=XyXaXpXrX=X*X$X|.|.|.|.|.=X-XrX=X*X$XP.P./. X*X/.S.y.0.y.B.D.D.S.B.u.P.^.XX",
"O.O./ ^ E W z f z f f f z ^ y.^.cXcXcXhXtX*X*XeX X*XeX*X*X*XeXyX).*X*XXX*XyXuXuX*X).).eXtXtXyXhXcXcXcXcXdXyXeX*X).P.y.3.y.B.P.P.y.B.P.^.^.P.y.t.&.3.y.P./.*X*X*X/././.!.P.D.D.P.!. XrXpXrX*X*X*X/.|.I.i.0.3.y.f < w ; d k.6.Y o.1.R Y A C v Z J L T ' >.R.(.Z.x.5.4.j.6XwXVXVXZXZXDXZXCXSXxXxXbXC.B.P.D.0.%.o.Q L L L L J J S A J Z C H P T #.5.k.).!._.tX!.8.M.u.u.A.S.S.D.G.G.G.I.I.I.I.I.|..X,X-X-X-X=X X|.I.|.|.=X=X-X=X X|.I.~.|.*X=X=X=X=X~.|. X|.~.I.I.I.I.~./.|.|.|.|./.!.I.P.P.I.|.=XyXpXrX=X|.|.|.|.$X$X$X*X=X=X;X-X-X~./. X=X=X/.B.0.3.q.N.S.P.P.S.C.!.).*X",
"2.O./ O./ ^ E E E G W D W ^ y.I.uXuXtX*X^.!.!./.^./.).^.^.).eXuXeXeX*XXX).*XtXtX*X)./.).*XtXhXbXcXcXcXhXuXtX*X*X!.Z.6.3.y.C.I./.H.P.^.$X*X^.P.B.3.y.y.C.P.P.P.P.P.I.~.P.N.u.B.D.I.|.=XrX*X|.!.I.S.I.I.P.P.D.!.G e w q 8 q S o.C @.R J A C v Z P m T ;.V.(.4X(.(.V.c.V.6XlXVXZXDXVXVXwXwXqX4X4X(.5X^.D.N.x.7.8.#.L L L Z A S P T Z M Z P T T ' @.5._.uXbXeXo.8 g F.I.I.I.I.S.A.u.u.A.G.F.I.}..X-XsXpXpXpXsX-X=X X$X=X=X-X=X=X|.|.I.I.|. X=X-X-X-X=X-XsXrX X~.I.I.P.I./. X*X X|./.P.D.S.B.D./.=XpXpX-X*X|./.|.$X=X*X*X|.|.*X=XrXpX X|. X*X*X|.D.N.y.y.y.u.N.B.S.S.!.).*X",
"y.&.$.2.t.3.2.3.2.&.^ G G ^ 2.B.*X*X X!.D.C.P.^.).).*X X).*XyXhXhXyXeX*X).).).*X*X).^.^./.eXdXcXuXdXdXuXyXtX*XXXP.Z.y.y.B.P.^./.^.).*XtXtX*X).^.H.J.P.P.P.C.C.B.S.D.D.B.y.q.u.S.I.|.*X=X|.I.P.P.B.I./.$X=X*XtXO.q q 8 : ; 9 C R Y A C M Z C J T Y | j.T.W.4X7X5X6X4X6XlXZXVXZXVXZXDXZXAXVX6XqX4XzX5XR.V.V.x.7.%.L L A m v M A P ' T T P A P ;.T.iXbXFX5XE p & :  X.X.X|.].F.A.u.w.A.F.I.}.|.=XsXpXpXpXpXpXpXsX-X-X-X-X-X=X=X X|.I.~.|.=X-XrXrXrXsXaXjXaXrX X|.|.I.!.|. X*X*X X|.P.D.S.D.I.|.=XyXpX-X$X|./.|.*X=X*X*X|./.|.*X=XrX*X|.!.!./.|./.~.D.B.y.3.3.0.u.B.P.^.).",
"C.2.&.t.i.y.y.y.y.3.&.^ E E O.&.!.!.!.P.C.C.!.).eXtXyXyXtXuXhXbXvXdXtXtX*X^.^.).*X*X).!.!.XXeXeXtXtXuXuXtXeX*X*X!.P.C.D.P.^./.^.*X*XyXgXhXuXtX*X).).)./.^.^.^.^.S.S.B.u.y.u.S.P.|.*X=X=X|././.|.U.$X$X=XgX=XyX&.q w ; : 8 w a J P J H J Y J J ` -.,.T.6XiXxXSXSXCXVXVXVXVXVXwXwXlXCXlXZXVXqXlX3XzXiX(.`.(.R.7.8.#.{ Y S S A C Z J J J Z v A 4.iXiXk.+.C * 2 9 S =X=X.X|.}.I.F.G.S.I.|. X.X.X=X,XsXsXpXpXpXpXpXsXsXrX-X-X=X=X=X X|.|.*X=XrXsXrXrXaXjXjXaXrX*X X X/.|.|. X X X X|.P.I.I.!./. X=XrX;X=X$X|.|.|.*X=X*X$X|./././.|.*X X~.D.D.I.|.*X*X/.P.N.0.2.3.0.y.C.!.^.",
").t.&.3.y.3.3.y.B.y.3.&.^ ^ O.$.y.M.Z.Z.Z.C.P.^.*XtXuXhXuXuXhXhXcXuXyXdXyXXX^.).*XeXXXP.P.^./.!.XX0XeXtXtXtXeX*X*X).^.!./.).)./.*XtXuXhXhXhXuXtX*X*X*X*X*X*X*X*X/.I.S.S.P.~.|.|.=X=X=X*X|.|.*X=X$X-X|.$XpX=XhXy.w < q p p v C p T ` _ ] +.` P ] 4.l.4XzXzXlXCXxXAXDXqXVX6XZXwXlXlXVXwXZXVXqXDXlXSXSXiX`.`.V.x.`.8.{ S C C C M M s a a y r a P >.P 9 - 2 2 0 0 o./.}.].].}.|..X.X}..X,X,X=X.X.X=X=X-XsXpXpXpXpXsXsXrX-X-X-X-X-X-X=X=XrXsXpXsXsXrXpXaXaXrX=X X X=X*X*X X|.|.|.|. XP.I./.|. X*X*X X*X*X$X$X$X$X*X*X$X|.|.U.I.I.I.I./.I.S.D.I.|. X X/.I.D.B.u.y.q.y.C.P.^.",
"yXB.&.2.3.&.&.y.C.C.y.3.&.O.O.&.@.&.3.y.y.M.C.P./.*XtXuXtXeXtXtXhXtXuXcXhXeX).*X*XeX*XP.H.!.P.B.).XXeXeXtXtXeXeXhXtX X^.).).|.|.*XtXuXhXhXaXuXyX*X*X*X*X*X*X*X*X*X/.P.P.|.tXyXrX=X*X*X|././.*XyX*X=XI.I.-X-XvXP.j g < 8 r v Y +.Z J I ] -.] T | c.E.7X4Xl.h.T.E.6XqXl.6Xl.xX9XCXwXwX4XqX6X3XZX6XzXSXSXzX5XR.x.`.V.8.L C S E ~ o.+.J d a y r y a r a r 2 2 r 0 @.D.S.S.F.I. X,XsX=XsXgXpX,X=X.X.X=X=X-XsXpXpXsXsXrX-X-X-X-X-X-X-X-XrXsXpXpXpXsXrXpXpXrX=X|.|. X=XrX=X X|././.|. XP.I.|.*X*X*X|./.|.$X*X$X*X$X$X|.|.|./.U.I.J.J.S.I.P.D.P.~.|./.!.I.I.~.I.P.B.u.q.C.!.).",
"P.B.2.&.&.&.&.&.B.y.y.3.&.O.O.^ ^ ^ o.O.&.2.y.y.P.^.).*X*X*XeX*XhXuXtX*X*X*X*X*XtXeX^.C.H.^.^.P.P.P.^.XXyXyX*X/.tXeX X^.^.^././.^.*XtXuXtXeXeXeX^.*XyXtX/.I.|.*X X).|.*X*X*X/.P.*X)./.).*XyXhXgX=X X|.|.=XrXgXgXO.: * p 0 = 0 v I | +.| ` J ' k.4XW.k.+.I H Z v U K >.c.` M -.W.j.| 4._ ` j.4XE.` V.W.4.;.k.V.R.4.@.{ Y J J Y E { J d 9 5 8 9 q 2 r ; : w q w M.P.|.|.I.I.=X,X=X%X%X.X|.|. X X.X=X=X=XrXrXrX=X=X=X=XtXtXrXrXrXrX*X*X=XtXrXyXpXpXpXpXpXtX*X*X=XpX=X X|.I.I.I.I.I.I.I. X=X=X=X X X,X=X%X|.|.|.|.|.I.I.|.$X$X|.I.S.I.I.P.P.S.S.B.B.!./. X X/.I.D.D.!.).eX",
"P.y.&.O.^ O.&.3.B.B.B.y.3.&.O.^ ^ ^ E G E / &.y.P.P.).*XtXuXuXuXyXrX*X*X*X*X*X*X).).^.P.^.eXeXXX!.!._.eXyXyXeX).*XXX X).).)././.^.).tXuXuXtXeXtX*XtXyXtX|.I.~.|.pXtX*X*X).^.J.B.I.P.^.).*X;XtXuX~.I.F.I. X-XyXyXH.e > 8 s 0 N J ;.+.` J C T #.T -.#.Y r 3 2 6 2 t 9 M T Z t u b M t J Z b M ` } c b a y Z ' ;.;.#.o.R L J Y E R J m a r r r y y d r : ; e ; z N.D.I.~.~.|.$X%X|.%X%X%X$X X X=X=XrXrXrXrXrX=X*X*X=X*X*X*X*X*X=X=X X X*X*X=XtXrXrXpXaXaXrX*X*X*XtX=X XI.I.D.D.S.D.S.D.I.|. X X X|.%X|.I.J.J.K.I.].K.I.|.%X%X|.K.G.P.D.S.B.N.u.y.w.P.I.|.|.|.I.D.B.^.).tX",
"B.y.&.^ E ^ 2.B.P.P.P.J.y.2.O.^ ^ ^ G W D W ^ &.y.y.P.).*X;X*X*X*X X).^.^.).).*X^./.^.^.XXuXuX0X_._.).eXtXtXeXXX^.^.*X*X*X*X/.!.!.).tXuXuXuXuXuXpXyXrX*X/.I.I.P.=X*XP.P.P.H.B.y.P.P.^.).*X*X*X*XD.S.S.I.|.-XyXyX*X~ @ , r s ` j.V.A v Y J T +.J v a s Z J C a a 0 2 2 0 9 5 5 9 y - y y 0 2 9 0 r 2 - - 2 0 v Z v C Z L L J S A m a 0 9 9 0 0 9 S q w q p * o.^.D.D.S.D.I.I.|.%X%X%X%X%X%X X X XrXrXyXrXrX=X X|.*X X|././.|.|.*X|.|. X X*X*X=X=XpXgXhXpX=X X|. X X|.I.S.i.u.u.u.0.u.i.S.D.I.I.I.a.i.i.u.i.G.I.].K.I. X=X%X|.I.G.S.B.N.u.w.0.3.2.u.S.I././.I.S.N.^.).tX",
"y.y.3.O.^ ^ 3.P.^.).).).P.y.&.O.^ ^ ^ E W W G E O.&.3.B.P.!.!.P.D.S.C.C.D.P.!.^.^.).).^.XXtXeX_.XXXXeXtXtXtXeX*X!.^.*XeX*X).P.C.!.).tXaXuXaXhXhXjXaX=X X~.P.S.B.u.y.3.3.y.C.H.H.P.^.*X*X).^.P.I.i.i.i.J.|.=X-X-X*Xy.O q 2 Z M ,.P 5 9 J Y Z C v s Z J P +.4.4.' s r - $ o # 2 0 9 - 2 - # # - - = 2 c J d 9 ; % r p m A S A C d v y 5 - ; 8 0 r v 8 w p q d M.^.C.q.w.i.S.S.I.%X%X%X%X%X%X X|.|. X X*X=X=X X|.|. X|./.I.I./.|.*X X X X*X*X*X=X=XpXaXjXaXtX|././.|.I.D.i.0.0.0.0.*.*.*.*.*.0.0.p.*.*.0.u.S.I.I.].K.U. X%X XU.I.P.S.S.B.u.w.0.2.2.0.y.B.P.I.P.u.q.!.).*X",
"3.y.B.y.&.O.y.P.).*X*X*X/.C.3.&.O.&.&.&.^ G W D G E O.&.3.y.y.y.0.3.3.y.y.B.C.P.!.^.^.^.).tXeX_.eXeXtXtXeX*X*X*X/.).*X*X).P.B.y.!.*XuXhXhXhXhXcXgXyX*X!.P.S.B.i.&.&.&.2.y.P.^./.P.^.).^.C.y.y.y.0.0.p.a.I.U.|./.oXP.= r r I 2 c 8 8 r C Y J v y a 9 C 5.;.p 8 Z o.' J a 5 = $ o ; - - 2 = 2 r a P A J Y P R ' Y d d d j C C D S f r 9 2 9 y d v q : : q f M.P.q.8.8.2.N.D.a.S.K.|.|.$X$X|.U.I.I.S.D.P.!./././.~././.!.!.~.|. X*X=X=X=X=X=X=X=X=XrXpXaXpX*X/.I.I.I.D.i.y.0.*.*.*.$./ / / / / $.%.*.0.i.J.I.I.P.J.P.U.|.|.I.J.I.I.I.P.P.D.B.N.y.y.q.q.y.B.P.D.y.3.C.!.^.",
"3.B.P.H.y.2.y.P.).).*X).^.C.y.3.O.&.&.2.&.^ G D D W G G ^ ^ ^ ^ &.&.&.&.3.y.Z.C.H.P.P.P.).tXuXeXeXtXtXeXXX).).XX*X)./.!.P.B.u.y.!.).tXuXuXyXuXuXtX*X/.P.B.u.i.B.q.3.3.y.C.I././.C.P.P.B.3.&.&.*.0.9.0.p.a.S.i.u.B.M.r 5 v J 9 b p a s A R S a s r v s : o * = # # * 5 r p p r 2 r 2 # q a a y r X # = = ; y p 8 f f f f f d j C y r 0 9 q r q 0 : = ; w S ^.M.#.Q / 8.w.S.S.S.J.K.I.U.U.I.D.B.u.3.0.y.u.B.S.S.S.D.D.I.!.|.|.*X*X=X=X=X=X=X=X=X*X=X=XrX*X/.I.P.I.S.S.u.0.*.*.*.*.$./ / Q ^ / %.*.B.J.I.|.].I.S.u.I.U.U.J.i.i.J.|./././.!.!.P.P.P.B.N.y.B.P.P.N.6.N.C.!.",
"y.C.!.P.y.y.y.C.P.P.P.P.C.y.y.3.&.O.^ ^ O.O.^ E W W W W W G G E O.O.O.&.3.y.B.H.^.^.^.P.).uXdXtXeXtXtXeX/.^.^.).*X^.P.B.y.y.u.B.D.^.*XeX*X*X X*X!.!.P.B.y.y.i.P.S.C.C.H.P.I.P.P.B.C.J.y.&.O.&.3.u.p.u.i.a.i.y.0.1.6.Y q A ' u P d q p S Z p q y 5 8 ; O * ; ; # = o = 9 q p p w q w O 9 q q =   O 2 2 O O * ; 8 8 w q f f f e p p q 9 h 2 ; = * = 2 w 8 #.8.o.Y S Q O.2.u.S.D.G.a.G.J.J.S.i.0.3.$.$.*.2.3.3.3.3.0.u.S.I.|. X X|.=X=X*X*X*X X X X|. X X/.P.D.I.~.i.u.0.0.*.*.*.*.%.$./ / $.*.u.S././././.U.I.J.S.I.I.P.u.0.p.J.*X X X X X X X X X).P.C.D.!./.P.N.N.C.!.",
"B.P.P.J.y.y.y.C.B.B.B.y.y.y.3.2.&.^ W W ^ &.&.$.O.O.^ ^ ^ ^ O.O.O.O.O.&.3.M.H.P.tXtX).^.).tXuXeXeXtXtXXX^.P.!.^.XX!.B.6.6.y.B.J.Z.P./.)./.^.!.!.B.P.P.i.0.0.i.I.D.C.C.P.P.P.C.y.B.P.P.B.2.&.t.B.I.J.J.J.P.S.N.6.6.C.#.J ' k.9 s r y S S p s M w : @ O O : 8 p d w O * 2 = ; q 8 = d q q : ; ; O * q p 8 ; = O * 8 w q e f f f d f r 5 - ; 2 2 2 q 8 2 = Z.S J m f F $.0.S.I.G.p.p.i.S.S.i.0.2.*./ O.$.$.&.$.$.O.&.3.N.P./.|.|./.*X*X X|.|.|./././.|./.P.S.S.I.~.u.u.0.0.*.*.*.*.*.*.%.%.3.i.I.=X/.U.I.P.I.U.|.$XU.I.S.p.*.3.J.*X*X*X*X*X*X*XtXtXuX XP.P.). X^.D.C.C.^.",
"^.C.B.B.i.3.2.3.y.3.3.3.2.&.&.y.t.O.G W G O.y.P.y.y.3.t.y.y.2.&.O./ O.&.&.2.B.*XuXtXXX^.).eXeX).tXuXuXdXdXuXtX*X*X/.B.q.3.y.B.P.C.^.*X*X).^.).*XuX|.J.u.3.&.3.B.|./.I.P.P.!.^.).^.*X*X^.B.y.B.J.J.I./.|. X).^._.Z.R.k.,.H ` u r a p f Y q 9 p q * O : : 8 w : * O * # 2 8 v p 0 C d y 8 ; # 9 o * - 8 w 8 : * * * < w g e f j C q 9 q 8 q = 2 q r 9 g Z J m r 9 Q $.q.D.|.|.I.J.i.p.0.9.9.0.u.B.B.u.y.3.*.$.O.O.3.q.B.P./.|.|.|.*X=XrXrX=X=XrXpXtX*X|.~.I.I.I.I.I.I.I.D.S.u.0.0.0.0.0.i.I.|.|.I.U.I.I.P.P.J.J.S.I.I.J.B.B.S.I. X*X*X X X*XtXuXhXtXtXtXeX).!.C.Z.y.M.C.",
"C.y.y.C.B.y.t.y.3.2.2.3.&.O.&.t.y.&.E W G O.B.).).^.I.I.!.P.C.y.0.2.&.2.1.1.y.^.*X*X^.H.^.eXuXtXuXdXcXcXdXtX*XXX*X^.D.M.y.y.B.C.N.H.^.).XX).).$X).P.B.u.0.&.=.p.I.P.P.!./.*X*XtXtXtX*XI.B.i.C.P.P.^.).).).)._._.5X`.4X+.I u 0 5 q p f S p p a w - O = : 9 p r y p A Z y P s r v a v a r Z r v } Z 5 * q C p =   @ ; q e f f e f q 2 w 8 h q d p ; r C C p r Z o.2.0.B.I.~.I.I.D.J.s.i.u.u.i.S.P.~.I.D.N.w.3.*.&.0.u.S.I./././.!./.|.*X*X X X=XrX=X*X|.!.I.P.I.I.I.I.I.I.I.S.i.i.0.0.0.i.D.I.D.B.i.S.P.I.I.P.J.S.P.P.P.P.U.|.*X*XtXeXeXtXtXuXaXhXyXyXtXeX X!.D.Z.M.Z.P.",
"y.y.y.C.C.y.y.y.3.2.2.3.&.O.&.3.3.&.O.G G O.y.).*XtXyXtX*X*XoXoX/.P.B.y.3.1.3.M.!.P.C.B.!.tXdXdXdXdXcXcXuXeX).^.).^.P.C.y.y.y.y.3.6.M.P.).*X).^.B.u.i.i.u.2.2.p.P.P.P.P.^.oX*X;X*X).P.B.y.B.P.^.^.).).5X5X5X5X5X(.4X7Xk._ u 3 9 5 s s C a d d q 0 5 9 2 2 8 ; 2 r - c Z M H -.J s t Z J I M u 0 r C J v 9 2 8 q ; w w q p e g f f 8 w q ; p C 9 r d v v C Y +.>.N.B.D.~.|.I.I.D.].U.K.J.D.I.~.|.rX=X X~.P.S.u.u.u.B.I.|.|./.I.D.D.I././././. X*X*X*X|.~.I.P.P.P.J.I.I.I.I.P.D.S.0.0.0.0.0.0.2.*.*.3.B.P.^./.I.I.P.D.P.|.yXhXgXuXuXuXhXhXhXhXhXdXhXdXuXtX*X^.P.C.C.H.^.",
"y.y.i.P.C.y.y.y.y.3.3.3.2.&.&.y.&.2.&.O.^ ^ 2.C.P.^.*X*X*X*X;XuXpXtX*X^.B.q.2.2.M.M.M.M.!.tXuXuXtXtXuXuXtX*X^.!./.^.!.P.B.3.&.O.o.^ #.3.C.P.P.i.3.0.u.J.i.0.2.y.J.J.H.C.C.B.B.B.y.y.2.2.3.y.H.P.^.(._.4X5X6X9XqXzXlXlX6X-.b 3 6 2 v s v p a d C 9 9 a p r p 0 r t N J P b H ` ,.,.H | -.| ` Z s 0 y 9 ; 9 v d 8 q p q w p e g d w : : g q m d q 0 E 7.4.{ o.;.>.q.N.D.~.|.|.I.K.$X|.].U.I.|. X XyXrXtX=X X|./.~.S.I.|.*X*X/.P.B.B.D.I.I.I.I./. X*X X|./.I.I.P.P.B.S.D.P.I.I.P.D.0.0.0.*.*.%./ ^ / $.3.N.P.).*X*X/.P.P.*XhXMXvXhXhXcXvXbXbXcXhXdXcXcXhXtXeX).^.!.).).*X",
"i.i.C.H.M.2.2.y.B.y.y.y.t.2.3.i.3.y.B.y.&.&.&.y.2.y.P.^./.$X;XgXgXgXhXtX).C.6.$.2.6.y.M.!.eXeX)._.XXeXeX*XXX^.!.^.^.^.P.y.&.^ G D z z G O.2.&.O.O.$.0.i.i.3.*.3.i.B.y.y.y.3.2.2.2.&.&.2.y.i.B.C.(.4X4X6X6XqXqXlXCXqXlXT.c.b b t t Z v M p q s T q 9 r r a C v v B N c K -.4X4X(.| | ,.v.c.] t b s s v d a r r p y f a p d f p p w , O 8 p p q C m M.bXzXZ.>.;.+.@.2.N.I. X|.|.U.|.[.|.].|.|. X X=X=X=X=XrXrXrXrX|. X=XrX=X|.P.S.S.P.I.I.I.I./.|.*X*X X|./.!.I.P.S.S.I.I./.|.I./.S.S.B.u.0.*.$./ / O.&.3.C.^.tXhX*X^.P.*XhXvXvXcXhXcXbXbXbXcXcXhXbXcXcXuXtXeX*X).uXuXuX",
"P.C.H.C.y.&.&.y.B.y.y.B.y.3.y.B.C.P.).^.H.y.y.y.3.y.C.P.^.).*XtX=XyXuXtX*X^.M.&.&.7.6.y.C.).XX^.^._.XXeX*XXX^.!.P.^.!.P.B.&.^ G d f e f W ~ ^ E / / &.3.3.&.%.3.y.y.y.y.y.y.y.y.y.B.B.C.C.P.P.!.qXqXwXwXqXqXwXVX6X8X3XE.b.] K c c J C Z s q s T J a 9 ; 0 v a s b n ..| ` -.4XW.0X0XE.<...,.] I N Z J J C a q 8 m d a f f d d f f e * = w 8 q #.k.iXSXbXiX(.k.{ #.8.w.S.~.|.|.|.[.[.|.|.|.|.|.|.|.|.*X=XyXaXhXjXrXpXpXpXrX*X/.I.!./.|.|./.~.|. X=X=X=X=X X|.~.I.I.U.|.=X=X-X-X-X|. X X|.D.u.p.0.*.&.&.2.y.P.*XtX*X^.P.).tXhXhXhXhXcXcXcXcXcXcXcXbXcXcXuXuXuXuXuXcXcXcX",
"P.P.H.B.2.O.&.y.B.y.y.y.y.3.t.B./.).).).^.I.!.P.P.P.P.^./.^.^.P.I././.!.^./.H.t.&.&.&.1.M.^.0XXXXX0XeXtXeXXX^.!.C.P.!.!.C.y.&.^ W z f z W E ^ / $.$.%.2.=.&.=.p.B.C.P.^.).)././.^.oX*X).^.).tXcXFXDXZXCXVXBXBXBX8XVXE.6Xl.,.K c A T J J v c c C +.Z a 2 0 c v Z u V U _ E.h.h.W.6X0XW.b.<.W.b.b 3 u v a r r r r Z a y p r d C f e q 8 : 8 q R eX5XbXUXcXmX5X(.Z.6.q.w.u.S.I.].|.[.[.|.|.|.|.|.|.|. X*XtXpXgXjXcXjXjXgXpXrX=X*X*X=XtXrX=X X|. X*XrXrXrXrX=X X/.~.|. X=X-XsXsXsXsX-XsXpX-X|.I.P.P.B.M.y.y.M.Z.D.P.C.P.!.).eXyXyXyXuXuXuXuXaXcXcXcXcXcXcXuXuXhXcXcXcXcXcX",
"P.P.C.y.1.O.2.B.B.y.y.y.6.2.3.B.*X).!.P.^.oX*X*XtX*X^.^.^.P.Z.y.C.S.Z.M.C.^.^.Z.&.&.O.O.3.!.tXuXtXtXuXuXtX*X^.P.Z.C.!.^.P.B.0.&.O.~ G W E O.&.3.3.2.3.f.0.3.p.J./.*X*XtXuXuXyXyX*XeXtX*XXXtXbXLXPXPXGXDXVXBXBXBXwXBX8XE.b.,.-.I J ' J T J J v r T Z v 0 3 9 t b ] U [ 9XVXlX8XqX3XqXc.W.E.l...] H s r a r 2 9 v m q y d g f C q p e d q 8 q 7.uXcXbXnXiXiXzXiX5X`.C.N.w.y.S.~.$X|.|.$X*X*X$X X X*X*XtXrXaXgXcXjXMXvXjXaXpXrXyXrXpXaXaXpX=X*X*X=XrXpXpXpXrX*X|./.|. X=X-X-XsX-X-X=XsXpXsX XI.I.~.^.!.P.C.B.y.6.3.3.M.!.*XeXtXtXtXuXtXtXtXuXaXcXbXcXcXhXhXhXcXbXbXcXcXcX",
"!.P.Z.y.3.1.&.&.&.&.3.6.y.y.q.6.6.N.P.P./.tXyXtXtXtXeX*X XP.y.&.&.&.&.3.y.Z.Z.Z.2.6.q.6.M.^.tXuXcXuX*X/.).*XtXuX/.^.^.^.^.P.B.y.i.3.O./ O.&.2.3.J.S.i.i.i.S.P.I././.oX*X=X=X*X*XeXdXtX5XzXSXGXPXGXJXJXZXDXBXBXVXwXwXE.h.` I H c ` ' Z } A a a r C ' Y I M c c ] _ b.6XwXwXVXZXAX3XZX3XVXCXl.h.U >.C p ; - 9 M a p p p f S C L C M M y : : f #.N.uXuXiXmXiXxXlXzXiX_.R.M.6.6.C.).^. XyXaXaXtX X/. X X*X*XtXuXaXhXvXvXvXbXcXhXaXyXaXgXgXpX=X X X*XaXgXgXaXpXtX*X XI.I.I.I.I./.|. X=XrXyXyX=X|.I.S.!.!.!.P.D.B.Z.N.P.^. X*XeXyXcXbXbXbXcXuXuXuXcXcXuXcXcXcXhXhXcXbXtXtXtX",
"!.C.N.y.6.3.1.&.#.@.1.6.y.M.y.y.Z.P.).).*XtXtX*XeX*X/.^.^.P.y.1.&.@.#.O.1.y.N.Z.M.D.P.Z.N.P.*XeXtX*X).).;XfXgXuX$X^.P.P.^.^.I.P.P.p.$.^ ^ $.3.0.P.S.B.B.S.P./.|.I.!.P.P.I.U.|.|.).XX_.4XqXZXGXPXPXGXZXDXDX8X8XVXwX8Xb...I H N s  .| ` T J a f a p P Z I H B V ] ..lXVXwXwXKXAXZX8XAXlXlXlX6Xb.` v q f s s s Z s r p q A S Q E S C s 9 8 5 9 C @.~.iXnXzXzXlXlXlXzXiX5X(.Z.k.k.M.mXuXcXaXyXtX=X XeXeXeXeXeXtXtXtXcXcXcXcXcXhXaXyXaXgXhXpX=X X X*XpXpXaXpXrX=X*X|.I.P.P.D.D.P.I.I.~./.|.|.|./.I.P.B.C.P.!.^./././.*XeXuXuXyXuXaXcXhXhXhXhXhXcXcXcXuXcXcXcXuXuXuXcX*X*X*X",
"P.C.M.M.M.M.3.&.#.&.3.M.B.D.C.C.!.*XtXeXtXtXeX^.!.C.M.Z.P.!.C.M.6.1.O.O.&.y.B.P.!.*XeX!.B.C.!.).^.P.P.*XhXvXhXtX*X/.P.P.^.*X*X*XI.u.$.Q ^ $.3.u.S.B.B.B.S.I.|.*X/.!.B.y.y.u.S.P.P.C.R.W.6XVXGXJXJXJXDXZXBXZXBX8X8X3Xz._ B b c u  .| k.' T v d f f d 9 ' ,.] |  .8XwXE.8X6XZXlXPXlXxXSXAXzXl.-.,.R S S C Y J J v q p q S E 2.2.E P M q q p g j Q 7._.bXbXzXzXlXxXzXnXnXiX_.V.k.5.mXnXvXaXtXyXtX*XtXtXtXeX*X*X X XaXaXhXhXhXhXaXuXaXgXgXpX*X|.|. XrXpXpXpXrX=X X|.!.I.D.S.B.N.B.B.N.B.B.S.D.P.P.P.N.B.P.).*XtXtXtXtXaXcXhXuXeX*XeXtXtXuXhXcXcXbXbXuXuXhXuXtXeXeXtX).).).",
"!.C.Z.Z.D.C.M.3.1.3.M.C.P.!.!.P.^.eXyXtXtXtX*X!.y.3.&.3.D. X*X).^.D.M.M.B.P.^./.).yXhX).Z.Z.P./.P.P.^.tXvXvXgX$X).^.P.P.^.).$X).J.y.&./ / &.y.B.u.u.u.u.S.I.|.=X*X/.B.t.&.*.y.B.M.M.T.E.3XZXJXGXZXJXDXBX3XDXDX8X8Xb...K n u y u T -.5X+.-.A d f f C v ,...c :.E.3X6X<.V ] 0XlXFX9XSXSX(.j.c.W.V.#.o.#.o.;.E C q q q d C 1.M.!.o.S P d w f F L E { Z.uXxXzXzXlXlXiXnXxXzXiX_.R.x.!.tXnXuXyXaXyX*XtXtXtXtXeX*X X/.tXyXuXaXhXaXuXyXpXaXaXyX*X|.|. XrXrXrXrXrX=X X|.|./.I.S.B.N.u.u.y.y.y.u.N.B.S.P.B.C.!.).*XeXtXtXeXyXhXhXtX).^.!.eXtXuXcXcXcXcXcXuXuXuXtX).^.).)./././.",
"!.P.C.D.!.!.P.B.y.M.Z.C.D.P.D.C.!.*XtX*X*XeX*X!.y.3.&.3.C.*XtXyXuXtXeXeXeXeX*X).^.tXyX^.Z.Z.!. X^.^.).uXhXhX*XP.^.^.P.I.^.^.P.B.y.p.3.2.2.0.u.S.u.u.u.B.P./.=XrXfX;XP.y.&.O.1.6.6.V.T.b.3XHXPXHXJXDXBXwXm.8XBXZXE.z.[ B t t t u T :.iX+.@.Y C C P o.T :.I t h.9Xb.b.| 6 N T.xXGXFXbXv.A a } (.5.5.@.+.P E A S D p e C D 6.Z. X&.Z P f 8 f Q %.#.#.N.iXnXxXxXxXlXzXxXnXiXiXiX5X!.M.!.).eXuXaXtX).*X=XtXyXyXtX*X*XtXtXyXpXuXyXyXtXrXpXpXrX*X|. X*X=XtXrXrXrX=X*X X=X*X|.I.P.S.S.S.N.N.N.N.N.B.S.S.N.Z.C.P.^.).*X*X*XtXaXaXtX*X/.^.tXuXhXhXhXhXuXyXyXuXyXeX^.P.P.P.^.^.^.",
"P.P.P.P.P.P.^./.D.C.Z.N.N.N.Z.Z.!.).*X).).*X*X^.!.C.N.Z.P.).eXyXhXhXhXcXbXhXeX/.!.*X*XP.M.C.).eX*X*X;XyXuX*X/.P.^.!.P.P.P.P.y.3.0.u.B.B.i.u.i.B.S.S.S.S.I.|.rXpXyX;X/.B.&.O.&.3.5.c.b.b.6XGXPXHXJXDXBXBX8Xm.3XwXb.:._ b u t t s } 4.(.T R Y Z E ' 4.-.:.,...6XqXlXb.<.6 y N <.W.0Xv.A y 6 P _.Q.>.+.;.;.5.+.Y f f z j L 7.C.!.6.E S f f C o.q.N.0.D.mXiXzXxXSXCXSXSXxX5X5XiXiX_.k.k.N.).uXaXeX). X*XrXaXaXaXyXtX*XtXtXrXrXtX*X*X*X=XrXrX*X*X*XtXtXrXrXpXpXrX=X*XrX=X*X|././././.P.I.I.I.I.I.I.P.N.M.M.M.Z.P./.*X*XtXhXhXuXtXeXtXhXhXhXhXdXyXtXeXuXuXyX*X!.C.Z.B.!.!.!.",
"C.D.P.B.M.B.^.tX).!.C.N.M.Z.P.!. X*X*X^.^.).*X/.*X*X).^.!./.eXuXaXhXcXbXMXbXuX*X^.).^.Z.M.!.eXuXtXuXuXtX*X^.^.^.).I.P.P.J.C.y.t.i.J.I.I.S.B.u.B.B.B.i.B.J./.*X;XI./.).J.3.&.1.5.k.k.l.b.qXAXHXHXZXDXDXBXBX3Xb.z.z...U B u t u v | j.k.E J Y Z o.' 5.k.l.T.l.qXZXSXqX4Xi o $ 3 7 & & - X $ +.nX0XR.4.5.4.1.#.#.Y z W z D 1.6.M.M.#.S C L F / q.D.N.`._.(.5XzXxXSXSXSXxX5X5XiXuX_.R.6.1.C.tXuXeX*X*XtXpXhXhXhXuXyX=XtXtXtX=X*X X/.|. X=X=X=X=XrXpXrXrXpXpXaXpXrXrXtX=X*X*X*X*X=XrX|. X=XrXrX=X=X*X!.D.M.6.6.M.D.!.eXtXuXuXtXtXtXuXcXhXdXuXtXtXtXtXhXhXuX*X!.Z.M.M.H.H.H.",
"M.C.C.M.6.y.!.yXyX*X!.C.C.!.).eXtXtX*X^.!.).*X).*XtXtX*X/.).uXcXuXaXcXbXNXNXcXaX*X*X!.M.N.^.yXhXtXgXhXtX^.P.!.).*X^.J.B.B.B.B.B.I./.|./.J.u.u.i.y.p.0.p.u.S.I./.i.P.^.P.y.2.4.k.v.j.<.b.wXZXZXGXZXZXZXBXZX8Xm.z.h.[ K B c t u M ' j.;.' J E Z o.Z.4.| | T.h.b.wXCX3XqXb.B 5 4 c c $ 6 0 y >._.9X:.,.Q.v.o.Y @.&.D W W j y.#.M.M.O.D D G D ! 0.w.A.D.`.V.V.(.zXxXCXSXxX4X5XnXnX5XiX6.@.M.eXtXeXeXtXyXhXcXcXhXuXtXtXtXtXtX*X X/.!.!.|.*X=X=X=XyXaXrXyXpXaXaXpXpXrX*X*X*X*X=XrXpXpX X=XpXjXjXjXaXyXyX).B.6.1.3.y.Z.*XeXtXeX*X X*XtXcXhXuXtXeXtXyXyXhXhXuX*X!.Z.M.M.Z.Z.Z.",
"Z.Z.Z.M.3.&.y.^.).^.!.P.!./.*XeXtXeX*X*X*X).!.C.).eXuXaXyXtXuXhXaXyXtXtXaXhXhXhXcXeX^.!.!.!.*XhXtX*X*X*X).).$X*X*X).P.P.J.P./.*XU.|.|.U.B.y.p.y.0.u.i.B.u.u.u.i.J.u.).^.B.1.4.,.j.h.b.6XwXqXBXGXBXwX8X8XwXwX3Xz.[ ] H b c t y A ' 4.Y J J E o.+.4.,.>.b.3XqXh.wXwXZXKXAXZXb.<.b.] _ | c.E.c. .W.T.E.T.#.o.o.1.@.E F G z E ^ @.H.3.C D j j G w.*.A.~.N.7.Z.V.zXzX9XSXCXxX9X4XzX5XiXZ.4.o.C.cXuXuXcXgXpXpXpXpXrX*XrX=X X/.|.*XrXpX*X=X=X=XtXrXrXrXrXyXpXpXaXaXgXgXrXrXrXrXpXaXjXvXpXpXpXpXgXvXMXNXaXtX*X^.P.D.C.C.^.).*XtXtXtXtXeX*XyXhXhXhXuXuXdXtXtX*X/.P.B.C.P.Z.Z.Z.",
"N.C.P.D.y.1.3.M.P.!.^.).).).^.^.*X).^.!.!.P.C.N.C.^.tXhXhXhXhXhXuXeX^.!.^.*XtXtXeX).^.).).^. XtX*X$X).^.^.^.^.).*X/.P.P.P.P.^.oXI.I.J.B.y.0.y.y.S.I././.P.S.B.B.S.B.^.!.H.4.5.l.,.b.6XqXwXZXDXZXVXBXwX8X8X8X3Xz.] _ V c s 0 r Z +.o.Z J Y { ;.4.k.4XV.4X3XwX..6XBXDXGXGXGXGXwXwXE.ZXGXKXGX8XT.9XqXl.` >.@.2.@.D / F G f O.G &.M.y.E j e z ! *.%.0.G.q.q.@.4.T.5X4XSXSXCX4X4X5XiXiXR.4.o.k.tXuXhXhXpXrXrXrXrX=X X=X*X X X*X=XyXpX=X=X=X=X=X=X=XtXrXrXrXyXpXpXaXaXtXtXrXrXpXaXjXjXrXrXrXrXpXaXjXvXhXaXtX*X/.P.C.Z.^./.*XeXtXtXeXeX*XtXdXdXuXtXtXyXeX*XXX!.B.y.M.Z.P.P.P.",
"M.P.).^.C.y.3.&.M.C.^.*X*X/.P.Z.!.P.B.Z.B.B.N.y.M.P.eXhXcXaXtXeXtX).P.C.P.!./.).!.P.^.*XeX).^.).*X)./.^.^.^.).).).^.I.P.P.!./.oXJ.B.0.2.3.0.y.u.|.=XrX-X|.I.S.S.B.B.P.H.(.v.v.c.c.E.qXZXDXAXDXDXZXVXwX8X3X3Xb.z.] _ B n u 0 r v o.Y d A Z S R +.R.V.E.6X3XZXm.z.BXGXGXGXGXPXZXwXwXKXKXAXGX6XqX6Xh.-...T.;.@.2.O.Q E G z #.z } v.&./ D f F F ! ( w.0.q.q.#.4.k.4X4XxXxXCXW.9X(.iXiXQ.;.+.4.!.cXhXpX-X*X*X=X*X|./.|.|.$X*X=XrXpXpXtXtX=X=X=X*X*X*X=X=X=XrXrXpXpXpX=XrXrXpXaXaXgXgXrXrX=X=X=XtXrXyXyXyXuXtXeX).!.P.^./. X*X*X*X*X*XXX*XtXtX*X*X*XeX*XXX/.P.M.t.6.y.Z.Z.B.",
"N.!.*X/.!.D.y.1.6.M.P.).).P.M.6.y.y.y.Z.D.P.B.M.B.!.*XtXuXeX).^.*X).^.!.^.^.!.P.B.Z.P. X*X/.!.^.*X*X*X).).*X*X*X$X).).)./.).).oXP.u.*.&.2.y.B.B.|.*XrX-X*XI.J.S.B.S.Z.Z.(.k.v.c.E.8XwXZXDXDXDXGXDXZXwX8X3Xb.b.z.[ K b u t 9 0 a Z v v Y m S { 4.x.R.SXwX3X8XBX3X8XZXDXDXDXPXZX6XCXGXGXZXHXlX6Xl.b.h.c.4.k.7.2./ ! / F G E z Y 6.&.Q D j F k F $.w.Q 0.%.7.4.V.(.5X9XzXzX4XzXR.5XiX(.>.@.@.M.uXuXrX=X X|.$X|./.I.I.I./.|.=X=X-X-XrXtX=X=X*X X X|.*X*X=X=X=XrXrXrX=XrXpXpXaXaXaXpXpXrXrX*X*X*X*X*X X X*XeXeXeXeX*X/.).). X*X*X*X*X).*X*X*X)./.).*X*X*X).P.B.y.t.t.B.B.B.",
"D.!.^.!.!./.!.Z.y.M.B.D.C.Z.y.6.&.3.y.P.).).^.P.P.P.!.^.). X).).*X).!.!.!.^.!.P.C.Z.Z.P.!.P.!.).*X*X$XoX$X*X*X*X*X*X*X*X*X*XoX).I.i.3.2.0.i.S.S.S.P./.|.I.P.S.S.B.P.Z.Z.Q.,.l.c.3XwXZXBXVXGXGXAXGXZXwX8XE.b.z.z.[ V n u 0 5 9 r r y m S v L ' ;.(.xX6X<.8X8X3XwXwXBXDXZXGXGXDXqXGXGXKXHXCXVX8X6X6Xb.c.' k.N./ Q / / z G ~ D W o.y.D e z j k F %.%.! *.%.8.;.5.V.4XW.qX9X6X9XW.4XiX_.v.5.+.@.0XuXrX=X X X X X|.I.S.D.I.I.|. X$X%X=X=X=X*X X|.|./. X X*X=X=X=XtXrXrXrXyXpXpXpXpXpXhXaXyX=X*X*X*X*X).).).). XeXtXuX X).).). X X*X*XXX*X*X*X/.^.).XX*X*X*X).P.B.y.M.P.P.P.",
"!.P.Z.Z.P.).).!.B.Z.N.M.M.y.y.y.1.3.M.!.eXtXeX).C.N.M.Z.P./.*X*X*X!.B.M.Z.D.!.!.!.B.y.M.N.Z.P. X/.^.^.^.^.).*X*XtXtXtXtX;X$X^.P.I.J.B.i.i.B.S.S.0.u.B.S.B.i.B.S.S.I.P.H.R.<.c.b.qXBXZXZXZXDXGXGXGXCXwX8X3Xb.h.h.[ b n t 5 2 8 8 9 9 r d p Z J ' iXSX4Xh.X.z.m.GXBXwXwXVXGXDXAX8XGXAXZXlX3XqX3XlXb.z.l.,.5.C.G Q / Q G F ^ D Y Y &.j e G k k F ( ( $.*.0.o.@.;.c.V.T.6X9X0X4X(.9X5X0X_.T.#.o.Z.uXyX-X=X*X=X=X|.I.S.S.D.P.I.I.|.|.*X*X*X X|.|.|.|. X*X*X*X=X=XrXrXpXpXrXrXrXrXpXaXjXgXpXrX=X*X*X*XeX*X X).).*XeXtXeX*X*X X X*X*X*X*X;X*X*X)./.oX*X;XyXyX;X).P.P.P.!.P.P.",
"!.M.3.q.C.!.!.!.!.P.C.N.M.M.Z.C.M.M.Z.!.*XtXyXtXZ.y.6.y.C.^. X*X^.P.M.y.M.C.P.!./.C.y.q.q.y.D.).^.^.^.^.^.).*X*XtXtXyXtX*X^.C.B.I.U./.U.P.B.u.y.0.y.u.y.y.y.B.S.B.^.^.).R.<.3X3XVXBXZXGXGXZXZXGXGXwX6X6X8Xb.h.:.] b u t 2 ; 2 ; 8 ; h y f L T x.PXzXb.b...z.3X8Xn.n.b.6XwXVXZX3XlXwXwXqX6X4Xb.h.z.h...h.k.!.9.F Q G Q F G G E S W j z Q j k j ! ! w.*.0.#.@.>.k.j.b.E.qX0X4X4X9XiXiXiXQ.6.@.5.).aXsX-X-X-X-X=X|.I.P.D.D.D.I.].|.|.|.|.|.|.|.|.|.*X*X*X=X=XrXrXrXjXaXrX*X*XtXaXhXjXgXpXrX=X=X*X*XeX*XeXeXeXeXtXtXtXtXeX*X*X*XeXeXuXuXyX*XXX).*X;X*XtXuXyX*X).^.^.^.^.^.",
"!.6.&.3.Z.C.C.P.).^.P.C.B.C.D.P.P.C.B.D.^.eXuXaXD.N.y.y.Z.P.!.P.P.C.Z.B.P.P.!.P./.C.y.6.6.6.B.^.).).).).$X*X;XtX*XtXtX;X*XP.y.0.P./.=X*XI.u.0.0.u.u.u.y.0.y.B.J.i.~. XtXQ.,.9XqXwXZXHXJXGXHXDXDXAXwX8X6X6XE.h.-.] c t 9 2 - 2 - 8 - ; 0 0 p C Z.KX6Xl.h...U _ [ h.n.n.8Xb.3X8Xb.E.3XE.b.E.c.W.h. ...[ +.>.!.LX0./ G F G D &.G l F x j F x x k j F ( Q Q %.#.7.;.4.c.j.zX9X9X5X5XxXiX0XR.T.v.;.B.hXaXrXrXrXsX-X%X|.I.P.S.D.I.|.|./././.|.|. X X X*X=X=X=XrXrXrXyXvXgXtX X X=XpXjXaXpXrX=X*X*X*X*X/. XeXuXhXhXhXaXuXtXeX*X*X*XeXtXhXhXdXtX*X*X*XyX*XtXuXuXtX*X).).C.C.C.",
"Z.B.B.Z.M.Z.C.P.^.^.^.^.^.!.P.P.!.J.Z.P.).tXuXuX^.P.B.3.&.&.&.2.y.C.P.P.C.C.^.*XP.^.!.y.&.O.2.B.tXhXjXfXuXuX*X^.P.).*XtX*X^.C.y.P.^./.^.S.y.*.&.2.y.B.i.y.y.S./.D.D.).tX5.xXSXlX3XwXZXDXGXGXDXCXwXAX9X3X4Xc.h.| H b a 9 2 - - - - $ 2 2 r v v 4.CXzX] K V V V U ....b.h.z.h.h.c.l.h.c.,.j.v.,.-.c :._ ' V.cXLX!.E ^ R W ^ 2.G e 1 x j ! ! x j F ! / Q Q Q Q Q 8.M.5.R._.W.4X5XxX4X4XzX4XV.5.+.;.).hXyXtXMXjX=XsX X|.].I.I.I.~./.*X*X*X*X=X=X=X=X*X=XtXrXrX=X=X*XrX=X*X X*X=XrXpXaXpXpXrX=X*X X|.*XeXtXhXcXbXbXbXcXhXaXyXyXuXaXhXhXuXyXtXtXuXhXhXuXuXyXtX*X).^.P.y.y.N.",
"Z.Z.Z.B.C.D.D.C.P.!.^./. X*X*X*X*X^.P.^.$X*X;X*X).^.P.y.3.&.&.&.y.B.P.C.B.B.P.*X^.$X*XP.3.2.y.P.tXjXvXhXhXhXuX*X*X*X*X*X*X).^.P.*X*X*X).P.B.2.$.2.y.C.H.B.B.P.*X X!.!.!.5.KXKX9XqXlXDXHXGXGXDXVXwXlX6X4XE.l.:.] Z b a 0 2 2 - - 2 # 2 2 9 s b ,.SXzX,.,._ n u I K _ ......<.,.c.h.| | | -.| I I -.I P | V.v.uXuXS R R E E E D e k x j ! x x x ! Q $./ O.Q $.O.*.6.5.R.!.R.5XzXxXzX5X6X4XW.R.>.+.v.eXuXtXhXgXsXpX,X=X X].I.I.^./.*X*X*X*X=X=X=X=X*X*X=XrXpXpXrXrXpXpXpXpXrXrX=X=XpXpXpXyXrXrXrXtXtXtXyXaXhXbXbXMXcXhXhXuXuXuXaXhXyXtXeXeXeXtXyXuXdXuXuXtX*X^.P.C.2.3.3.",
"D.B.N.C.!.^.!.D.C.C.P.P.^.). X*X*X).^.).*X*XtX*X*X*X$X^.P.i.3.2.3.y.B.B.y.y.H.^.*XtXyX*XP.C.P.*XtXhXhXhXjXvXhXuXhXuXtX*X*X*X;XtXgXtX*X*X$XP.y.&.&.y.P.^.^.^.*X=X X X/.C.#.KXPXwXwXwXZXHXHXZXVXwXqX6X6XE.c.l.-.T Z b u 0 2 3 - - 5 * 3 = 2 r c ;.E.iXE.h.I H V H H I `  ._ -...l._ I | ` P H I <.H T | P ' R.cX).C z f G G z z e x F k j k k j ! Q / / $.Q O.$.8.6.6.Z.V.V.9XzXxXzX9XiX5X4XW.k.,.#.!.uXtX=XrXgXgXkXpX=X|././.|. X*X*X*X=X=X=X=X=X*X=XrXpXaXaXaXpXjXjXcXjXgXyX=X XrXrXrXpXpXpXaXhXpXyXtXyXuXhXbXbXhXaXuXuXtXtXuXuXtXeX*X*X*XeXtXtXhXhXuXeX).P.B.M.&.1.3.",
"^.C.y.Z.!.)./.!.!.P.P.D.D.D.P.P.P.P.P./.*XtXuXuXtXrXuXuXyX*XP.B.y.y.B.y.y.y.C.P.uXhXhXuX*X).*XyX*XyXhXjXhXjXfXyXfXuX;X*X*XtXtXuXhXuX*X*XtX$XB.2.&.y.P.XX*X*XtXuX XtX XM.' FXPXVXwXwXBXDXDXVXwXwXqX4XqXT.,.l.+.H v c u 0 2 2 - - 9 = = # = 2 u | >.4XE.| U  .` b n b b B c V H `  .I ` N I I I A c A I ;.@.^.M.C.G D e W F z G x F ! k k 1 1 k F ! ! Q Q F Q Q o.1.@.k.k.v.5XzXzX6X9XzXiX4XQ.v.v.#.M.eXuX*XtXjXpXjXgX-X X|. XtXyX*X=X=X=X=XrXrXrXrXrXpXaXgXaXpXpXjXjXjXjXaXyX=X*X*X=X=XrXpXaXgXhXuXtXeX*XeXyXhXbXyXyXtXtXeXeXeXeXeXeXeXeXeXeXeXtXcXhXuXeX^.H.M.t.3.6.y.",
"*XP.y.y.D./.).^.)./.!.P.P.P.P.!.B.C.P.P.^.*XtXuX*X*X;XuXjXgX*X^.P.P.P.P.P.P.^.oXuXjXjXjXtX*X*XtX*X*X;XyXyX*X$X).*X*X*X*X;X;XtXtXuX*X*X*XyX*XP.y.O.3.C.$X;XtXuXuXyXtX^.5.+.xXKXCXwXwXVXDXHXZXVXCXlXW.4XE.j.h.` J v s y 0 8 2 - - 9 - # $ & = 0 T k.k.,.] ..| I H B N H N K H  .| N H ,.A A y B N I T T k.M.M.C #.G W e z f e / / ( ( x x k k k F F F F ! D G E E @.R ;.7.k.R.4X6X4X5X6X9X4XW.T.v.4.4.!.uXtX=XpXsXgXsX-X=X=XrXaXhX=X=X=XtXtXrXrXrXaXgXgXgXaXpXrXtXaXpXrXrXrXrXyXpX|. X*X=XrXpXpXaXyXtX*X). X*XtXuXeXeXeXeXeX*X*X*XtXtXtXuXyXyXyXtXhXhXyXeX/.P.M.y.y.M.Z.",
"*X!.Z.M.C.!.^.^.P.C.B.Z.C.P.!././.).^.P.J.P.^.*XP.P.P.).tXuXtX*X*X*X*X*X*X*XtXuX;XuXhXgX;XoX).).^.!.^.*X*XI.P.P.P.^.).*X;X*X*X*X*X).$X*X*X).H.y.O.&.y.P.*X*XtXeXtXeX).@.+.4XSXCXlXVXZXHXGXDXDXZXxXE.E.W.c.| J I s a r 0 9 2 - - 9 ; # $ # $ 2 Z l.,.| _ ,.>.] | ] ]  .] :. .,.>.>.H T M T Z P P ' >.4.' 6.7.Y S d e : 1 e x 9.*.r.( x x j k k j F F F G D G Y E o.Y o.5.k.V.T.W.E.4X6X9X4XT.T.V.V.1.M.eXtX=XrX-X,X,X,XsXpXaXhXjX=XtXtXrXrXrXrXrXjXjXjXgXaXrX=X*XrX=X*X*X*XtXpXgX*X*X*X=X=XtXrXtXtXtX*X X X*XeXeXeXtXtXtXtXeX*X*XuXuXdXhXhXhXdXuXuXuXtXeX).!.C.Z.y.M.Z.",
"^.!.P.D.C.C.C.C.y.y.q.y.M.D.^. XhXuX*XP.B.i.P.^.P.B.y.C.).tXyX;XuXtX*X*XtXyXuXuX).*XtX*X).P.C.B.C.B.J.^./.P.C.P.H.P./.*X*X*X*X*X^./.).).^.P.y.3.^ O.3.B.^.$X*X X*XeX_.T -.E.qXwXlXZXZXZXZXZXZXlX9X(.c.E.l.` H H a a r q 9 2 - = 2 ; # # #   = s } 4.:.Z -.,. .>.k.c.k.V.R.V.Q.T._.v.5.} R P T -.-.} ;.} @.o.@.@.z < < j G *.G.w.u.9.x x x j k k F G F G D G F R o.Y #.4.k.T.V.k.T.4X5XiX4XT.Q.R.k.>.6.!. X*X-X-XsXsXpXpXaXaXaXpXtXrXrXrXrXyXpXyXaXaXaXaXpXrX=X=X*X*X=X=XrXrXpXpXrXrXrXrX=X=X=X*XyXyXtXtXeXeXeXeXuXuXhXhXhXaXyXtXyXuXhXhXcXhXdXuXtXtXtXeX*X).^.!.M.Z.B.",
"D.!.^.^.P.B.M.y.Z.M.M.M.B.!.).eXbXhX;XP.i.y.P.).P.B.y.y.^.tXuXuX;X*X*X*X*X*X*X*X^.).*X*X^.C.y.3.y.y.B.^./.P.J.!.P.P.^.).*X*X*X*XP./.).).P.y.2.&.^ O.&.y.P.^./.^.tXeXR.M ,.W.9X3XwXCXZXlXwXlXwX6XW.6Xc.j.,.` J s a p r q 9 2 - = 2 ; # # #   & y T j.j.M ] ` H -.| ,.-.c.V.T.Q.T.(.R.v.5.>.v.+.} +.} -.@.Y o.M.3.z 1 j ! / =.9.$.{.u.F F F F j j z G D D D S D E R R ;.4.k.R.V.h.(.4XE.5XzX0X_.c.>.>.7.M.!. XrXsXsXpXjXjXhXaXtXeXrXrXrXrXyXpXpXpXrXrXpXpXpXpXrX=X X*XrXpXpXpXrXrXhXgXaXpXrX=X*X*XaXuXuXuXyXtXeXeXhXcXbXbXbXcXhXaXtXuXhXhXhXhXuXyX*XeXeXeXeX*XXX).C.C.P.",
"!.^.).*X*X).!.P.P.D.D.!.).*X).!.).*XyX*XP.B.P.^.*X^.P.P.P.P./.tX*X^.P.P.$X*X^.P.i.B.C.P.P.P.P.H.P.P.P.P.P.$XtXuX*X*X*X*X*X*X*X*X*X).I.P.P.P.P.P.C.y.&.&.y.P.^.^.eX_.>.Y R.4X3XwXwXVXZXCXZXZXCXqX4XR.R.c.+.I Z a a a r 9 9 9 2 # 8 = # * = % # & 0 -.V.` M I ` N U c Z J a a Z M s P R @.} R P Y S R ^.v.6.6.1.Q e D / p.w.9.u.9.r.( F ! F F j k G D G F F Q E L o.R @.;.+.#.>.l.4X4X4X6XzX4XT.Q.V.V.6.3.P.tX X*XsXpXaXaXpXrXtX*X=XrXpXpXpXpXrX=X*X=X=X=X=XrXrXrXrXpXjXjXpX=X X X*XrXpXaXpXrX X/.tXtXyXaXhXhXcXcXcXbXvXvXvXhXuXtXuXtXeX*X*X*XeXeX/.XXeXtXtXtX*XXX)./.^.",
").*XtXuXuXtX*X X X)./. XeXeX*X^.P./.*X).P.B.C.P.*X*X*X*X*X$X*X*X^.P.C.P.).*X/.P.P.P.P.P.P.J.C.C.^.I.P.!.).*XuXhXtXtX*X*X*X*X*X*X*X*X*X).^.^.^.^.P.y.&.&.3.C.P.P.C.Z.' J l.W.3X3XwXVXZXVXlXlXlXqX6XE.k.k.>.' Z s a a r 9 9 9 2 % 9 = & = = & # & t ` T.V.] c s Z Z r 0 r 5 5 5 = # % O - , p d C >.Z.7.#.@.O.B.^ j F / p.a.e.a.u.w.%.Q ! ! F F j D j F D L #.#.R o.E ;.5.@.-.-.,.E.E.V.4X9X0XV.T.V.v.6.6.D.*X=X=XpXpXpXpXpXyXtXeXrXrXrXpXpXpXrXrX*X*X*X=X=X=XtXrX=XrXpXpXrXtXrXrXrXrXrXrXtX=X*X*XyXyXuXhXhXcXbXbXbXbXbXvXbXcXhXhXuXtX*X).^.^.^.^./.XXeXyXyXtXeX*X*X*X).",
"*XeXtXaXhXaXyXtXtXtXeXeXtXeX X^.C.P.P.P.P.P.C.B.).*XtXtX;X*X).P.C.B.y.B.^.*X).^.).^.P.P.P.C.C.C.$X)./.).*XtXhXhXhXuXtX*X*X*X*X*XtXyXtXtXtX*X*X*X!.y.&.&.2.y.C.P.C.M.T } c.4XqX8XwXlXlXwXwXzX6XW.6XT.4.4.k.#.A s a a y 0 9 9 h % 9 : * = - * & * 2 M ,.T.4.I N A v d C E } @.5.Z.4.4.>.1.o.@.@.7.E #.1.o.2.3.^ z x ! ( u.G.a.d.{.w.%.( ! Q F F j D j S S L #.@.o.#.R #.;.+.+.-.,.l.k.j.W.4X4XV.V.v.k.5.6.N. XpX=XsXpXaXaXaXyXtXtXpXpXrXrXrXyXpXpX=X=X=X=X=XtXtXrX*X=XrXrX=XrXaXjXgXpX=X X|. X=XtXyXyXuXhXcXcXbXvXNXMXbXvXbXcXbXbXhXuXtX).^.P.C.C.^./.*XtXuXyXtXtX*XXX).",
").).*XtXyXyXtXtXuXyXtXtXeX X^.P.C.C.C.P.^.^.P.B.C./.*X*X*X).P.y.y.y.y.B.P.).*X|.*X).^.P.P.P.P.P.*XoX).).*XtXhXhXfXgXuXuXtX*X*X*XtXuXgXhXhXyX*X*X).C.3.&.&.y.B.C.C.5.T l.W.9XCXwXZXwXqXqXlXlX4Xl.W.T.4.;.4.;.A s y s a r 9 9 h * q ; = : - = * = & 9 J 4.c.>.` I M Z C v v p p C C Y Y R D C z D E ~ 1.O.6.0.D x G ( =.e.d.g.a.g.9.%.$.! Q ! F D G F E L S Q { { 1.R o.+.' +.+.-.>.,.k.R.W.T.T.Q.v.5.4.7.q.!.pX=XsXsXpXaXaXpXyXtXaXpXrXrXrXyXaXgXyXyXyXpXyXyXyXyX=X=X=X*X X*XpXjXvXaX*X!.I.|.=XpXtXtXtXuXhXhXcXcXMXbXcXhXhXcXvXbXbXbXhXeX).P.C.Z.P.!.).eXtXtXtXeX/.^.!.",
"^./. X*XeXeXeXeXuXuXaXyXeX*X/.^.!.P.P.^.*X*X).P.y.P.).^.^.!.B.2.i.y.y.B.P.).*X*X$X).)./.^.^.^.^.).).^.^.).*XyXhXtXuXhXhXfX;X*X^.;XyXuXfXfXyX;X*X*XP.y.2.2.y.B.H.M.+.T E.4X0XlXlXZXVXqXqXlXlX4Xl.j.T.k.+.+.' Z a y d d p g w h * q 2 - ; ; - = - 5 - s >.c.| P P J S f f C d p d q e q d d D D D Y 1.~ &.2.F z z ! 9.e.9.a.g.w.e.9.%.%.$.Q $.Q Q Q E Q L S R ' R #.Y ' +.-.-.] ] -.-.V.T.4XV.W.(.v.k.1.4.2.C.pX=XrXsXpXaXaXpXuXyXhXaXpXrXrXpXaXjXjXhXgXgXaXgXaXaXrXrX=X|.~./.*XyXjXpX|.I.I.|.rXgX*XeXeXtXtXtXyXuXcXhXaXyXyXuXhXhXbXvXhXtXXX!.H.B.C.P.^.*XeXeX*X*X/.^.!.",
" X*X*X*XeXeXtXtXuXhXcXhXuXtXeXeX*X).^.).*XtX*X*XP.P.P.P.P.P.C.B.P.J.C.C.P.^.*X;X).*X*X*X*X$X/.^.).^.I.P.^.*X;XtX*XtXuXfXuX;X*X/.*X;XtXtXtXtX;X*X*X).P.B.y.B.J.P.v.' -.4X0X9XlXZXZXAXAXVXlXwX7XE.4.c.k.#.R Y C a g d m f g w h : r 8 ; 2 5 ; - ; 2 3 0 P >.-.I v a p q q g w 2 q f d d C d C D W C ~ R #.^ z e x Q %.e.e.e.g.e.r.9.$.%.$.Q %.Q $.Q E { L S R o.+.#.W Y ' +.;.' ] -.| l.V.4XT._.Q.v.V.;.;.1.y.rX.X=XrXpXpXaXpXuXuXaXaXaXpXpXaXgXgXcXjXjXjXgXaXaXpXrXrX=X/.P.P.~.|.rX=X/.I.!. XyXhXtXeXeXeXeX*X*X*XyXtXtXtXtXtXtXyXuXuXtXeX*X^.!.P.H.P.^.*XeX*X*XXXXX)./.",
"eXeX*X*X*XeXeXeX*XyXhXhXuXtXyXaXuXtX*X*X*X;XyXyX).P.C.B.B.C.P.).).).^.P.P./.*X;X*X*XtXuXtX*X^.P.).).^.^.^.$X*XtX*X*X*X*X*X*X*X*XtX;X*X*X*X;XtXtX*X*X).P.P.P.P.^.v.+.Q.9XzXxXSXGXAXGXGXAXCXlXqX4Xk.k.k.4.' A v d r v C d g w h : p 8 ; 5 5 ; ; 2 2 2 3 0 H -.} M 9 q 9 8 h = : w < q e f q f f W G E o.W z G j ( ( ! 9.w.a.a.r.( r./ %.Q Q O.G / Q E { Y S { #.@.@.S S T ' ;.+.' +.| h.R.E.R.W.Q.v.R.;.#.8.3. X XeXrXpXpXaXaXaXuXaXaXaXhXgXgXaXaXjXgXgXaXpXrXrXrX*X*X|.I.S.S.D.I.|.|././.|.=XpXgXyXyXtXeX*X*X).).*XeXtXtXtXtXtXtX*XeXtXtXtXeX*XXX^./.*XeXtXeX*X*X).).^.",
"*X*X*X X).).). X!.*XtXtXtXeXtXuXhXuX=X*X|.*XyXhX*XP.y.y.y.y.P.*XtX*X*X^.^./.*XtX=XyXhXhXpX*XP.B.*X).^.^./.*X*XtXtX*X).I.^.oX;XuXyXtX*X*X*X;XyXuX=X*X*X).^.^./.).5.:.zX9XzXAXAXGXGXGXGXAXSXSXzX6XR.4.4.k.+.Z v v r v Z v g q 8 : p 9 2 8 8 2 ; 2 0 - = 5 y B I } s r 9 q q 8 8 8 * : > < < f z W D @.W D f f x F ( ! r.a.g.a.r.r.9.$.w.Q / O.Q O.Q Q #.T S R +.;.o.C A R +.>.| ` ` -.4.4Xj.T.T.(.M.(.;.+.8.2./. XeXrXrXpXaXaXaXuXyXaXgXjXjXjXaXpXaXpXpXrXrX=X=X=X/.|.|.I.S.B.S.P.I.I./.|.*XrXpXgXhXaXuXtXeX*X)./. X*XtXyXyXyXtX*X*XeXyXdXhXhXhXuXXX*XtXuXuXtXeX*X^.^.!.",
"*X).!.!.).*X).^./.*XtXuXhXuXyXtXtX*X|././.|.=XyX$XS.3.&.*.y.B.P.P./.=X=X=X;XpXgXrXyXpXjXjXpX|.P.$X*X*X*X*X*XyXfX^.I.P.H.B.J.I.*XtXyXtXtXtX=X*X*X=X*X*X*X^.M.M.V.l.E.wXVXlXAXGXHXAXCXHXGXxXzXlX9X(.T.j.+.4.' Z s p a Z C r 9 9 2 0 9 9 9 0 8 : w w ; 8 ; 5 y s I u y 0 9 q 2 ; p 8 w q q w w e d C p w g e e z ! $.! ( e.w.9.r.p.9.*./ Q Q N.G %.{ @.;.R m +.4.+.+.Y Y ' o.#.+.J J ' ,.' >.V.T.k.dXZ.5.' R 1.M.tXvXaXtXyXhXcXhXaXaXhXgXjXgXpXrX=X;XrXpXpXsX=X%X|.$X/.I.I.I.|.=X-X|.*X-XpXgXgXgXgXhXhXuXtXeXeXeXtXtXtXaXhXhXuX*X$X*X*XtXrXyXyXtXtXyXyXtXtXtX*X*X*X/././.",
").^./.).*XeXeX*X*XeXtXuXuXtXeX*X=X$XU.P.P.I.|.=X$XJ.p.&./ / $.*.y.J.$XpXgXpXpXpXrX-X;XrXrX;X|.I././.$X*XtXyX;X;X^./.$X/.I.P.I.).tXtXtXuXuXrXrXtX|.*X*X).!.Z.V.l.l.b.wXZXZXZXGXGXCXlXSXFXSXSXxX0X4XR.j.+.,.+.T Z v a M Z y 9 0 2 t t 9 9 a r h w w : 8 ; = - 6 i y s y y a 0 8 q q q e e e q q e g y g e < w k G ( ( ! 9.a.9.e.%.9.*.O./ Q q.Q { #.8.>.o.v +.4.| o.J Y o.+.+.o.Y J J +.' ,.V.W.R.iXV.>.R E +.6.!.uXuXuXcXvXhXuXhXuXuXgXgXpXrX=X=X;X-X-X-X,X-X=X=X=X*X|./.|.$X-XpX*X=XrXpXpXpXpXrXaXuXtXeXeXeXtXtX*XtXuXhXhXuX*X*X*X*XtXuXuXuXyXtX;X*X*X*X*X*X$X*XXXXXXX",
"!.).eXtXtXtXtXyX*XtXtXtXtX*X).^.*X|.I.J.J.I.|.*X=XU.i.2.^ D D G $.y.|.pXjXgXpXrX=X*X|.|.|.|.U.P.I.P.P.$XyXgXyX*X/.*XyXfXtX*XoX).eXtXuXuXpXpXrXrX/.*X*X).!.!.V.h.E.b.qXZXZXlXVXAXCXlXwXlXqXqXqX4X4XT.k.4.V.4.| I J a v A a 0 0 - u b u 0 d y ; h 8 ; 9 5 o O 3 t t t t 0 y s v C p p f f f e w < 8 y p f < f j G ( =./ e.a.9.e.( 9.*.%.$.O.%.$.Y 8.>.7.;.C +.j.| ' Y E +.+.o.' P L J ' T -.4.j.x.R.V.;.' R R @.@.eXuXaXvXNXcXpXvXuXuXtXtX=X=X=X=X-X;X=X=X=X-X,X>XpXyX=X*X*X=XrXpX-XrXrXrX-X=X*X*XtXeX*X*X*X*XeXtX*XeXtXpXhXuXtX;X*XtXuXuXhXfXuXyX*X*X*X*X$X).)./.*X*X*X",
"!.).yXhXuXtXtXyX X*X*X*X*X).^.!.|./.I.P.I./.$X=XpX|.S.0./ D j z / 2.I.-XpXrX=X*X*X|.U.I.I.P.i.p.I.J.C.^.;XhXyX*XI.$XyXgXfXyX;XtXtXtXyXuXpXrX=X=X X*X*X)._._.T.l.wXqXwXHXGXGXGXAXGXFXSXlX0X6X9XqXzXR.k.c.W.j.-.' ' s s J s q 9 = t H u t v r 2 8 8 2 0 9 3 t B n u y 5 = 2 r s s a g q w q q 8 ; w g f z f F x ! ( e.e.e.e.9.e.$.*.%.*.%.$.O.2.S 8.8.7.7.Z +.V.#.' ' ' ' ' R Y Z H v L T -.;.j.R.j.V.4.;.o.' o.Y !.tXaXhXNXMXjXvXaXuXtX*X*X*X=X=X-X=X=X*X=X,XpXgXgXpXrX=X=X=X-XrXpXpXrX-X*X|./.~. X).).).*X*XtXtX*X*XtXuXuXuXuXyX*XtXuXfXhXhXuXuX*X*X*X*X*X$X$X).*X*X*X",
"!. XtXuXtX*X X*X!.!.!.^.!.!.!.P.S.S.S.J.P.U.|.|.*XP.y.3.$.G z z / *.B.U.|.|././.|./.U.I.P.i.*.O.i.y.B./.yXuX*XP.i.H.!./.oX*X;XuXtXtXeX*X*X*X|.|.tX*XeXuXiX_.Q.E.qXwXVXAXKXPXPXGXGXGXFXSXlXqX9X9XCX5XR.j.k.4.5.,.-.C v A v r 9 = u M 9 9 C a 9 9 3 3 t a V :.h.V t 5 = $ # 3 5 - q 8 : * ; 8 8 8 w 8 f D x F x ! e.w.a.e.r.e.e.e.%.%.0.%.$.o.q.S #.@.5.k.J +.R.4.' ;.@.T J Y J v ` A ` ' ;.;.4.V.j.V.4.>.-.' o.Y @.).cXbXbXNXbXcXhXaXrX*X*X=X=XrXrX=X=X=X=X,XpXgXyXrX=X=X*X*X=X=XgXpXrX=X$X/.U.I.)././.). X*XtXyX*X=XtXuXpXpXpXpX*X;XuXuXhXgXuXyXuXuXyXtX;X*X*X*XXXXXXX",
"!.^.).*X).^.!.!.C.C.C.C.C.C.B.B.*.0.u.i.S.S.B.B.B.y.2.%.$./ Q F $.2.u.S.P.P.P.I.I.I.I.I.J.y.$.^ &.2.i.I.*X$XC.3.&.2.t.y.i.P.).;X*XXX^.P.P.I./.|.yXeXuXuX0XW.W.6X6XZXHXAXHXGXHXHXFXAXxXlXxXxXzXzX9XiXiXc.,.4.c.,.;.P Z Z M r 5 = Z Z 3 0 Z r 9 2 4 c _ ..h.b.3X[ u 5 = # $ & & X ; * o O * ; w q , : f z x x x ( a.w.g.r.r.a.%.9.$.%.9.$.o.O.M.E Q @.4.x.T +.R.5.+.5.4.T J J J J +.T +.{ ;.{ { ;.k.c.4.;.-.+.#.o.S 6.cXNXvXbXbXhXcXhXhXuXuXuXyXpXrX-X-X-X-X,X,XpX=X=X*X*X*X*X*X*XgXpX-X*X$X|.|.|.|.|./.|.$X*XrXyX=XtXrXrXrXrXpXpX*X*XtXuXuXuXyXtXhXhXhXfXuXtXtXtXXXXXXX",
"C.C.B.C.P.P.P.D.Z.Z.N.M.y.y.q.6.%.2.y.B.S.u.3.&.2.y.0.&.%.3.2.$.$.2.u.J.I.P.I.I.P.S.S.S.B.y.*.O./ O.2.y.i.y.3.&.O.&.2.t.y.B.I.*X^.P.B.y.u.D./.*XeXyXdXiX_.Q.4X9XZXKXPXPXGXAXZXHXGXGXCXlXSXSXCXSXW.(.5XR.V.k.k.-.;.} J M M y 2 - A M 5 a N 9 u c H h.3X6X3XE.8Xb.:.K b s 9 3 #   o o O O O - w q ; : z j x x x ( a.f.a.e.r.9.( %.O.8.2.O.Q 8.x.o.Q 8.1.M.R ' V.5.4.k.4.o.R J E @.+.' ,.-.4.;.+.-.5.,.4.4.>.;.+.#.S o.^.bXcXcXvXcXvXvXvXvXcXhXgXgXrXrXyXpX,X-X=X=X$X$X*X*X=X=X=X=XpXrX=X*X$X*X=X=X$X$X$X$X$X*X;XrXyXyXrXrXrXrXrXrX$X*X*XtXtXtX;X*XhXhXhXhXuXuXyXtX*X*X*X",
"M.y.6.y.B.P.P.C.C.Z.M.y.3.2.1.&.*.0.B.P.J.y.&./ %.u.B.2.*.i.S.u.O.2.B.I././.U.U.S.B.u.u.u.y.3.*./ O.O.O.O.O.$.&.$.2.y.y.B.J.I.$XC.M.3.2.0.C.|.yX).dXcX0XT.T.6XqXGXKXPXPXPXAXVXFXCXFXAXCXCXlX9XzX9Xl.V.W.(.c.k.:.-.;.T M M y ; - t y 5 b M 7 H :.3XwXlXZXVX8X8X8Xl.....:.` b 2     X # # % = 8 q 8 ; D e G ! ! ( e.a.a.w.%.( ( ( O.8.2.^ E 2.q.@.Q 2.7.M.' R k.5.k.5.>.@.+.Y ' Z.V.k.R.V.V.j.;.-.-.| k.c.v.5.' o.} S 1.eXhXcXNXvXvXvXNXNXMXvXjXgXrXrXpXpXpX,X%X$X|.$X*X=X=X-XrXrXrX-X=X*X*X=XrXpX=X%X$X$X$X=X;X-XpXpXyXrX;X;X;XtX).$X*X*XtX;X*X*XhXhXhXhXuXyXtXtXtXtXtX",
"6.3.3.y.Z.C.Z.M.P.P.D.M.6.6.Z.P.S.I.I.S.B.S.B.p.%.%.*.p.J./.$X*X0.&.*.S.|./.P.J.I.I.S.y.0.u.u.y.$.$.^ W z G O.2.y.i.P././.I.P.B.2.6.y.y.B.P./.*X*XdXnXQ.,.W.0XGXGXHXAXHXAXZXAXGXCXlXSXxXzX9X4XzX5X(.V.V.W.4.k.>.' A T v a y 0 & s r 6 c N n V ZXZXwXVXBXVXZXBXDXqX4X>.,.h.-.' c 9 X X - ; * * * 8 : e x ! ! ( r.e.e.e.r.! ( ! / Q o.o.o.Q o.2.C.L M.k.E o.R ;.6.4.k.R.V.4.#.4.0X5XV.4.,.5X`.j.-.4.,.j.c.k.5.;.' o.Y Y y.cXvXuXcXNXNXNXNXMXvXjXjXvXjXjXjXjXgX,X%X=X=XrXpXpXyX-X=X/././.|.*X-XpXgX-X%X[.I.K.U.|.=X$X=X-X=X$X/././.^.).*X*X*X*X*X*XuXuXgXhXhXfXuXuXuXuXuX",
"y.M.M.M.M.y.y.y.P.!.P.D.B.B.!.).*XrXrX$X|.|.U.S.&.*.0.B.U.$X$X|.i.*.$.3.B.S.B.B.S.P.P.B.u.B.u.0.2.3.&.E D G O.2.B.B.J.J.B.i.y.y.2.y.C.P.P.I./.).eXdX0X4.v.4XlXGXAXAXHXGXGXAXAXAXGXGXGXZXCXxXW.W.E.(.V.,.-.j.T.' ' A Y M a y 6 & a 0 3 B i n E.ZXwX3X8XwXBX8X8XBXlXAXzXc.-.-.j.j.+.M 0 5 2 9 9 - > < e e x ! e.r.e.r.r.( ! Q Q Q E R o.o.o.@.q.!.R 8.k.+.R v o.7.@.Z._.Z.5.;.4.Q._.R.j.4.5X(.j.] -.:.j.c.V.v.4.+.@.R P 1.*XuXuXvXvXbXvXvXMXvXvXvXjXgXpXgXgXpX,X%X=X-XrXpXpXpXrX-X-X=X=X=X=XrXpXpX%X+XU.K.K.K.U.U.$X-XpXrX=X|.|./.|.$X*XtXtXtXtX;X*X*XtXgXhXhXhXfXyXyXyX",
"C.P.P.C.y.6.q.y.P.!.^./.^.).*XeXaXjXjXpXrX-X*X/.0.p.B.I.*X=X=X|.P.3.O.$.0.y.p.0.u.J.I.I.P.J.u.*.3.i.y.$.^ ^ 2.y.P.P.J.i.y.3.2.&.y.B.^.*X*X X).).eXuXV. .b.wXHXGXZXAXHXHXGXGXGXAXxXSXSXqXzXxX4X4XW.j.4.k.| -.k.+.' J A Z y r 2 = 0 9 2 b V  .ZXAXwXm.b.8XwXm.m.3X6XlXCX6X3X4XE.c.T.4.+.A y y s s @ ; e e x ! r.r.r.( ( ! ! Q Q Q o.#.#.o.o.#.2.M.6.o.6.6.o.p o.7.R Z.Z.M.5.4.(.iXk.V.R.T._.`.V.4.-.:.j.V.Q.T.k.,.@.+.Y Y 6.eXcXcXhXhXvXvXMXMXMXMXpXrX-XpXgXgX,X=X=XrXpXpXgXgXpXpXgXpXrX=X=X=X=X=X+X+X'.L.K.J.s.S.[.$XpXpXrX=X$X$X*X*X;XtXuXuXtXtX^.).;XhXhXjXhXhXtXtXtX",
"^./.^.P.Z.M.N.Z.!.^. X*XeXeX*X*XrXyXpXrXrXrX=X*XJ.J.I.|.=XrX-X=X/.i.2.2.p.y.0.&.0.S.U./.U.P.y.&.3.i.J.i.y.y.B.B.C.H.B.B.y.t.2.&.y.C.^.). X X*X*XtXeX;. .4XlXHXAXAXGXGXGXGXGXGXAXlXzX4XT.4X6XW.W.E.>.-.R.4.+.' :.' J v Z y 0 = = - - t B v.9XVXHXBXwXb.8X8Xb.m.b.3XE.6X3XE.T.c.4X4X(.5X_.4.' +.;.M w g x ! x ( e.e.r.e.( Q Y E Y R o.o.} o.@.6.M.C.o.1.6.#.p ^ @.R !.V.M.5.@._.0X4.k.V.R.R.R.R.V.-.,.c.R.4XW.v.5.#.4.o.C Y H.hXhXhXcXvXNXNXNXMXvX-X=X-XpXgXjXgX,X-X-XrXpXpXgXgXgXpXrX=X*X|.|.|.|.+X+X+X+XL.K.s.i.J.U.=XrXrX=X=X=X*X*X;XtXtXtX*X*X^.*XuXhXvXvXhXuXtXtXtX",
"tX*X^.!.!.!.!.P.^.^.).*XeX*X).^./.|.$X=XrXrXrXrX=X*X|.|.=XrXpXpXrX|.S.u.y.u.p.2.2.u.P.I.P.J.p.&.*.y.B.J.P.P.B.t.2.3.y.B.B.y.3.2.6.y.y.u.B.S.^.*XeX(. .l.qXlXVXZXAXGXPXKXKXGXAXlXzXCXxXzX4Xl.h.l.h.k.,.,.;.-.Y +.T J s v y 9 * - = & c | wXZXZXHXDXZX8X3X3Xb.b.z.6XE.3XE.b.c.l.E.4X4XzXxXdX_.T.5.5.S d z ! ! e.g.e.r.w.%.Q E { o.E o.o.R R @.7.7.7.o.o.o.o.p S o.J V.k.Z.k.+.!._.R.4.-.k.T.V.j.k.j.c.E.(.4XW.V.5.@.4.@.S C &.).uXhXcXvXNXNXMXvXjX=X=X=XpXjXjXgXpX=X-X-XrXpXpXgXgXrX=X*X$X|.|.$X$X%X&X&X&X@X'.K.s.p.G.].%X=X=X-XrX*X*X*X*X*X*X*X*X*XtXhXvXvXvXdXtXeXeXeX",
"uX*X^.!.^.).).^.^.^.^. X*X*X).!.I.I.|.-XpXpXpXjXjXpX=X*X=XrXpXpXjXgX|.i.0.y.u.u.2.y.u.y.y.u.0.*.2.y.y.B.J.J.y.O.O.&.y.i.B.i.y.3.2.2.&.&.&.3.Z.^.^.5.-.3X9XwXBXZXGXGXKXGXGXAXCXlXqXqXlXGXAX9XE.j.,.c.;.T ` ' Z ' Y P s a r 5 = * - 3 M W.qX3XGXZXZXDXBX8Xm.b.b.n.E.E.3X3X6XqXW.b.4X4X9XzXdXxX5X4.4.@.Y f F ( w.e.( ( r./ E E R ` } @.#.R ' @.1.#.#.1.#.^ R p z o.C 4.;.k.4.o.!.5X(.k.-.V.(.R.V.W.R.V.W.6X4X4XQ.k.5.;.;.+.Y Y 6.eXuXhXvXvXMXvXgXpX=X=X=X-XpXgXpX-X=X=X=X=XrXpXgXjXyXrX;X=X=X=X-X-X:X:X:X:X&X@X'.L.u.G.I.|.|. X=XrX*X*X*X*X*X*X$X).tXuXhXvXhXhXtX*X*X*X*X",
"tX*X/.!.!.!.^./.!.!.!.^.*XeX*X)./.I.|.rXgXpXgXjXvXjXrX-XrXpXyXrXgXjX-XS.3.3.y.u.3.0.2.$.$.2.0.3.3.y.y.y.y.B.y.2.3.y.B.J.P.J.B.B.i.y.3.&.&.2.M.P.B.} k.0X3XqXZXHXGXAXAXZXCXlXlXCXCXW.l.qXKXKXAXV.j.j.,.` ` J C ` J Y s 0 r ; - % - 0 N 4X9Xb.wXwXBXZXDXBX6X3XE.E.l.E.8XqX6X6XlXCX6XqXxXxXdXbXxX(.,.k.4.D F Q 9.( e.( %.$.Q +.T K R #.#.} +.5.v.7.1.6.o.#.L f d R A k.4.@.' R M.R.V.x.4.R._.(.V.9X4XT.4X9XW.4X5XV.5.;.>.4.~ Y @.M.^.*XyXhXhXgXrX=X$X|.|.$X-X-X=X$X*X$X*X*X=XrXpXgXpXyX-X=X=X=X=X-X:X:X:X:X&X@X@X+XL.].|.].U.]. X=X*X*X*X;X;X*X*XoXtXyXuXfXuXtX*X*X*X*X*X",
"eXeX*X!.C.B.P./.P.D.C.!.*XtXtX*X|.U.|.pXaXrXyXjXvXjXaXpXaXpXrX*X|.pXgXI.0.*.3.3.0.3.$.^ ^ $.0.0.0.y.y.y.y.B.P.P.^.^./././.I.I.!./.I.J.y.3.t.C.!.5.I E.6Xb.qXGXGXZXVXlXZXCXlXqXlXzXqX6X4Xl.E.SXxXj.4.V.+.' Y J H J T v 5 r - 2 # & t I E.wX3XX.qXwXBXGXGXVXqX3XqXE.b.z.qXCXqXlXlX9X6XqXxXxXxXCXzXW.W.T.#.E G ( 9.a.%.$.q.x._.V.4.-.4.1.#.@.k.k.>.4.;.R o.C p p d p 4.5.+.' o.M.V.k.x.;.k.R.R.4.c.5Xb.4X9XW.4XiXR.5.,.5.4.o.} #.O.B.P.).tXpXyX=X*X/.U.U.|.%X%X|.U.|.|.|.|.*X-XpXgXrX-X=X$X|.|.|.$X:X:X&X&X%X@X%X%X&X%X%X[.L.I.|.$X=X;XtXtXtX*X*X*X*X*X*X*XeX*X*X*X*X*X*X",
"*X*X)./.^.P.P.H.^.).).).).*XuXcXuXpXpX=X/.~. XrXyXaXhXjXjXpXtX XrXpXjXsX|.i.0.0.%.*.*.%.$.*.0.B.u.H.P.^.^.^.*XyXjXgXtX*X)./././.Y.$X;X/.t.M.(._.,.` 6X6X6XVXVXZXAXCXCXZXAXKXKXxXCXzXlXCX5Xh.,.E.V.R.V.4.+.' T J v C A r 2 2 # = 3 6  .4XlXHXwXz.wXlXAXHXZXlXwXwXE.b.6X3XqXlXlXqXzXZXxXCXxXKXAXxXzXW.V.>.C.7.6.6.1.x.7.7.Z.cX5Xk.4.T.;.4.V.k.5.;.4.;.' d A 9 r q a ' ;.#.Y R V.k.Z.#.o.k.R.M.k.R.T.l.4XW.zXzX0X5XT.5.4.v.+.o.V.1.@.B.^.P.I.I./.;X$XU.I.J.J.L.].$X=X=X$X X|.|.|.|.[.|.[.$X$X+X%X@X%X2X2X%X@X@X@X@X&X%X%X@X+X[.'.[.$X*X;XyXpXyXtX;XyXtX*X*X*XeXtXtXeX*XeX",
").).).)./.^.^.^./.).XX).^.).eXyXhXhXaXtX X!.~.|.tXyXaXjXjXaXyXtX=XsXjXjX-X|.S.u.*.0.0.0.0.0.u.B.B.P.).*X*X;X;XtXuXtX*X).^.!.!.I.Y.U.$X/.Z.C.4X4X,.h.b.E.b.6XVXVXCXCXAXAXVXzXxXAXSXAXxXxXAXzXl.,.4.k.x.7.4.4.#.Y C a a 0 9 9 = = 4 3 ..4XAXKXAX6X9X9XqXwXVXwX6X3XlX8X8XE.E.3XqXlX6XqXVXAXAXCXVXxX0X0Xc.-.4.T.Q.R.v.v.5.k.Z.R.M.4.V.R.T.V.V.4.k.V.T.5Xj.' J r 9 0 q A E T v ' 4.-.5.;.;.M.R.R.Z.c.l.c.W.9X4XxXiXiXR.v.5.T.k.o.;.B.3.B.C.C././.U.$X=X$X|.U.U.].$X=X=X=X$X X|.|.[.[.[.$X+X+X@X%X@X@X%X%X@X@X@X@X@X@X%X@X@X+X+X'.'.'.[.|.%X;X-XyXuXuXuXtXeX*X).).XX*X*X*X*X",
"^.^.^./.).).XX*X^.).).^.^.^.).*XuXaXaXpX=X|./.|. X=XpXgXjXjXaXpX|.=XpXjXjXpX|.D.u.i.D.I.J.D.D.P.P.I.*XuXjXhX*XoX^.P.P.H.C.C.C.B.i.i.P.P.C.Q._.T. .b.z.3X3XlXGXAXCXVXVXAXGXAXSXGXKXSXAXxXc.h.h._ a Z J Y R +.o.Y v r r 9 2 = # 2 3 3 _ l.qXFXKXAXqX9XqXlXZXZXlXwXCXlX6X3Xl.b.6X6X6XqXlXqXSXAXAXzX0X9XE.T.,.v.V.iX_.c.4.4.V.V.R.R.(.W.iXT.k.>.5.4.,._.T.4.V.+.M s 0 v T ' s #.;.;.;.#.;.k.R.(.`.R.E.W.W.zX4X9XiX4XR.k.4.k.Z.+.Y t.y.B.B.C././.I.$XpX-X%X$X$X%X%X-X=X=X%X$X X|.[.[.$X%X%X%X%X%X%X%X@X@X@X@X@X+X+X+X@X@X+X+X[.'.'.'.U.U.U.|.$X;XyXgXtXtX*XXX)./.)./.*X*X*X",
"P.P.!.^.^./.).).P.^.^.^.!.!./.*X=XrXaXhXgXpXrX=X|.*XtXpXaXgXgXaX|.|.=XpXjXjX=XI.i.D.|.=X-X=X X|./.^.).*XuXtX/.P.3.3.3.y.y.y.y.u.u.p.i.B.Z.Q.V.<.] b.z.3X6XqXZXqX8XVXAXCXCXCXxXCXc.l.-.` | |  .>.' Z 0 2 y A Y Y o.Z r 9 9 2 # X $ 3 K :.h.W.wXGXZXwXqXqXwXwXqX3X6XlX6X6Xl.b.3XT.6X6X6X3XlXGXAX9XxXxXzXxXW.V.c.0X(.R.T.,.j.k.W.4X(.V.iX4.4.k.k.T -.4.c.Z (.R.j.V.#.Y Y J 0 ' ;.k.;.' +.k.R.R.`.5X5X(.(.4X9XW.zXR.Z.v.4.-.v.v.R o.N.P.P.I.|././.-XgXpX-X=X%X%X%X-X$X=X=X=X%X|.[.].%X%X%X%X%X%X%X%X@X@X@X+X+X+X+X[.[.[.'.'.'.'.'.'.L.K.K.K.I./.$X*XtX*X*X*X*XXXXXXX*X*X*X",
"C.H.H.P.P.P.!.!.C.P.^././.).*XeXtXyXgXvXMXvXgXpX X*X=XrXrXrXrXrX|.U.U.$X-XrX*X/.i.J.|.pXgXgXrX=X*X^.P.P.P.P.C.y.&.&.2.y.y.B.H.J.B.y.B.H.H.Q.k.` | c.b.b.qXlXCXlXzXCXlX8XE.l.[ _ <.-.W.xX9XxXAX6XxXxXiXj.v = 5 v J J c 9 - = & $ $ 6 B ] V ..c.SXSXwX4X3XqXwXqX6X6X6Xb.3Xb.T.W.c.b.E.3XqXqXlXqXlXqXxXxXqX0X9X4Xc.,.l.E.c.j.>.T.5X(.j.R.+.;.V.T.' A ` T.Z W.5X:.(.4X;.4.V.c.V.+.I #.| ;.V.R.T.V.R.W.W.W.W.5XE.zX5X(.T.V.>.5.!.4.R Z.^. X*X=X*X=XjXpXpX-X;X%X%X%X%X$X%X=X=X%X$X[.].$X+X%X%X%X@X@X@X+X+X+X+X[.'.'.'.'.'.'.'.'.'.'.'.L.K.J.S.S.J.P.I.*X*X*X*XtXtXtXtXeX*X*X",
"Z.Z.Z.C.C.H.P.P.H.!.).*X*X*XtXyXgXgXjXvXMXvXgXrXrXtX=X*X X|./.!.P.J.P.I./.|.|./.i.J.|.rXjXjXrX*X/.P.B.y.y.y.B.B.y.y.C.P.^.).*X$XY.Y.^.XX).Q.4.K ..h.3X3XZXGXAXZXVXqX8XzXAXVX7X3XCXPXKXxXlXxXxXSX4XV.4.4.,.T a 2 u v a 2 X   X   & 3 b <.:.h. .<.3X6XwXwXqXzXSXGXCX7Xh.l.l.c.b.E.T.4XW.6X4XlXxXCX9X4X9X9XzXzXxX9Xl.,.j.V.T.j.E.9XxXV.k.+.+.:.c.;.` ` +.a | (.T _.SX(.R.4XzXiXW.c.j.k.k.k.k.c.c.k.R.4XE.(.T.W._.0XQ.V.R.k.4.V.v.+.M.).tX*XpXhXgXjXpXpX-X&X%X%X%X$X|.%X=X=X=X%X[.[.[.+X+X+X+X@X@X@X+X+X[.'.'.'.'.'.L.L.L.L.L.L.L.L.L.K.K.J.J.S.S.J.|.$X*XtXuXuXuXuXtXtXtX",
"y.M.M.B.P.!.^.^.^.).tXtXtXtXtXuXaXpXpXjXvXvXgXrXgXpX-X XI.S.i.u.y.N.D.I.~././.|.D.P./.=XpXpX XI.S.C.y.y.y.y.P.^./.).*X*XtXtXtX;XI.I.*XtX0X(.,.H <.h.3X8XCXAXlXqXAXVXCXCXwXqXlXAXKXKXKXxXW.b.,.U -.' I J ] +.] Z ] T N ' c.(.4Xl.:.V b V ] .. .:.<.T.9X9XW.E.4XqX9XzX4X,.,.,.<.l.b.4XE.l.b.zXSXCXSXqXxXSXCXzXSXFXqXW.c.b.c.l.l.R.iXV.4.:.#.+.k.,.M H H Z ;.R.M +.V.W.T.5XiXiX4XR.R.W.T.j.4.c.T.T.4X4Xc.c.T.4XV._.R.R.V.k.4.5.V.>.&.).hXtXuXcXjXjXgXgX>X>X-X%X%X+X|.%X=X-X-X%X[.U.'.'.'.'.'.+X#X#X'.'.'.'.'.'.'.L.d.d.d.K.L.L.L.L.L.L.L.U.U.Y.K.Y.|.$X*X;XyXyXtXtX*X*X*X",
"t.y.M.C.P.^.XX*X*XtXuXdXuXtXtXtX=X*X*XsXjXvXjXgXvXjXrX|.S.u.0.2.&.w.P././././.|.I.I.~. X=X*XI.B.y.B.B.y.y.B./.tXtXuXuXgXuXtX;X*XP.P.*XyX0XW.,.V l.b.b.qXlXGXAXGXGXAXCXlX6XZXKXGXCXAXzXl.I t 6 H V ,.W.E.4XCXKXKXAXCXiXxXSXzXzX9Xh. .h...-.V V _ ` ..l.T.W.E.l.h.j.SXPXl.-.-.[ -.-.h.b.j.l.l.6XxXFXCXxXzX0XqXqXW.E.4XW.T.-.,.4.c.j.4.+.:.;.j.T.,.a A A A :.-.c I c.5Xj.T.R.9X(.V.R.T.V.V.V.V.R.4X4Xc.,.| 6XzXQ.(.Q.0XM.4.v.Z.!.6.R ).bXuX=XhXjXvXgXkXgX<X>X&X%X%X|.%X=X,X-X%X[.L.L.L.'.'.'.'.+X+X'.'.'.'.'.L.L.L.s.d.d.d.L.L.L.L.K.L.'.+X$X$X[.U.|.$X*X;XtX*X*XoX*X*X*X",
"B.B.C.P.^.*XyXhX*XeXeXeXeXeXeX*X=XI.u.y.S.|.gXvXgXgXrX*XU.S.i.u.*.3.N.P.).*X X|. XP.P. X*X)./. XJ.C.H.P.^.).^.P.;XtXtXtX;X*X).^.u.P.!.H.0X5.] ..b.h.3XwXwXCXlXZXAXAXlX6XZXKXKXSXCXCXc.t t l.4XCXKXCX6XSXPXGXGXFXzX9XGXxXFXzX6X4XE.6Xb._ V  . .V H b ` I >.W.W.>.+.CX9X-.| ] ] | -.>.,.4.,.W.c.E.4XqXqX0X0X9XE...,.-.V.E.j.-.] ` j.} j.j.,.:.k.' Z T ' J ' ` +.+.:.c.-.4.W.W.(.5X(.V.R.c.j.W.W.E.(.k.,.l.R.W.T.T.5Xc.>.V.V.5.Z.k.8.6. XhXvXvXpXNXjXkXgX>X:X&X&X&X%X=X=X=X=X%X%X%X%X+X'.L.d.L.'.'.[.[.'.'.'.'.'.'.[.'.L.d.d.L.'.'.'.'.L.'.[.%X-X-X*X%X$X$X*X*XtXuX/././.",
"^.^.^.).*XtXuXhXeXeX*X*X*XeXeXeX/.I.u.0.0.i.I.*XpXrX=X|./././.|.u.N.C.!.*XtX*X/.).P.P. X*X*X X*X^.^.^.).*X*X).I.).*X*X*X).^.P.P.P.).!.!.C.,. .<.h.h.3XqXlXZXlXZXAXlX6XVXAXAXAXCXKXlX] l.AXAXKXKXGXAXCXKXKXFXGXxX4XxXAXFXxXGXzX4X3XVXwX..u n _ ..] _ I b N | ' ] ;.c.j.4.>.` ] +.>.,.h.4.-.j.-.:.j.E.4X4X4X4XV.:.-._ >.j.h.4.>.,.I ` c.k.4.k.j.b I } :.:.4.| ` ' j.E.4.,.T.E.W.4XR.k.V.j.,.c.c.j.4.,.,.c.W.(.Q.T.5X_.T.v.5.k.Z.4.8.8.!.uXvXMXjXvXjXkXgX>X:X&X&X%X%X%X$X|.$X$X%X%X+X+X'.L.L.'.#X#X@X@X@X+X#X+X+X+X[.'.'.L.L.'.'.'.L.'.L.L.'.+X%X-X$X$X$X$X$X*XtXuX;X;X;X",
"eXeX*XeXeXtXuXdXtXeX*X).).XX*X*X/.U.I.S.y.y.S.I.$X|.U.U./.$XpXgX X/.!.*XaXaX=X/.|.P.P. XtXtXtXtX*X*X*X*XtXtX*X)./.).).).^.I.P.P. XtX).).k.:. .<...z.8XqXlXCXlXZXqX6XlXGXAXVXCXGXKXh.b.SXPXPXPXFXGXKXKXKXAXFXFX9XCXKXSXGXzXFXlX9XVXVXZXwX..6 & t K ] +.' M v r Z ` P -.4XW.4.j.,.| ' +.:.+.:.| -.4.,.,.-.:.,.k.v.' H T } ;.j.j.k.;.' -.' M C ;.:.s J } V.(.T.4.j.T.4Xc.h.c.c.h.,.W.c.l.h.j.E.E.k.:.,.4.c.(.iXiX5XQ.0X5XQ.v.M.Z.@.1.#.Z.tXcXNXMXjXgXgXgX>X:X&X%X@X[.].U.I.I.[.+X%X+X[.'.'.#X#X@X@X&X%X%X%X@X@X%X@X+X+X+X+X+X[.'.'.d.d.d.d.L.'.+X%X[.|.+X$X%X=X-XpXhXhXhX",
"*X*X*XeXeXtXtXyXyXeXXX^.!.!.!.!.I.I.U.I.S.S.J.P.J.J.P.U.$X-XgXjXjXyX*XtXcXvXyX/. X/.!.).*XtXyXyX*X*X*X;XuXgXyXtX*X*X*X*X*X$X).). XtXuXiXj.-.| ..[ b.6XqXwXlXqXlX8XlXAXAXZXZXGXPXqXT.PXPXAXGXKXSXFXKXKXAXCXSXCX9XKXKXSXSXSXlXAXZXwXVXDXVX6Xh.b $ 3 u ' k.;.' Z v b c T c.(.4XR.>.+.T ' +.' ` ' | >.} P P T T ' +.+.R o.+.;.k.5.v.| v.T.P 9 C } M ' ;.:.V.V.T.c.W.6X5Xj.-.j.E.W.W.W.E.V.j.j.c.l.4.:.:.-.-.j.W.5X_.R.!._.5XZ.k.k.M.6.;.Z.uXaXvXNXgXgXgX<X<X:X&X@X@X[.U.K.J.J.L.[.%X+X+X+X+X@X2X2X2X&X&X&X&X%X%X%X%X+X@X%X%X%X+X'.L.d.d.d.d.K.L.'.[.U.[.[.$X%X;X-XyXhXhXhX",
"XX*X*XeXtXtXyXuXtX*X).!.C.Z.Z.B.p.p.p.i.S.J.S.u.i.J.U.=XpXkXjXjXNXcXyXaXbXbXuX).eX*X/.^.*XtXtXeXP.P.^.*XuXhXhXuX*X*X*X*X*X*X*X*XtXeXnX_.4.| :.....E.6XqXqXqX6X6XqXCXZXCXZXGXFXCXc.PXPXPXPXFXFXAXHXGXVXqXSXZXqXlXZXSXSXVXGXCXPXGXZXZXVXwXlXxX4X,.t X 9 ' 5.k.k.Y Z Z s s #.R.k.-.;.T T ' Y J ' } } P Z S J A J R ' ' #.o.o.#.+.;.5.j.R.Q.,.} H r C } +.+.` +.+.j.,.j.j.,.j.T.E.W.6XzXqX4XW.W.4X4XT.T.c.-.| -.,.,._.Q.Q.R.M.4.5._.V.7.D.uXyXaXMXgXpX<X<X<X:X&X@X+X[.I.K.J.K.L.+X%X+X@X@X2X2X:X2X:X&X&X%X%X%X%X%X%X@X@X&X&X%X+X'.L.d.d.d.d.d.L.L.'.U.U.|.$X%X=X=X;XuXuXuX",
"*XeXtXtXuXuXuXyXXX).^.!.P.B.M.y.0.0.0.i.J.I.S.u.i.J.$XpXjXMXvXvXNXbXaXhXbXbXhXtXuXtX*X^.^.*X*X^.C.C.P.).tXhXhXgX*X*X$X).oX*X*X*XpXiXiXM.:. .h.<.h.b.3XqXqX6X6X4XlXCXZXAXAXCXqX6XwXGXSXGXFXFXxXFXAXSXqX6XCXCX9XSXlXAXCXwXlXFXPXGXGXlXwXZXFXxXlXxXc.a - 9 m ' Z.;.+.>.T a J +.+.5.+.T T T J A } E S A S P S S E @.Y { @.{ R Q L R @.V.R.k.:.W.R.+.b Z s 0 r v C J I :.4XqX9X4XE.4X9XzX4XW.4X4XE.c.l.T.W.c.,.-.-.>.R.(.(.V.5.5.4.Z.Z.x.C.eXtXtXcXgX-X>X<X<X:X2X#X+X'.U.L.L.L.[.%X%X%X&X:X:X1X:X:X:X&X&X&X&X&X&X%X%X&X&X%X@X+X'.'.L.L.d.d.d.d.L.L.'.'.'.$X$X%X%X$X$X*X*X*X",
"*XeXtXtXtXeX*XXXP.!.^.^.^.!.P.C.J.J.I.U.U.I.J.i.u.S.U.=XgXjXvXvXvXcXhXhXcXbXcXhXcXhXeX!.P.^.!.C.B.C.P.).;XgXfXyX*X).)./.).oX*X*XtXmX_.5.+.-.l.h.l.b.b.qX9X3X9X3XlXVXAXHXZXqX6XqXPXwXFXSXqXSXzXAXZXwXlXwXwXlXwXZXZXAXZXwX6XAXHXGXwXZXZXVXZXAXCX6XzX4.a - * 9 Y ' o.k.k.' J A A ;.' T T T J Z T v r d S R E Y Y { #.1.1.Q Q Q S F Y T ' :.+.k.R.4X5XV.` y t 0 r u b b ] ,.h.j.c.6XxXCX4XE.4XW.b.>.` | l.E.W.T.V.V.4.V.Q.v.v.k.@.5.x.6.7.!.eXtXgX-X-X>X<X<X>X2X#X'.'.].[.[.+X%X&X:X:X:X<X1X1X:X2X2X:X:X:X:X:X:X:X:X:X&X@X+X'.L.L.L.'.d.d.d.d.d.L.'.+X+X%X%X%X$XU.U.*X*X*X",
"XX*X*X*XXX^.P.H.M.C.^.XX*X*X).^./.$X=X*XU.J.S.B.0.p.i.I.$XpXjXvXcXhXhXhXcXcXbXcXvXvXtXP.C.P.P.y.J.P.P.).;XuXyXtX*X*X).).).*X*XtX).5XR.k.-.h.h.<.l.z.n.6XqX3XqX6XCXCXZXCXVXlXCXCXqXCXlX9XxX9XxX9XVX9XAXAX9XlXCXlXCXwXVXwXlXAXZXGXGXHXZXlX9X6XqXxXV.k.s 2 % % ; p J T ;.T v v y v v M P T Y J +.v d d f f d S E o.8.8.{ C A D g q d C M J Z -.;.:.V.W.5XT.4.c 9 5 b 3 0 n H I ] j.4.W.V.c.E.V.E.R.V.k.V.5XxX5Xc.>.:.4.c.5.M.v.;.k.5.1.+.M.*XtXpX=X-X&X<X<X:X2X#X'.'.[.+X%X&X:X:X:X>X<X1X1X1X:X2X2X1X1X<X<X<X<X<X<X:X&X+X'.L.L.L.L.'.'.L.d.d.L.'.'.+X%X%X%X$X|.U.I.*X*X*X",
"uXuXtX*X/.P.Z.y.q.y.C.P.).*XtXtXtX;X*X^.J.J.I.$XI.P.P.I./.*XrXfXhXhXaXhXhXhXhXhXLXvXuX).P.B.B.C.y.y.y.C.^.*X*X*X).^.P.P.P.).*XuX0XW.l.l.c.] -.h.c.z.3XwXqX6XqXqX9XqXlX9X9XlX3Xb.c.T.E.W.W.W.E.E.6X9X9XqXlX9X9XCX4X9XqXwXwXwXxXxXFXxXzX9X9X4XQ.c.>.>.| Z 5 # $ * - C ' P d p q 8 q q q p d C C l S D z f p f z C Y G D z f f f f a a d d v Z R ;._.>._._.iXSXx.C # # 2 9 5 0 s c Y +.V.R._.5.v.5XiXV.v.4.9X5X_.4.' V.j.4.V.T.c.+.4.k.R 1.*XyXgXkX%X:X:X:X#Xd.g.'.#X+X'.'.@X:X1XMX1X1X:X2X2X2X1X1X1XkXkXkX<X>X&X%X&X@X'.'.'.L.d.s.s.s.s.a.s.d.d.L.'.+X%X%X].L.K.I.yXuXtX",
"hXhXhXuXtX*X^.P.P.P./.*X*XtXtXtXuXuXuX*X)./.*X;X*X*X*X*X*XtXuXhXhXhXuXtXtXtXyXuXvXhXuX*XI.C.i.y.y.y.y.B.P.^.^.I.P.I.^./.).*X*XeX(.E.,.l.l...:.l.l.h.n.8X6X8X3XE.b.E.qX9X3X4Xc.l.-.,.c.E.W.W.T.c.4X4X3X6X9X0X6X9X4XE.W.9XqX6XW.E.4XW.T.b.c.k.>.| | -.>.+.H t = o - 2 p M d q 8 w 0 w 8 q f d f f f f f f f f f f C z f p q q q q d p r p a v ' M.;.k.Z.5X5XSXzX(.4.r # $ 9 2 r r r C J R ;.5.4.V.5.5.T.4.T.T.Q.>.;.T T :.h.E.iXc.' >.@.1.^.oX$X%X%X&X:X#X'.g.'.{.#X#X'.#X#X2X1X1X1X1X2X@X#X@X2X&X:X>X>X>X>X:X&X%X%X+X'.L.'.'.K.s.s.s.s.d.d.d.s.s.L.'.@X@X[.].|.|.rXtXtX",
"hXhXhXhXuXtX*X*X*XtXyXgXhXfXuXuXuXuXhXuXtX;XyXpXvXhXhXhXgXhXhXhXhXhXuXtX*X*X*X*XtXtXtX*X).P.i.y.y.y.y.y.B.C.C.B.C.P.^.$X*X*X).^.R.c.:.c.:.:.<.l.l.h.z.3XqX6XE.b.b.v.b.c.h.,.-.,.-.-.-.:.,.c.E.W.E.T.b.T.E.W.W.b.E.l.l.E.E.j.:.<.-.-.-.>.,.,.>.-.4.5.4.:.T a =   = X # 0 p q 8 w 8 , , 8 w g q w w q q p f e q q f f p q q q q q q q w ; r E @.;.;.V.k.k.5Xk.5X`.(.} s - = = 9 2 9 p s ' 4.!.V.Z.P ;._.v.>.+.V.c.' | ` -.j.V.4XzX9X!.k.o.P.;X;X%X%X@X#X'.g.g.'.#X#X'.'.'.#X2X1X1X1X:X2X#X'.'.#X+X+X@X%X&X&X&X%X%X+X'.L.L.'.'.L.K.J.K.K.L.d.s.a.f.s.L.+X@X$X$X%X=XtXtX*X",
"hXhXhXhXfXyX;X*XuXgXhXhXhXhXhXhXtXyXuXgXgXgXgXhXvXvXvXhXhXhXhXhXvXvXjXhXuX;X$X/.^./.$X*X).I.J.B.B.y.y.y.y.i.y.y.t.y.C.P.P.P.P.C.T.l.<.l...-.<.h.h.h.l.E.qX8Xb.E.c.l.l.h.h.:.] I ` ]  .-.,.j.k.c.c.c.c.j.,.l.l.-.h.:.-.:.| I ` .. .} | -.;.-.-.| >.-.| ` J b 0 - # o o * 8 q q 8 ; ; ; , 8 8 8 w 8 8 w w w w q q p e e q q q q q q d d p m ' o.L ;.x.+.`.k.4.k.R.V.R.5.' 2 9 8 0 2 2 0 Y +.;.@.5.R.V.(.V.-.A T P :.4.| +.W.5XW.W.4XiXSXH.*X*X;X-X%X+X'.d.d.d.'.#X'.'.'.'.#X2X:X1X:X&X@X#X#X#X@X@X@X%X%X&X&X%X%X+X'.L.K.L.'.+X'.L.L.L.K.d.s.a.p.f.d.'.@X%X%X$X%X=XrXtXtX",
"gXgXfXuXtX*X*X$XtXtXuXhXjXhXhXhXyXuXuXhXhXhXhXhXhXhXjXhXhXhXjXjXjXvXNXNXvXhX*X^.P.P.!.^.^.^.^.^.P.C.y.y.y.y.y.3.&.2.2.3.y.y.y.M.T.,.h.:.....<.<...:.h.b.3XE.b.3X3X6XW.c.l.h.-.I ]  .]  .| :.,.,.,.,.j.:.] ] | _ ] ` _ I J H I ` K I ` | | |  .} } ` T T T A a 5 # = * o # 5 8 - : ; ; , , < < w 8 8 8 w w w q q w w w w q q q q f C Y E S f d Z ;.' 7.;.#.Y k.7.k.M.k.T.A a 2 9 r 9 a C J A } 4.>.+.;.} A p M J 4.-.j.V.c.W.(.j.4.T.bX^.tX*X*X%X+X'.d.d.d.'.{.#X#X#X#X+X@X2X:X:X&X2X2X2X&X:X:X1X:X>X>X>X:X%X@X+XL.L.K.L.'.+X[.'.'.L.s.a.p.p.a.s.'.+X%X%X|.].|.|.rXtXtX",
").).).)./.!.P.H.$X*X;XyXuXgXuXuXhXuXtXyXhXhXhXhX*XtXyXgXhXjXhXhXhXjXNXNXNXhXtX).^.P.P.P.^.).*X*XP.H.B.B.i.y.y.3.&.&.O.$.&.&.3.t.c.<.h.| ..| :.:.....h.l.E.b.E.6XlXAXwXb.h.h.l.:.-.| ` I I ` +.-.| -.-.] P U P U H K H K I _ T J N P ` | ..| | | | } ' ' ` J c r 2 - * o o o O % * : ; ; , , < w 8 8 w q q q w 8 8 w q e f f f f f C Y Y Z C A Y #.' { T r #.-.T +.;.R.R.5.T v 2 2 ; r 0 a v +.;.o.-.+.P M s v A ;.4.R.T.,.-.:.c.V.v.T.6./.tX;XY.'.L.d.d.'.{.#X#X#X@X@X@X2X&X:X:X2X&X&X:X1X<X1X1X<X<X<X<X>X&X%X+X'.L.K.L.'.+X'.'.L.d.p.f.f.p.d.L.[.@X%X%X].K.I.I.=X=XtX",
"P.P.P.P.P.P.P.P.).$X*X;XtXtXtXtXtX*X^.^.).*X*X*X*X*XtXuXuXgXuXuXtXuXhXhXhXuX;X*X*XoX/.^.^.^./.).P.C.B.y.y.y.t.2.&.&.&.&.&.2.3.t.4.<.<.] | :...h.<.....h.l.b.E.3X9XlXqX4Xb.h.l.-.` ` ] ] ] T I J I I P I Y H J P H Z Z J T T T T ` | <.>.-. .T I ` ` T ` T I H M r 8 = * # o . O O * : ; ; ; < w w q q q q w w 8 w q e p f d d d p S S f C o.@.E E Z L a Z +.;.J Y ;.(.V.R.Z.k.Y y 8 9 9 r C R ' @.+.P P ;.1.+.#.>.k.j.;.c.v.| ,.,.c.(.0XtXXX*XU.L.K.d.L.#X@X@X#X@X2X&X:X:X:X:X:X&X:X:X1X1X<X<X1X>X>X<X<X>X:X&X%X'.L.L.L.'.[.'.L.s.a.p.f.p.s.d.'.'.+X%X+XU.J.D.J.*X$X*X",
"I.^.).*X*X*X*X*X).*X*X*X;X*X*X*X).P.B.y.C.P.P.P.*X*XtXuXuXuXtXtX*X*X*X*X*X*X*XtX;X*X*X$X/.I.P.P.P.C.y.y.y.y.3.2.&.&.2.2.3.y.y.M.:.:...]  .h...l.h.] ] ..h.l.b.b.qX6Xc.l.h.-.<.-.] ` I I H H J J J Z b Z T P J Y T A Z P P J T :.T } -.<...` I I ' } } ' T H b a d r 5 - = = % O   O * : : : < w f q w < ; < w q ; < w e f f f f ; p p w q v Z v r a a v Z A C Z J J ' ;.4.V._.!.;.v = 8 2 r a v Y o.} } ' M v -.' +.c.5.5._.E.,.-.l.T.nXbXhXgXU.L.K.d.'.@X:X2X#X&X&X:X:X1X1X:X:X:X:X:X1X1X:X:X:X%X&X:X>X>X>X:X&X[.[.L.L.'.'.[.L.f.f.p.p.a.d.L.'.L.'.+X'.I.J.D.J./.^./.",
"*X)./.*XyXhXuXtXyXuXuXyX;X*X/.!.C.B.B.C.P.^.$X*XhXhXhXhXhXhXfXfXoX*X).^.P.P.*XtXuX;XoX^.P.I./.$XP.y.3.2.3.y.B.B.y.y.B.y.3.y.y.7...:._ ] h.h.h.:.:.[ <.<.<...h.h.b.l.<.h.-. .<.]  .] ] T H Z J I +.P P T ;.' ' T ` T +.` Y T A P I T K -.T ` N I ` T M T Z c Z T v C v 0 - * * O . . + O * : : ; q w w w 8 8 < < ; ; ; 8 w q f f f f e f d C C d : 9 y v Y Y A J M o.+.Y E #.4.5.k.+.M - X 0 2 2 y #.#.} >.1.@.M M v.5.T.,._.iXk.| | c.eXcXhX;X;XU.+X&X&X%X@X%X2X:X:X:X:X:X:X:X:X>X:X:X:X:X&X&X%X+X+X+X+X+X+X@X@XL.L.L.L.K.s.s.s.s.s.L.'.'.+X#X#X'.'.'.'.].].U.U./././.",
"*X).^.$XfXhXhXtXuXtX*X*X).)./.^.P.P.P.P.P.).*X;XhXjXvXvXjXhXhXhXtXtX*X).P.P.^.*XtX*X|.^.^./.*X*X/.P.y.y.y.C.P.P.C.B.C.B.y.B.B.7. .:._ ] <.<.<.:.<...<.<.:. .<.<.l.h.:.:... ...] :.:.:.| T ` ] ' T T ' ] | ' ' T ' T ` P Y _ A H A ` I | H ` H H T P b I J M v v v A C q * O o . . . + O @ * * * < < < < < 8 8 8 8 < ; ; < w p f d z z z f p r q a d v J { #.o.' R ' A p a A R o.+.' T M 2 #   = y M S o.@.#.5.R.a X T } +.5.T.4XzX,.y @.t.bX*X$XU.+X&X&X&X%X%X:X:X:X:X>X>X>X>X>X>X>X:X:X:X:X:X:X%X%X@X%X@X@X@X@X'.'.L.K.d.s.s.s.K.L.[.'.+X+X#X'.'.'.'.'.[.].|./.*X*X*X",
").^.I.).*XtX*X*X;X*X).^.P.!.^.).P.P.P.P.^.$X*XtXhXvXvXvXvXvXvXhXhXuX*X).P.C.P.P.*X).^.^.^.).*X*X*X).P.C.P.I./.).P.P.P.H.B.P.C.7.[ ..[ [ .. ...:.<...<.:..._  . .:.....[  . .`  ...-.:. .I ] | T J ` ' } ' | T P J J Y T T T C b M I I ` N I H H J J v H M b s a Z v r 2 = * O   o . + O O O O O * = : : ; < < < w < : = : 8 q f f d C C p q w w p p C S Y R ' R o.J v a v A P A P @.Z.@.A r 2 ; 6 ; d R @.>.6.).Y X s c _.dXk.iXPX4X` T E M.oXOXOX%X&X>X:X&X:X:X>X<X<X<X<X<X<X<X:X>X>X<X<X<X1X1X%X%X%X%X%X%X%X%X+X'.L.d.s.s.d.K.[.'.+X+X+X+X'.'.L.L.L.'.[.[.|.|.*X*X*X",
"P.^.).^.P.C.P.P.).^.I.P.P.P.P.^.P.P.P.^.).*X*XtXhXhXvXvXvXvXjXhXuXyX*X^.P.C.H.H.^.^.P.P.P.^.).*XtX*XP.P.!./.).).I.P.H.J.H.P.C.1.] ..[ [ .._ ....<...<...| K U I _ ]  .U I  .K  .]  .| ` H ` | H P T T | ' -.I N M H T I J H M B c A H I N N B H Z H b c t t y s v q = * : ; *   O O . . . .     O > > * = : ; ; 8 < : = : ; 8 w < w q e g q q p p f C A d Z ' +.@.E T +.+.o.R J Z o.k.@.+.E C 8 % O y d T v.v.>.Y a & 9 k.(.;.5XxXSXzX;.Y E ^.B.$X%X>X<X:X:X:X<X<X<X<X<X<X1X1X1X>X>X<X<X1XkXkXkX:X:X&X&X%X%X%X%X%X+XL.s.s.s.K.L.%X%X%X%X@X+X'.L.K.L.L.[.[.|. X$X*X*X*X",
").*X*X^.C.y.y.B.P.P.P.P.P.P.P.P.^.).*X*XyXuXhXhXuXfXhXhXjXhXjXhXuXtX*X*X$X).).).).)./.^.^.^./.).*X/.P.C.P.P.P.P.P.B.B.C.C.P.B.&.| [ .... .V  ...:...:. .] N B N V U _ V H ` K ] ] | | ` I  .| J P I P | ` ` A N H H N M c c Z H c N N A c M c B c v u y 2 0 9 r r 8 * # % % O O O O . .         O O O > > * * * : : : : : : : : : * * ; w e p p d f C d p d R +.J v A } ' ' ' ' #.' +.@.k.+.E v ; @ ; ; l 5.6.#.4.P % 0 J 5.R.xXT.xXiXV.~ ~ B.t.$X%X>X<X>X>X>X>X<X<X1X1X<X1X1X1X>X>X<X1XkXkXkXkX<X>X>X>X&X&X%X%X%X+XL.d.s.d.L.'.%X%X%X%X@X[.'.L.K.L.L.[.[.|. X$X X*X$X",
"hXtX$X/.^.P.B.y.B.C.P.P.I.P.P.P.;XtXuXhXvXvXvXvXtXtXyXuXuXgXhXhXgXuXyXuXhXhXhXhXyXtX;X*X*X).^.^.!.P.B.y.y.B.y.y.y.y.B.C.B.P.B.>.-.[ ......V  ...-.....] ] b i n n V U B B I _ ] _  .` I `  .` H H H I } I N B H H N i i c c N N i N N u y M b t y 0 9 t 9 r 2 5 a 2 o o O o . . O . . .         O O O O O @ > > @ > = : : : * > , * @ > ; q q e f f d C Z S J A T E +.5.5.4.5.M.+.' J A T J A y l ; * 8 d W R @.>.@.M & r } 4.R.j.9XzX_.V.C &.&.OX%X&X<X>X&X>X>X>X<X<X<X<X<X<X<X<X<X<X1X1XkXkXkXkX1X<X>X>X:X&X%X%X+X[.L.K.K.L.L.%X%X%X%X+X'.L.L.L.L.L.[.[.[.|.|./.)./.",
"hXtX)./.$X).P.y.B.B.C.P.P.P.I.!.tXuXhXvXvXMXMXMXuXtX;X*X;XuXjXjXuXtXtXuXjXvXvXjXhXfXtX*X/.P.C.B.C.y.y.3.t.3.2.&.2.t.B.J.B.P.C.6.h.[ ....:.V .. ......._ _ n t i 7 B V B c H  .` H I H Z I I N N N A I P A s B N M M u c B c B i c N c 7 0 B s 3 0 - - 9 5 9 = 5 p =     o o .   . . . . . . + + . . + O @ > * * O O > * * * * * 8 < ; ; ; < w w p a m S R Y C d o.+.;.4.5.;.;.4.;.k.#.E J T E d M 0 * w p g M E P _.C.9 5 v P -.-.4X9X_.C.w ~ / OX$X&X&X&X&X:X>X>X>X>X>X>X>X>X>X1X<X<X<X<X<X<X<XkXkXkX<X>X:X&X&X@X+X[.[.L.L.L.L.[.[.+X+X+X'.L.L.'.'.'.'.].].].U././.^.",
"tX*X/.^./.^.P.B.C.C.C.C.H.P./.$X*X*XuXhXjXvXvXjXuXyX*X*X*XuXjXvX*X*X*XtXjXvXjXhXuXyX*X).P.B.y.3.B.y.3.2.3.2.&.&.1.3.C.P.B.P.D.v.j.[ ....:.V ..[ ......_ _ i t u 7 B V B n V -.` N K B B ` I b N N A I B N M N s i M i c s y M M N c y 6 y s r - 9 & = 2 = - & p 2 O   . .   O : . . . + + + O O     . + * * : : O O O O O > = : < 8 q w < ; 8 w 8 q q r d f r p v Z A Y +.>.5.Z.k.V.;.4.} T T Y w 0 O * 8 q C P #.Z.1.A ; 8 Y v T W.+.V.o.f D ^ U.$X;X&X&X%X&X:X:X:X>X>X>X>X>X>X1X1X<X<X>X>X>X>XkXkXkX1X>X>X&X&X+X+X+X[.'.L.K.K.[.'.'.+X[.'.L.L.'.'.'.'.[.[.U.U./.).).",
"I.P.P.P.P.P.P.I.y.y.C.).tXyX*X^.*XyXgXyX*X/.$X*XyX;X*X*X*X;XgXjX*XtXuXhXuXtX*X/.).*X*X*X^.B.2.&.t.3.3.1.1.&.1.1.@.t.P.^.*X*X).!.,.] ..I ] K [ [ _ h.U _ B n 3 u 7 n K n t I ` _ B N B I H I b i H N c c c c s i t 6 s i u 0 c c 9 0 0 0 9 5 - = - - = * & * = = O O o o o . . . . .             O o X . X O # * ; : * @ # O * * * * : ; ; ; : : : - ; ; 8 w w q g p l P } #.#.o.+.4.M.v.,.+.} } P l 0 @ @ p S C z 6.Y q d q C S Y #.M.B.z , G &.H.$X%X+X%X&X@X&X&X&X&X>X>X&X&X&X<X<X<X<X<X<X<X<XkXkX<X<X>X&X&X&X'.'.U.U.U.U.U.U.%X%X%X+X+XU.L.L.U.'.+X+X+X[.U.U./.).*X",
"y.y.P.^.).*X$X$XP.!./.*XuXhXyX*X/.$X$X$X/././.$XoX$X*X*X*XtXyXyXtXuXhXjXhXuX*X).$X*X;X;X*XP.C.y.M.y.6.2.2.6.y.M.6.Z.P.!.^.XX).^.:._ ] I _ V [ [ _ h.U U b n 2 t t n V n u K ] I V V B H N B b N N M s i i u 0 9 6 t s y 0 t i t 9 8 8 8 2 ; - = = = * # # % * * O o o o . . . . . .   .         O X X X o o # * : = * * % % % * * * : : ; ; ; : O @ * = ; , 8 8 q p f d M C W Y } ;.5.k.,.-.@.>.R P M , o , d f q R ^ > e f f q z G o.O.w < W 3.t.!.$X%X&X:X@X&X&X&X&X>X<X>X>X&X>X>X<X<X<X<X<X<XkX<X<X<X&X&X&X&X+X+X+X+X+X+X+X+X%X%X%X$X+X+X[.[.U.'.+X+X+X'.U.U.U.).*X",
"O.2.C.*XtXuXtX;XtX*X*XtXgXhXhXuXP.P.P.P./.oXoX).!./.*X;XyX;X*X*X;XuXhXvXvXjXyX*X*X*X*X*X*X).^.P.P.B.y.6.6.M.H.P.!.^.^.P.P./.).^.-.I ` K _ V [ ] V ..K V n n 9 7 7 n V u c V  .H H N V b c u b H b s u y t t 5 3 5 u u t 0 0 6 5 5 2 ; - = * * = * * # O o O # # o o o . . . . . . . . . . .     X X X X X o # * * * = = * * % # * * * * = : ; , : : ; , 8 w q q 8 q p p y g y y Z P } } } } | -.} T P y O ; f p q D 2.> d C f < g z W D ; g W M.&.B.OX%X<X<X&X2X%X&X>X<X<X<X<X>X>X&X&X>X>X<X<X<X<X<X<X>X&X&X&X&X%X%X%X%X+X+X%X%X%X%X%X%X%X%X%X%XU.'.+X+X+X+XU.U.U./.$X",
"&.3.P.*XuXhXuXtXyX;X*X*X*X*XtXtXP.J.C.P./.*X;X*X).$X*X;X;X*X$X/./.oX*XtXuXhXhXhXtX*X*X).).^.P.P.P.H.Z.Z.B.H.!./.XX*X*X^.!.^.^.!.+.K U H U B [ _ V  .V B n c t 6 7 n b n b B  .B V N V u i u B M s u 0 6 6 6 6 6 0 u 0 u 0 6 & 5 2 - * # O # * * # O o o o o o o . o . . . . . . . . . . . . . . o X . . X o # % # * = - = * % O * * @ @ * : ; 8 8 w w w q q q q 8 8 8 w 0 w 5 - 6 0 y a i c N H P N Z y - 0 C s l C 6.w D W z e g z W e , l W y.$.i.U.$X&X>X@X@X+X%X&X<XkXkX<X<X<X<X<X<X<X<X<X<X<X<X<X>X>X&X&X&X&X&X&X&X&X&X&X&X%X%X%X%X%X&X&X&XU.'.+X+X+X[.U.U.U./.).",
"B.P.^.*XtXtXtX*XoX).^.P.P.P.P.^.).I.P.I.*XyXyXyX*X*XoX/.!.P.P.P.H.H.P.P.).tXhXvXhXuX*X/.^.P.J.B.C.H.P.P.!.!.^.!.).eXtXXX/.^.!.C.+.H H V H b [ V b _ V b n b a 6 7 n c i c V ] c B N N t i c c t u 0 2 - 5 0 r y y y 9 t 0 5 # - = * # O o o O % o o o o o O o o . . . . . . .   . . . . . . . . X X . . X o O % O % * = - = * # * % O O @ * : ; , , ; ; ; - - : 8 ; * * - ; ; ; - 2 5 6 6 0 y s u t y 0 - 9 s p d C o.f f z D e e D Y < w l W / $.i.Y.Y.%X%X#X@XL.+X&X<XkXkX<X<X<X<X<X<X<X<X<X<X>X>X>X>X&X&X&X&X&X&X&X&X&X&X&X&X%X%X%X%X%X&X&X&XU.[.+X+X+X[.U.U.I.U.|.",
").).*X*X*X*X*X*XP.P.P.C.i.y.B.P.*XoX/./.$X*XyXyX*XoXP.B.i.B.H.P.P.C.C.C.P.).*XuXhXyXoX).).^.P.B.Z.C.P.!.!.P.H.C.^.*XtX*X*X).P.M.+.Z B B V u _ n B K B b b b v 0 7 n c n n K _ c c B B y i c u 3 0 6 - - 5 0 y u 0 y 9 2 - 2 & $ # O o O O o o O o o O O O o o X . . . . . . . . . . .   . . . . X X     X O O # # % * * = = * * * * @ @ @ * * * : : : = * % @ O @ * * % O % = ; & & & & = - 3 5 2 6 t t - - 9 0 y S R f , e W q f W G : q d S D $.y.J.Y.+X@X+X@Xs.L.+X>X<XkX<X>X<X<X<X<X<X<X<X<X&X&X&X&X&X&X>X>X&X&X&X&X&X&X&X&X%X%X%X%X%X%X%X%XU.[.+X+X+X[.U.U.Y.U./.",
").*X*X;X;X;X*X*XP.P.I.P.C.B.C.P.*X$X/.I.P.I.oX*X*X/.P.B.B.J.!./.*X*X$X/.I.P.P.P.*X!.P.P.).$XI.C.Z.B.C.C.C.Z.Z.M.P.).*X*X).).!.C.-.Z b B B t _ t V V b B N b v u t i n c u ` H s b c i s y y 0 6 5 2 - 2 6 0 0 0 0 5 - $ $ & & X X O o O O o o O O o # # # O O X . . . . . . .   . .             X .     X O O # * % % % * * = : * * * * * @ O O = = = : : - - - O * = = * * - ; r r y y u s s i t n n u u 9 5 0 q l R D ; g D e f G C * w z E l ~ t.B.Y.%X&X@X+Xp.s.'.&X<X<X<X&X&X&X&X&X&X&X&X&X&X&X&X&X&X>X>X<X&X&X&X&X&X&X&X&X%X%X%X$X+X+X[.[.U.'.+X+X+X[.U.U.I.I.U.",
"I.).*XtXuXuXtX;X!.).$X).P.P.P./.).oX/.P.B.B.P./.*XoXI.I.I.oX*XyXhXhXhXuX*XP.y.2.y.y.t.B.^.$X^.J.C.B.M.y.y.y.M.M.H.^.)././.).^.C.@.C b B b 7 _ 7 V B b N H b M a t u n b t  .N i b i y B y 6 3 y - - 2 5 0 9 2 - r % # X o   $ X   X o # # O O X O O # * * # o X . . . . . .     . .             X .     . O O # * * # O # * : ; * * = = * O .   @ % * = : ; ; , w ; = * - 5 9 9 0 0 y y s c s i V H b b H M r y q 8 E W , , f e f E f : 8 W O.D W &.B.U.-X>X@X+Xp.s.L.&X<X<X>X&X%X%X%X%X%X%X%X&X&X&X&X&X&X>X<X<X&X&X&X&X&X&X&X&X%X%X%X+X+X'.U.L.U.'.+X+X+X[.U.U.Y.I.U.",
"tXtX*XtXhXjXjXhX*X*X;XuXuXtX*X/.tXoXP.B.B.B.y.t.H.P./.*X;XtX;X*XNXjXuXtX;X*XP.B.&./ ^ $.y.P.^.P.H.P.P.C.Z.Z.P.!.B.C.P.^.*X).P.M.4.I ' N n u B c n B b c ` H s b t b s u u J u y r 0 0 0 6 5 ; - 2 - = & & & & * X X X X o o O # = - - : : ; ; ; = * * * # O O o O .         . . . . . . . . . . X X X X X X X X = * O o O o O % * O @ - : % O O O @ * * : - : ; ; ; * # # & - 2 2 2 9 u c M N N b V K K V c t 5 - 5 Y C @ : e f e j g ; e S Y Y E t.y.Y.>X>X:X'.K.s.s.L.&X<X<X&X&X&X&X&X%X%X%X%X&X&X%X+X+X+X+X%XK.L.+X&X&X&X&X+X%X%X%X%X%X%X%X$XU.'.+X$X$X+X+X[.Y.Y.Y.",
"uXtXuXhXhXhXuX;X/.*XtXhXhXhX;X*XyX*XI.P.P.P.J.B.P.I.$X;XyXyXtX;XhXhXuXyXuXuXtX*Xy.3.&.&.3.B.P.P.C.P.!.!.P.!.^.).^.!.P.^.^.^.P.M.M.#.;.H n t n u n b c i I M s c t u s s u N r y 0 9 9 5 2 - = * = = & % # # % & X o o O # # % & ; ; ; ; ; ; ; ; = = = * % # O O O o .       . . o . . . . . . . X X X X X X X X * * # # O O # # * * * : : : = @ O O @ @ * * * = * * O o o & = - 0 y s s c b B b b b V V V b n u - = d f > > < w e e 8 ; f S W G Y 6.y.J.%X&X%X'.K.s.s.L.+X&X&X&X&X&X%X%X+X+X+X+X+X+XL.K.K.K.K.K.p.s.K.'.+X+X+X'.+X+X+X+X+X+X+X+XU.'.[.+X+X+X'.'.U.U.U.",
"uXuXuXhXjXuX*X^.^.*XuXhXhXhXuXtX;X*X/.I.I.I.I.P.P.I.oX*X;X;X;X*X*X=X;XtXyXhXvXNX*XP.y.2.2.3.y.C.C.P.^.).).).*XeXeX).!.P.P.P.P.C.R.k.k.I n 9 t u t n n t A v a a t r s v y a 9 0 2 - - = * % @ % & # O o o o # # # # % & * = - - 2 2 2 2 ; ; ; ; ; ; - = * % # O O O .       . . . . . . . . . . X X X X X X X X % * * * * * % # O : ; = : ; ; - @ @ @ @ O O O O # # o o # * - 2 9 s M c c M H H _ _ U U U I ` ] A r r 0 * * , w e 8 : 8 d S D D S 2.y.i.K.'.+Xd.L.K.s.K.U.%X&X&X+X+X+X+X+XU.U.U.K.K.s.i.p.p.p.p.f.p.i.K.L.L.L.L.L.L.L.L.L.L.L.L.L.L.'.[.[.'.U.L.U.U.U.",
"yX;X*X;XtX*X).P.*X;XyXuXtXtXtXuX/./.I.^./././.I.J.P.I.).$X$X$XoXI./.oX).oX;XhXNXfXtX/.B.3.2.y.B.P.^.).XX).).*XeXeX).P.B.Z.C.!.^.(.R.x.P u t t b t u n t b s a p u y Z M 0 0 5 5 & & % @ O o X . o o X X X o O # & = = - 2 5 5 5 8 8 8 8 8 5 5 2 5 2 ; : = * * # O O . .   . . . . . . o . . . . X X X X X X X X O # * = = * * # . * ; : * : ; , * * * % O O O O # # # # = 2 5 9 6 b H M c N H H I K K H H U _ ] -.T Z r - & ; g 8 ; : w f C C C C O.y.y.i.K.'.d.'.L.s.s.L.'.%X&X+X+X'.U.L.L.K.K.s.s.i.p.f.f.9.9.=.9.p.i.s.s.s.s.s.s.s.s.s.J.K.K.K.L.L.U.U.U.L.K.K.K.K.",
";X*X^.^.).*X*X).tXyXtX*X/./.*XtX/./.$X$X$X$X*X*XP.I./.$X*X*X*X*XP.!.!.P.P.P.*XfXuXhXuX*XH.y.y.B.!.^.).).^.^.^.).*X/.P.Z.Z.H.^.eXiX5XV.I t t t b t n c t n a a r a s A a 5 9 2 % O O o o .       .       X o # * ; ; 2 8 9 q q q q q 0 9 w 8 8 8 9 8 8 2 ; = * * O O . .   . . O O O o o o . . . X X X X X X X X o O * = = = * # O O O * = * = ; : - = * * O O O # # # * - 2 9 0 t A I M s b N b V V V B B V H H J } ' H a 5 5 8 : h 8 q q d C C z ~ 3.f.f.s.L.K.[.U.L.K.K.L.+X&X+X+X'.L.K.K.s.s.s.s.i.p.f.9.9.9.) ) =.f.f.p.p.p.p.p.p.p.i.s.s.s.s.K.K.L.L.L.K.J.K.L.K.",
";X$XI.P.^.*X;XtXuXuXyX*X!.P.).;X*X;XyXyXyXyXyXuX*X;X;XtXyXyXuXuX^.^.P.P.P.P.).*XuXhXhXuX*XP.C.C.^.^.^.!.P.P.^.).*XXX^.!.P.!.*XuXcXuX(.| u u t t t c b t t r p 9 r y v 5 - 5 - o o o . . .       . . . X o % = - 5 8 9 q r p a a y r q q q 9 w 8 q q 9 8 ; - = * O O O . . . . O O O O O o o . . X X X X X X X X o o O # * * * * : o   O : - * * : : : = * % @ O X X o # = - 2 2 0 b Z b n b B b H H K H H H H H H ` I T ` I v 8 : , q q w p M l C W &.3.f.s.L.L.+X+X+XU.L.L.+X&X+X+X'.L.K.s.s.s.s.i.p.f.9.9.9.=.) ) ) ) =.=.=.=.f.p.p.p.p.p.s.s.s.s.J.K.K.K.s.s.L.L.L.",
"uX*X*X*X*XtXyXuX*XyXhXuX*X^.oX*X*XyXhXjXgXyXuXhXgXgXgXgXhXjXjXhX*XoX).*X*XtXtXtXhXhXvXhXyXoXP.P./.^.!.P.H.P.).eXtXyXuXtX*X*XtXuXcXuX5Xj.Z K n 9 t c b 6 9 8 q ; 8 2 8 o * = % O o o . . . . . . o o O O % = ; 5 9 0 q y p d d v p p p r q q 9 9 r q q 8 2 ; = = @ O O . . . o O O O O O o o o o X X X X X X X X X X X o o # * * : * O O * : = = * * * * @ @ O O X o # * = - 2 2 9 t u s b b B B B B B B B N N N I I N I ] ' T v q , w q q q d l C z ^ 3.p.K.'.+X+X%X&X%X+X'.+X&X+X+X+XL.K.K.s.s.f.f.9.=.=.=.=.=.) ) ) ) =.=.=.=.9.f.f.p.p.p.i.s.i.s.s.J.s.s.s.s.d.s.s.",
"gXyXtXuXgXhXuXtX^.tXhXhXyX*X*X;X$X;XgXgXyX;XtXyXhXgXgXgXgXhXjXjXtX*X*XuXvXNXvXvXvXvXvXhXuX*X^.P./.^.!.C.H.^.eXhXhXvXvXcXuXtXtXuXuXiXiXR.T } Z t t n b 5 ; ; 8 * = o o   & % O & O O o o . . . o o o # # = ; 8 w q q r p d v C C a p p y q q 0 9 p r q 9 8 ; - = @ O O . . . O O O O O O O o o o X X X X X X X X X .     X o % * * , 8 * O @ : , @ @ O O O O O O # & = - 2 2 2 2 r 0 t s c c n n c c n n n c B B b V H I B u K T d 2 ; p r q s l S f R 3.i.Y.'.%X+X&X>X&X+X'.+X%X%X+X+XU.L.K.s.s.=.=.) ) ) ) ) ) f.f.f.f.9.=.f.f.9.f.f.p.p.p.i.i.i.i.s.J.J.s.s.s.p.p.p.",
";X-XfXyX*X).*XeX).XX*XyXhXhXfXyXyX;X*XuXjXvXhX;XuXfXgXhXhXjXjXhXdXuXyXyXuXdXhXcXuXdXhXhXfX;XoX/.C.P.!.P.H.P.).tXbXvXhXuXtXeX*XXX*X).*X*XZ.Z.M.z q Z S q % o O . O O * % % & & $ - = & # O O O O o = $ 9 = q 2 8 r q a r v a v v a p r q r r g r q f f r q 2 = ; ; * O . X O O O O O o o O o o o X X     . X o o X X X X X X . . @ @ @ @ @ @ @ @ O O O O O O O O O O * = 2 8 9 0 r r r a s s c v s b N b b H _ ] _ U U _  . ._ J T s 9 0 r 0 r M v C d @.C./.%X+X+X%X<X<X&X+X+X%X%X+X[.'.+XU.K.s.f.f.=.) ) ) =.=.p.p.p.p.i.i.i.i.i.i.i.s.s.s.i.p.p.K.J.y.S.i.i.J.f.i./.",
"/.*X-X;X*X^.^.^.XXeXtXhXvXvXfX-X^./.).*XgXjXhXhXyXgXjXjXjXhXhXfXuXdXdXhXhXhXhXhXtXyXyXyX;X$X/.^.!.!.!.!.!.).tXdXdXdXyXtX*XXX).^.P.P.P.).P.P.P.^ R 8.#.d * O % * : O O O & = - 3 3 = & # o O O O o = # 8 - 9 2 9 r 0 p q a r s a a p p g p p p p p v v a q = O : 8 - O X o o O O O O O o o o o o X X X X X o O o O O X X X X X X O O O O O O O O O O O O O O O O O O * - 2 8 9 q r r r p a s s c t c N N H _ ] [ _ _ U U _ _ I H H n t y r 8 0 v s c C { t.B.OX+X+X&X<X:X+X'.+X+X%X+X'.'.+XU.K.s.f.9.=.=.=.9.p.p.K.K.K.K.K.Y.Y.Y.s.s.s.s.K.s.i.p.i.J.i.i.J.Y.J.J.vXNXLX",
"Y.OX*X*X).!.P.C.).).tXhXbXvXfX;XP.I./.$X*X;XgXjXyXgXhXjXjXhXuXtXuXdXcXbXvXcXhXdXtXtX;X*X$X/.I.P.^.P.Z.Z.P.XXtXhXeX*X*XXX/.^.^.!.C.i.B.^.).*X*XB.Z.C.6.L g q f d D q O % = - 3 6 3 = & # O O O O # * = 2 2 9 8 8 0 9 q 9 r 0 r r a p p p p a d d Z Y Y S f : * w q 5 * O O o O O O O O O # O o o X X X O O o o o O O O O o X X X O O O O O O O O O O O O o o o o # * = : 5 9 q r r r r r r a a a a v H N V U _ _  .] _ U I I I I b u u a r 2 8 a r u Z A &.y.Y.K.+X&X:X&X'.d.d.L.%X+X'.'.'.L.s.i.=.=.=.9.f.i.K.L.+X+X+X+X+X%X$X%X+X+XOXOXY.s.s.i.s.Y.Y.J.p.B.gXNXIXIXIX",
"Y.OX*X;X*X^.H.Z.C.H.^.*XyXyX*XOXoX*X;X$XI.P.$XyXyXyXuXyXyXyX;XtXyXhXbXbXbXvXhXyXtXtX;X*XoX/.!.P.H.M.3.3.M.^.*XtX)././.^.^.^.^.^.P.B.B.I.*X*X*XtXuXeXP.3.1.q.C.C.Z.R 8 ; 2 - 3 6 3 - = % O O O O # # ; - 9 2 9 8 9 9 9 8 9 8 9 9 r p p p p p d C Y R o.R C ; = p s q : O o o o o O # # % * # O o X X o O O O o o o o o o O O o o . . . . . . . . O O O O o o o o % * = ; 8 9 q r r r r r r r r r c M Z b b U [  .....] U K K H I b n u u q 2 5 r a t C m o.B.B.s.+X@X%X+Xs.p.i.s.+X'.L.U.U.L.s.p.=.=.=.9.p.s.L.+X+X+X%X%X%X%X%X%X+X@X@X+XOXK.K.Y.U.i.J.%XgXNXLXLXLXIXIX",
"$X*XyXyXtXXXP.C.6.6.6.M.P.Y.P.J.*XyXyX*XP.H.I.*XyX*X$X/./.oX*XtXyXhXbXNXNXvXuXtX;X;X;X*X$X/.!.P.B.6.&.&.y.P./.*X^.^./.).XXXX*X*X*XP.P.).*X*X).uXaXyX X!.^.eXuXtXtX6.q 8 2 - = 5 3 - = % O O O O # # 2 = 9 2 9 8 8 8 2 8 2 8 5 8 r p a p y p d C Z T ' ' Z 8 ; a Z a 8 * o o o o O # * * * # O o X O O # % # O o O o o o o o o o . . . . . . . . O O O O O O O O % * = ; 8 9 q r q q r r r r r a a v H H _ :.l.b.h.h..._ K H J I I N s y q 8 8 0 r u v Z Q J.B.K.L.+X+Xd.p.f.f.p.+XU.L.L.L.K.s.p.9.9.=.9.f.p.s.K.U.U.U.U.OXOXOXOXL.OX+X+XU.L.OX%XJ.U.jXLXIXIXIXLXIXIXIX",
"fXfXfXdXuXtX).P.6.1.O.O.&.3.p.y.I.$X*X$XP.P./.*X*XoXP.C.J.I.*XuXuXhXbXbXvXcXyXeX*X*X;X;X*X/.P.H.M.y.3.3.y.H.^.*X^.^.).*X*XtXtXyXyX/.).).*X).^.tX*XeXeX/.P.B.C.P.).q.w ; ; - - 6 3 - = % O O O O # # 2 - 9 2 9 8 2 8 2 9 5 9 9 9 p d v d p p d Z J R +.+.Y a q v Y C q = O o o o O # * = = * O o X o # * * * # o # # # O O o o o . . . . . . . . . o . . o o o . # * = ; 5 9 q r 9 0 q r r a s s v H ] | h.b.3X3X3X3Xb.h... . ...-._ M a y 0 0 5 9 a Z R o.B.J.%XL.+X+Xd.p.f.f.i.'.L.K.K.L.K.i.p.f.f.9.9.9.p.p.s.s.s.s.K.K.K.K.K.s.K.OXOXL.L.%X>X;XNXIXIXLXIXIXIXIXIXIX",
"jXjXhXdXdXtX).^.H.6.O.G E / &.3.B.P././.!.P.^.$X/.I.P.C.P./.;XfXuXhXvXbXvXhXtX*X^.).*X;X*X/.H.y.M.M.M.M.M.C.^.*X^.^.).*XeXyXdXhXtX).*X*X).*X).*XtXuXhXtXP.y.y.M.C.6.8 ; = 2 2 9 3 - = % O O @ O # & ; ; 9 8 9 9 2 9 2 q 9 r 0 r d C Z C d a m A ' ;.1.;.o.A v Z R A r : # o O O O * = - - * # o X o * = = * # o # # # O O O O O O o O O O O O O . o o o o o . . O # * - 2 8 9 q 9 9 q r a s v v H ' -.>.l.E.3X8XVXwXqX3Xc.h.,.h.-.| T Z s q 8 2 2 u m { 1.y.U.&X+X+X+XK.i.p.i.s.U.L.K.K.L.K.i.p.p.p.f.9.f.f.p.s.s.s.s.s.s.s.s.J.i.K.L.L.K.K.$X>XLXIXLXvXNXIXIXIXLXLXIX"
};
