/* XPM */
static char *_857506d92294cdde32e57a02d6750b1s9MHhFg5lmKW4ePy[] = {
/* columns rows colors chars-per-pixel */
"225 225 74 1 ",
"  c white",
". c #595652",
"X c #663931",
"o c #696A6A",
"O c black",
"+ c #8F563B",
"@ c #B86AA0",
"# c #693B33",
"$ c #291714",
"% c #D77BBA",
"& c #565656",
"* c #5A5753",
"= c #585450",
"- c #656564",
"; c #676767",
": c #5C5A57",
"> c #626160",
", c #321C18",
"< c #2F2D2B",
"1 c #100908",
"2 c #482823",
"3 c #563424",
"4 c #60362E",
"5 c #452721",
"6 c #834E38",
"7 c #A5A5A5",
"8 c #B4B4B4",
"9 c #373533",
"0 c #1B0F0D",
"q c #5F5E5C",
"w c #BD6DA4",
"e c #2F1B28",
"r c #532E28",
"t c #DFDFDF",
"y c #6C3E5E",
"u c #3D221D",
"i c gray96",
"p c #8C543A",
"a c #211210",
"s c #A35D8D",
"d c #784831",
"f c #282828",
"g c #C571AA",
"h c gray76",
"j c #8E8E8E",
"k c #130000",
"l c #8C517A",
"z c gray92",
"x c gray45",
"c c #101010",
"v c gray73",
"b c #D7D7D7",
"n c #CACACA",
"m c #200000",
"M c #27100B",
"N c #572D25",
"B c #484848",
"V c #E482C5",
"C c #202020",
"Z c #432C27",
"A c #3F3E3B",
"S c #4E250C",
"D c #4C2D21",
"F c #310A00",
"G c #352924",
"H c #74655E",
"J c #443732",
"K c #2A170C",
"L c #754435",
"P c #402425",
"I c #1F121D",
"U c #2F1A0A",
"Y c #9F9F9F",
"T c #858484",
/* pixels */
"                                                                                                                                                                                                                                 ",
"                                                                                                                                                                                                                                 ",
"                                                                                                                                                                                                                                 ",
"                                                                                                                                                                                                                                 ",
"                                                                                                                                                                                                                                 ",
"                                                                                                                                                                                                                                 ",
"                                                                                                                                                                                                                                 ",
"                                                                                               OOOOOOOOOOOOOOOOOOOOOOOOOOOOOOOOOOO                                                                                               ",
"                                                                                               OOOOOOOOOOOOOOOOOOOOOOOOOOOOOOOOOOO                                                                                               ",
"                                                                                               OOOOOOOOOOOOOOOOOOOOOOOOOOOOOOOOOOO                                                                                               ",
"                                                                                        7888888S333333333333333333333333333333DuuF8888887                                                                                        ",
"                                                                                       iOOOOOOO+++++++++++++++++++++++++++++++6X##OOOOOOOi                                                                                       ",
"                                                                                       iOOOOOO1+++++++++++++++++++++++++++++++6XX#OOOOOOOi                                                                                       ",
"                                                                                        OOOOOOO+++++++++++++++++++++++++++++++6XX#OOOOOOO                                                                                        ",
"                                                                                iOOOOOO0+++++++++++++++++++++++++++++++++++XXXXXXXXXXXXX#1OOOOOOi                                                                                ",
"                                                                                iOOOOOO1+++++++++++++++++++++++++++++++++++XXXXXXXXXXXXX#1OOOOOOi                                                                                ",
"                                                                                iOOOOOO1+++++++++++++++++++++++++++++++++++XXXXXXXXXXXXX#1OOOOOOi                                                                                ",
"                                                                         i8vvvvv8S333333+++++++++++++++++++++++++++++++p666XXXXXXXXXXXXX#uuuuuuF8vvvvv8i                                                                         ",
"                                                                         zOOOOOOO++++++++++++++++++++++++++++++++++++++d4XXXXXXXXXXXXXXXX#######OOOOOOOz                                                                         ",
"                                                                         zOOOOOOa++++++++++++++++++++++++++++++++++++++6XXXXXXXXXXXXXXXXXXXXXXX#1OOOOOOz                                                                         ",
"                                                                         iOOOOOO1++++++++++++++++++++++++++++++++++++++6XXXXXXXXXXXXXXXXXXXXXXX#1OOOOOOi                                                                         ",
"                                                                      xcCG+pppppp+++++++++++++++++++++++++++++++++++XX#XXXXXXXXXXXXXXXXXXXXXXXXXXXXXXXXGCcx                                                                      ",
"                                                                      xOO$++++++++++++++++++++++++++++++++++++++++++4XXXXXXXXXXXXXXXXXXXXXXXXXXXXXXXXX#0OOx                                                                      ",
"                                                                      xOOa++++++++++++++++++++++++++++++++++++++++++4XXXXXXXXXXXXXXXXXXXXXXXXXXXXXXXXX#0OOx                                                                      ",
"                                                                  ivhhHDD3+++++++++++++++++++++++++++++++++++6666666XXXXXXXXXXXXXXXXXXXXXXXXXXXXXXXXXX#u,,>hhvi                                                                  ",
"                                                                  tOOOd++++++++++++++++++++++++++++++++++++++4XXXXXXXXXXXXXXXXXXXXXXXXXXXXXXXXXXXXXXXXX###NOOOt                                                                  ",
"                                                                  zOOOd++++++++++++++++++++++++++++++++++++++4XXXXXXXXXXXXXXXXXXXXXXXXXXXXXXXXXXXXXXXXXXXXrOOOz                                                                  ",
"                                                                  zOOOd++++++++++++++++++++++++++++++++++++++4XXXXXXXXXXXXXXXXXXXXXXXXXXXXXXXXXXXXXXXXXXXXrOOOz                                                                  ",
"                                                               xf<J+ppp+++++++++++++++++++++++++++++++X######XXXXXXXXXXXXXXXXXXXXXXXXXXXXXXXXXXXXXXXXXXXXXX44X9<fx                                                               ",
"                                                               oOOK+++++++++++++++++++++++++++++++++++4XXXXXXXXXXXXXXXXXXXXXXXXXXXXXXXXXXXXXXXXXXXXXXXXXXXXXX#0OOo                                                               ",
"                                                               oOOK+++++++++++++++++++++++++++++++++++4XXXXXXXXXXXXXXXXXXXXXXXXXXXXXXXXXXXXXXXXXXXXXXXXXXXXXX#0OOo                                                               ",
"                                                           ihhnHDD3++++++++++++++++++++++++++++6666666XXXXXXXXXXXXXXXXXXXXXXXXXXXXXXXXXXXXXXXXXXXXXXXXXXXXXXX#u,M:nhhi                                                           ",
"                                                           tOOOd+++++++++++++++++++++++++++++++4XXXXXXXXXXXXXXXXXXXXXXXXXXXXXXXXXXXXXXXXXXXXXXXXXXXXXXXXXXXXXX###NOOOt                                                           ",
"                                                           tOOOd+++++++++++++++++++++++++++++++4XXXXXXXXXXXXXXXXXXXXXXXXXXXXXXXXXXXXXXXXXXXXXXXXXXXXXXXXXXXXXXXXXrOOOt                                                           ",
"                                                           tOOOd+++++++++++++++++++++++++++++++4XXXXXXXXXXXXXXXXXXXXXXXXXXXXXXXXXXXXXXXXXXXXXXXXXXXXXXXXXXXXXXXXXrOOOt                                                           ",
"                                                           tOOOd++++++++++++++++++++L##########XXXXXXXXXXXXXXXXXXXXXXXXXXXXXXXXXXXXXXXXXXXXXXXXXXXXXXXXXXXXXXXXXXrOOOt                                                           ",
"                                                           tOOOd++++++++++++++++++++LXXXXXXXXXXXXXXXXXXXXXXXXXXXXXXXXXXXXXXXXXXXXXXXXXXXXXXXXXXXXXXXXXXXXXXXXXXXXrOOOt                                                           ",
"                                                           tOOOd++++++++++++++++++++LXXXXXXXXXXXXXXXXXXXXXXXXXXXXXXXXXXXXXXXXXXXXXXXXXXXXXXXXXXXXXXXXXXXXXXXXXXXXrOOOt                                                           ",
"                                                        bnn8m,$L66666666666666666666LXXXXXXXXXXXXXXXXXXXXXXXXXXXXXXXXXXXXXXXXXXXXXXXXXXXXXXXXXXXXXXXXXXXXXXXXXXXX4$,m8nnb                                                        ",
"                                                        &OOk###XXXXXXXXXXXXXXXXXXXXXXXXXXXXXXXXXXXXXXXXXXXXXXXXXXXXXXXXXXXXXXXXXXXXXXXXXXXXXXXXXXXXXXXXXXXXXXXXXXX###kOO&                                                        ",
"                                                        >OOa#XXXXXXXXXXXXXXXXXXXXXXXXXXXXXXXXXXXXXXXXXXXXXXXXXXXXXXXXXXXXXXXXXXXXXXXXXXXXXXXXXXXXXXXXXXXXXXXXXXXXXXX#aOO>                                                        ",
"                                                        >OOa#XXXXXXXXXXXXXXXXXXXXXXX########XXXXXXXXXXXXXXXXXXXXXXXXXXXXXXXXXXXXXXXXX########XXXXXXXXXXXXXXXXXXXXXXX#aOO>                                                        ",
"                                                        >OOa#XXXXXXXXXXXXXXXXXXXXXX#u000000r#XXXXXXXXXXXXXXXXXXXXXXXXXXXXXXXXXXXXXXX#r000000u#XXXXXXXXXXXXXXXXXXXXXX#aOO>                                                        ",
"                                                        >OOa#XXXXXXXXXXXXXXXXXXXXXX#,OOOOOO2#XXXXXXXXXXXXXXXXXXXXXXXXXXXXXXXXXXXXXXX#2OOOOOO,#XXXXXXXXXXXXXXXXXXXXXX#aOO>                                                        ",
"                                                        >OOa#XXXXXXXXXXXXXXXXXXXXXX#,OOOOOO2#XXXXXXXXXXXXXXXXXXXXXXXXXXXXXXXXXXXXXXX#2OOOOOO,#XXXXXXXXXXXXXXXXXXXXXX#aOO>                                                        ",
"                                                    inbb=M$u#XXXXXXXXXXXXXXXXXXXXrrr$OOOOOOurrrXXXXXXXXXXXXXXXXXXXXXXXXXXXXXXXXXXXrrruOOOOOO$rrrXXXXXXXXXXXXXXXXXXXX#u$M=bbni                                                    ",
"                                                    bOOON###XXXXXXXXXXXXXXXXXXXX4OOOOOOOOOOOOOO#XXXXXXXXXXXXXXXXXXXXXXXXXXXXXXXXX#OOOOOOOOOOOOOO4XXXXXXXXXXXXXXXXXXXX###NOOOb                                                    ",
"                                                    bOOOrXXXXXXXXXXXXXXXXXXXXXXX4OOOOOOOOOOOOOO#XXXXXXXXXXXXXXXXXXXXXXXXXXXXXXXXX#OOOOOOOOOOOOOO4XXXXXXXXXXXXXXXXXXXXXXXrOOOb                                                    ",
"                                                    bOOOrXXXXXXXXXXXXXXXXXXXX###XOOOOOOOOOOOOO1####XXXXXXXXXXXXXXXXXXXXXXXXXXX####1OOOOOOOOOOOOOX###XXXXXXXXXXXXXXXXXXXXrOOOb                                                    ",
"                                                    bOOOrXXXXXXXXXXXXXXXXXXX#uaaaOOO7ztbOOOOOOOaa0r#XXXXXXXXXXXXXXXXXXXXXXXXX#r0aaOOOTztzfOOOOOOaaau#XXXXXXXXXXXXXXXXXXXrOOOb                                                    ",
"                                                    bOOOrXXXXXXXXXXXXXXXXXXX#,OOOOOOh  iOOOOOOOOOO2#XXXXXXXXXXXXXXXXXXXXXXXXX#2OOOOOOj   fOOOOOOOOO,#XXXXXXXXXXXXXXXXXXXrOOOb                                                    ",
"                                                    tOOOrXXXXXXXXXXXXXXXXXXX#,OOOOOOh  iOOOOOOOOOO2#XXXXXXXXXXXXXXXXXXXXXXXXX#2OOOOOOj   fOOOOOOOOO,#XXXXXXXXXXXXXXXXXXXrOOOt                                                    ",
"                                                 tbtvk$a4XXXXXXXXXXXXXXXXXXX#,OOOOOOh  iOOOOOOOOOO2#XXXXXXXXXXXXXXXXXXXXXXXXX#2OOOOOOj   fOOOOOOOOO,#XXXXXXXXXXXXXXXXXXX4a$kvtbt                                                 ",
"                                                 BOOk###XXXXXXXXXXXXXXXXXXXX#,OOOOOOh  iOOOOOOOOOO2#XXXXXXXXXXXXXXXXXXXXXXXXX#2OOOOOOj   fOOOOOOOOO,#XXXXXXXXXXXXXXXXXXXX###kOOB                                                 ",
"                                                 &OO$#XXXXXXXXXXXXXXXXXXXXXX#,OOOOOOh  iOOOOOOOOOO2#XXXXXXXXXXXXXXXXXXXXXXXXX#2OOOOOOj   fOOOOOOOOO,#XXXXXXXXXXXXXXXXXXXXXX#$OO&                                                 ",
"                                                 &OO$#XXXXXXXXXXXXXXXXXXXXXX#,OOOOOOn   OOOOOOOOOO2#XXXXXXXXXXXXXXXXXXXXXXXXX#2OOOOOOj   fOOOOOOOOO,#XXXXXXXXXXXXXXXXXXXXXX#$OO&                                                 ",
"                                                 &OO$#XXXXXXXXXXXXXXXXXXXXXX#,OOOOOOB->qOOOOOOOOOO2#XXXXXXXXXXXXXXXXXXXXXXXXX#2OOOOOO9->;cOOOOOOOOO,#XXXXXXXXXXXXXXXXXXXXXX#$OO&                                                 ",
"                                                 &OO$#XXXXXXXXXXXXXXXXXXXXXX#,OOOOOOOOOOOOOOOOOOOO2#XXXXXXXXXXXXXXXXXXXXXXXXX#2OOOOOOOOOOOOOOOOOOOO,#XXXXXXXXXXXXXXXXXXXXXX#$OO&                                                 ",
"                                                 &OO$#XXXXXXXXXXXXXXXXXXXXXX#,OOOOOOOOOOOOOOOOOOOO2#XXXXXXXXXXXXXXXXXXXXXXXXX#2OOOOOOOOOOOOOOOOOOOO,#XXXXXXXXXXXXXXXXXXXXXX#$OO&                                                 ",
"                                                 &OO$#XXXXXXXXXXXXXXXXXXXXXX#,OOOOOOOOOOOOOOOOOOOO2#XXXXXXXXXXXXXXXXXXXXXXXXX#2OOOOOOOOOOOOOOOOOOOO,#XXXXXXXXXXXXXXXXXXXXXX#$OO&                                                 ",
"                                                 &OO$#XXXXXXXXXXXXXXXXXXXXXX#,OOOOOOOOOOOOOOOOOOOO2#XXXXXXXXXXXXXXXXXXXXXXXXX#2OOOOOOOOOOOOOOOOOOOO,#XXXXXXXXXXXXXXXXXXXXXX#$OO&                                                 ",
"                                                 &OO$#XXXXXXXXXXXXXXXXXXXXXX#,OOOOOOOOOOOOOOOOOOOO2#XXXXXXXXXXXXXXXXXXXXXXXXX#2OOOOOOOOOOOOOOOOOOOO,#XXXXXXXXXXXXXXXXXXXXXX#$OO&                                                 ",
"                                                 &OO$#XXXXXXXXXXXXXXXXXXXXXX#,OOOOOOOOOOOOOOOOOOOO2#XXXXXXXXXXXXXXXXXXXXXXXXX#2OOOOOOOOOOOOOOOOOOOO,#XXXXXXXXXXXXXXXXXXXXXX#$OO&                                                 ",
"                                                 &OO$#XXXXXXXXXXXXXXXXXXXXXX#,OOOOOOOOOOOOOOOOOOOO2#XXXXXXXXXXXXXXXXXXXXXXXXX#2OOOOOOOOOOOOOOOOOOOO,#XXXXXXXXXXXXXXXXXXXXXX#$OO&                                                 ",
"                                                 &OO$#XXXXXXXXXXXXXXXXXXXXXX#,OOOOOOOOOOOOOOOOOOOO2#XXXXXXXXXXXXXXXXXXXXXXXXX#2OOOOOOOOOOOOOOOOOOOO,#XXXXXXXXXXXXXXXXXXXXXX#$OO&                                                 ",
"                                                 &OO$#XXXXXXXXXXXXXXXXXXXXXX#,OOOOOOOOOOOOOOOOOOOO2#XXXXXXXXXXXXXXXXXXXXXXXXX#2OOOOOOOOOOOOOOOOOOOO,#XXXXXXXXXXXXXXXXXXXXXX#$OO&                                                 ",
"                                                 &OO$#XXXXXXXXXXXXXXXXXXXXXX#u0aaOOOOOOOOOOOOOOaa02#XXXXXXXXXXXXXXXXXXXXXXXXX#20aaOOOOOOOOOOOOOOaa0u#XXXXXXXXXXXXXXXXXXXXXX#$OO&                                                 ",
"                                                 &OO$#XXXXXXXXXXXXXXXXXXXXXXX###XOOOOOOOOOOOOO1####XXXXXXXXXXXXXXXXXXXXXXXXXXX####1OOOOOOOOOOOOOX###XXXXXXXXXXXXXXXXXXXXXXX#$OO&                                                 ",
"                                                 &OO$#XXXXXXXXXXXXXXXXXXXXXXXXXX4OOOOOOOOOOOOOO#XXXXXXXXXXXXXXXXXXXXXXXXXXXXXXXXX#OOOOOOOOOOOOOO4XXXXXXXXXXXXXXXXXXXXXXXXXX#$OO&                                                 ",
"                                                 &OO$#XXXXXXXXXXXXXXXXXXXXXXXXXX4OOOOOOOOOOOOOO#XXXXXXXXXXXXXXXXXXXXXXXXXXXXXXXXX#OOOOOOOOOOOOOO4XXXXXXXXXXXXXXXXXXXXXXXXXX#$OO&                                                 ",
"                                                 &OO$#XXXXXXXXXXXXXXXXXXXXXXXXXXXrrr$OOOOOOurrrXXXXXXXXXXXXXXXXXXXXXXXXXXXXXXXXXXXrrruOOOOOO$rrrXXXXXXXXXXXXXXXXXXXXXXXXXXX#$OO&                                                 ",
"                                                 &OO$#XXXXXXXXXXXXXXXXXXXXXXXXXXXXX#,OOOOOO2#XXXXXXXXXXXXXXXXXXXXXXXXXXXXXXXXXXXXXXX#2OOOOOO,#XXXXXXXXXXXXXXXXXXXXXXXXXXXXX#$OO&                                                 ",
"                                                 &OO$#XXXXXXXXXXXXXXXXXXXXXXXXXXXXX#,OOOOOO2#XXXXXXXXXXXXXXXXXXXXXXXXXXXXXXXXXXXXXXX#2OOOOOO,#XXXXXXXXXXXXXXXXXXXXXXXXXXXXX#$OO&                                                 ",
"                                                 &OO$#XXXXXXXXXXXXXXXXXXXXXXXXXXXXX#u000001r#XXXXXXXXXXXXXXXXXXXXXXXXXXXXXXXXXXXXXXX#r100000u#XXXXXXXXXXXXXXXXXXXXXXXXXXXXX#$OO&                                                 ",
"                                                 &OO$#XXXXXXXXXXXXXXXXXXXXXXXXXXXXXX########XXXXXXXXXXXXXXXXXXXXXXXXXXXXXXXXXXXXXXXXX########XXXXXXXXXXXXXXXXXXXXXXXXXXXXXX#$OO&                                                 ",
"                                                 &OO$#XXXXXXXXXXXXXXXXXXXXXXXXXXXXXXXXXXXXXXXXXXXXXXXXXXXXXXXXXXXXXXXXXXXXXXXXXXXXXXXXXXXXXXXXXXXXXXXXXXXXXXXXXXXXXXXXXXXXX#$OO&                                                 ",
"                                                 &OO$#XXXXXXXXXXXXXXXXXXXXXXXXXXXXXXXXXXXXXXXXXXXXXXXX#####################XXXXXXXXXXXXXXXXXXXXXXXXXXXXXXXXXXXXXXXXXXXXXXXX#$OO&                                                 ",
"                                                 &OO$#XXXXXXXXXXXXXXXXXXXXXXXXXXXXXXXXXXXXXXXXXXXXXXXX$,,,,,,,,,,,,,,,,,,,$XXXXXXXXXXXXXXXXXXXXXXXXXXXXXXXXXXXXXXXXXXXXXXXX#$OO&                                                 ",
"                                                 &OO$#XXXXXXXXXXXXXXXXXXXXXXXXXXXXXXXXXXXXXXXXXXXXXXXXOOOOOOOOOOOOOOOOOOOOOXXXXXXXXXXXXXXXXXXXXXXXXXXXXXXXXXXXXXXXXXXXXXXXX#$OO&                                                 ",
"                                                 &OO$#XXXXXXXXXXXXXXXXXXXXXXXXXXXXXXXXXXXXXXXXXXXXXXX#OOOOOOOOOOOOOOOOOOOOO#XXXXXXXXXXXXXXXXXXXXXXXXXXXXXXXXXXXXXXXXXXXXXXX#$OO&                                                 ",
"                                                 &OO$#XXXXXXXXXXXXXXXXXXXXXXXXXXXXXXXXXXXXXXXXX4444444eeeeeeeeeeeeeeIeeeeeI4444444XXXXXXXXXXXXXXXXXXXXXXXXXXXXXXXXXXXXXXXXX#$OO&                                                 ",
"                                                 &OO$#XXXXXXXXXXXXXXXXXXXXXXXXXXXXXXXXXXXXXXXXXOOOOOOOVVVVVVVVVVVVVVwwwwwwgOOOOOOOXXXXXXXXXXXXXXXXXXXXXXXXXXXXXXXXXXXXXXXXX#$OO&                                                 ",
"                                                 &OO$#XXXXXXXXXXXXXXXXXXXXXXXXXXXXXXXXXXXXXXXXXOOOOOOOV%%%%%%%%%%%%%@@@@@@wOOOOOOOXXXXXXXXXXXXXXXXXXXXXXXXXXXXXXXXXXXXXXXXX#$OO&                                                 ",
"                                                 &OO$#XXXXXXXXXXXXXXXXXXXXXXXXXXXXXXXXXXXXX###XOOOOOOOV%%%%%%%%%%%%%@@@@@@wOOOOOOOX###XXXXXXXXXXXXXXXXXXXXXXXXXXXXXXXXXXXXX#$OO&                                                 ",
"                                                 &OO$#XXXXXXXXXXXXXXXXXXXXXXXXXXXXXXXXXXXX#2,,,sssssss%%%%%%%%%%gggg@@@@@@wlllllll,,,2#XXXXXXXXXXXXXXXXXXXXXXXXXXXXXXXXXXXX#$OO&                                                 ",
"                                                 &OO$#XXXXXXXXXXXXXXXXXXXXXXXXXXXXXXXXXXXX#,OO1V%%%%%%%%%%%%%%%%g@@@@@@@@@@wwwwwwgOOO,#XXXXXXXXXXXXXXXXXXXXXXXXXXXXXXXXXXXX#$OO&                                                 ",
"                                                 &OO$#XXXXXXXXXXXXXXXXXXXXXXXXXXXXXXXXXXXX#uOO1V%%%%%%%%%%%%%%%%g@@@@@@@@@@@@@@@@wOOOu#XXXXXXXXXXXXXXXXXXXXXXXXXXXXXXXXXXXX#$OO&                                                 ",
"                                                 &OO$#XXXXXXXXXXXXXXXXXXXXXXXXXXXXXXXXXX4XXPIIeV%%%%%%%%%%%%%%%%g@@@@@@@@@@@@@@@@wIIIPXX4XXXXXXXXXXXXXXXXXXXXXXXXXXXXXXXXXX#$OO&                                                 ",
"                                                 &OO$#XXXXXXXXXXXXXXXXXXXXXXXXXXXXXXXXX4OOOsVVV%%%%%%%%%%%%%%@@@@@@@@@@@@@@@@@@@@@wwglOOO4XXXXXXXXXXXXXXXXXXXXXXXXXXXXXXXXX#$OO&                                                 ",
"                                                 &OO$#XXXXXXXXXXXXXXXXXXXXXXXXXXXXXXXXXXOOOs%%%%%%%%%%%%%%%%%@@@@@@@@@@@@@@@@@@@@@@@wlOOOXXXXXXXXXXXXXXXXXXXXXXXXXXXXXXXXXX#$OO&                                                 ",
"                                                 &OO$#XXXXXXXXXXXXXXXXXXXXXXXXXXXXXXXXXXOOOs%%%%%%%%%%%%%%%%%@@@@@@@@@@@@@@@@@@@@@@@wlOOOXXXXXXXXXXXXXXXXXXXXXXXXXXXXXXXXXX#$OO&                                                 ",
"                                                 &OO$#XXXXXXXXXXXXXXXXXXXXXXXXXXXXXXXXXXOOOs%%%%%%%%%%ggggggg@@@@@@@@@@@@@@@@@@@@@@@wlOOOXXXXXXXXXXXXXXXXXXXXXXXXXXXXXXXXXX#$OO&                                                 ",
"                                                 &OO$#XXXXXXXXXXXXXXXXXXXXXXXXXXXXXXXXXXOOOs%%%%%%%%%%@@@@@@@@@@@@@@@@@@@@@@@@@@@@@@wlOOOXXXXXXXXXXXXXXXXXXXXXXXXXXXXXXXXXX#$OO&                                                 ",
"                                                 &OO$#XXXXXXXXXXXXXXXXXXXXXXXXXXXXXXXXXXOOOs%%%%%%%%%%@@@@@@@@@@@@@@@@@@@@@@@@@@@@@@wlOOOXXXXXXXXXXXXXXXXXXXXXXXXXXXXXXXXXX#$OO&                                                 ",
"                                                 &OO$#XXXXXXXXXXXXXXXXXXXXXXXXXXXXXXXXXXOOOs%%%%%%%%%%@@@@@@@@@@@@@@@@@@@@@@@@@@@@@@@lOOOXXXXXXXXXXXXXXXXXXXXXXXXXXXXXXXXXX#$OO&                                                 ",
"                                                 &OO$#XXXXXXXXXXXXXXXXXXXXXXXXXXXXXXXXXX###UOOOw@@@@@@@@@@@@@@@@@@@@@@@@@@@@@@@@@wOOOU###XXXXXXXXXXXXXXXXXXXXXXXXXXXXXXXXXX#$OO&                                                 ",
"                                                 &OO$#XXXXXXXXXXXXXXXXXXXXXXXXXXXXXXXXXXXX#uOO1w@@@@@@@@@@@@@@@@@@@@@@@@@@@@@@@@@w1OOu#XXXXXXXXXXXXXXXXXXXXXXXXXXXXXXXXXXXX#$OO&                                                 ",
"                                                 &OO$#XXXXXXXXXXXXXXXXXXXXXXXXXXXXXXXXXXXX#,OOOgwwwwww@@@@@@@@@@@@@@@@@@@@@wwwwwwgOOO,#XXXXXXXXXXXXXXXXXXXXXXXXXXXXXXXXXXXX#$OO&                                                 ",
"                                                 &OO$#XXXXXXXXXXXXXXXXXXXXXXXXXXXXXXXXXXXXXr222yyyyyyyw@@@@@@@@@@@@@@@@@@@wyyyyyyy222rXXXXXXXXXXXXXXXXXXXXXXXXXXXXXXXXXXXXX#$OO&                                                 ",
"                                                 &OO$#XXXXXXXXXXXXXXXXXXXXXXXXXXXXXXXXXXXXXX##XOOOOOOOw@@@@@@@@@@@@@@@@@@@wOOOOOOOX##XXXXXXXXXXXXXXXXXXXXXXXXXXXXXXXXXXXXXX#$OO&                                                 ",
"                                                 &OO$#XXXXXXXXXXXXXXXXXXXXXXXXXXXXXXXXXXXXXXXXXOOOOOOOg@@@@@@@@@@@@@@@@@@@gOOOOOOOXXXXXXXXXXXXXXXXXXXXXXXXXXXXXXXXXXXXXXXXX#$OO&                                                 ",
"                                                 &OO$#XXXXXXXXXXXXXXXXXXXXXXXXXXXXXXXXXXXXXXXXXOOOOOOOg@@@@@@@@@@@@@@@@@@@gOOOOOOOXXXXXXXXXXXXXXXXXXXXXXXXXXXXXXXXXXXXXXXXX#$OO&                                                 ",
"                                                 &OO$#XXXXXXXXXXXXXXXXXXXXXXXXXXXXXXXXXXXXXXXXX#######OOOOOOOOOOOOOOOOOOOOO#######XXXXXXXXXXXXXXXXXXXXXXXXXXXXXXXXXXXXXXXXX#$OO&                                                 ",
"                                                 &OO$#XXXXXXXXXXXXXXXXXXXXXXXXXXXXXXXXXXXXXXXXXXXXXXXXOOOOOOOOOOOOOOOOOOOOOXXXXXXXXXXXXXXXXXXXXXXXXXXXXXXXXXXXXXXXXXXXXXXXX#$OO&                                                 ",
"                                                 &OO$#XXXXXXXXXXXXXXXXXXXXXXXXXXXXXXXXXXXXXXXXXXXXXXXXOOOOOOOOOOOOOOOOOOOOOXXXXXXXXXXXXXXXXXXXXXXXXXXXXXXXXXXXXXXXXXXXXXXXX#$OO&                                                 ",
"                                                 &OO$#XXXXXXXXXXXXXXXXXXXXXXXXXXXXXXXXXXXXXXXXXXXXXXXX555555555555555555555XXXXXXXXXXXXXXXXXXXXXXXXXXXXXXXXXXXXXXXXXXXXXXXX#$OO&                                                 ",
"                                                 &OO$#XXXXXXXXXXXXXXXXXXXXXXXXXXXXXXXXXXXXXXXXXXXXXXXX#####################XXXXXXXXXXXXXXXXXXXXXXXXXXXXXXXXXXXXXXXXXXXXXXXX#$OO&                                                 ",
"                                                 &OO$#XXXXXXXXXXXXXXXXXXXXXXXXXXXXXXXXXXXXXXXXXXXXXXXXXXXXXXXXXXXXXXXXXXXXXXXXXXXXXXXXXXXXXXXXXXXXXXXXXXXXXXXXXXXXXXXXXXXXX#$OO&                                                 ",
"                                                 &OO$#XXXXXXXXXXXXXXXXXXXXXXXXXXXXXXXXXXXXXXXXXXXXXXXXXXXXXXXXXXXXXXXXXXXXXXXXXXXXXXXXXXXXXXXXXXXXXXXXXXXXXXXXXXXXXXXXXXXXX#$OO&                                                 ",
"                                                 &OO$#XXXXXXXXXXXXXXXXXXXXXXXXXXXXXXXXXXXXXXXXXXXXXXXXXXXXXXXXXXXXXXXXXXXXXXXXXXXXXXXXXXXXXXXXXXXXXXXXXXXXXXXXXXXXXXXXXXXXX#$OO&                                                 ",
"                                                 &OO$#XXXXXXXXXXXXXXXXXXXXXXXXXXXXXXXXXXXXXXXXXXXXXXXXXXXXXXXXXXXXXXXXXXXXXXXXXXXXXXXXXXXXXXXXXXXXXXXXXXXXXXXXXXXXXXXXXXXXX#$OO&                                                 ",
"                                                 &OO$#XXXXXXXXXXXXXXXXXXXXXXXXXXXXXXXXXXXXXXXXXXXXXXXXXXXXXXXXXXXXXXXXXXXXXXXXXXXXXXXXXXXXXXXXXXXXXXXXXXXXXXXXXXXXXXXXXXXXX#$OO&                                                 ",
"                            7777777777h          &OO$#XXXXXXXXXXXXXXXXXXXXXXXXXXXXXXXXXXXXXXXXXXXXXXXXXXXXXXXXXXXXXXXXXXXXXXXXXXXXXXXXXXXXXXXXXXXXXXXXXXXXXXXXXXXXXXXXXXXXX#$OO&      iY7777777777777                            ",
"                            COOOOOOOOOx          &OO$#XXXXXXXXXXXXXXXXXXXXXXXXXXXXXXXXXXXXXXXXXXXXXXXXXXXXXXXXXXXXXXXXXXXXXXXXXXXXXXXXXXXXXXXXXXXXXXXXXXXXXXXXXXXXXXXXXXXXX#$OO&      zOOOOOOOOOOOOOC                            ",
"                            <OOOOOOOOOx          &OO$#XXXXXXXXXXXXXXXXXXXXXXXXXXXXXXXXXXXXXXXXXXXXXXXXXXXXXXXXXXXXXXXXXXXXXXXXXXXXXXXXXXXXXXXXXXXXXXXXXXXXXXXXXXXXXXXXXXXXX#$OO&      zOOOOOOOOOOOOO<                            ",
"                            <OOOOOOOOOT          &OO$#XXXXXXXXXXXXXXXXXXXXXXXXXXXXXXXXXXXXXXXXXXXXXXXXXXXXXXXXXXXXXXXXXXXXXXXXXXXXXXXXXXXXXXXXXXXXXXXXXXXXXXXXXXXXXXXXXXX###$OOq      iOOOOOOOOOOOOO<                            ",
"                     OOOOOOO=*::::::::AOOOz      &OO$#XXXXXXXXXXXXXXXXXXXXXXXXXXXXXXXXXXXXXXXXXXXXXXXXXXXXXXXXXXXXXXXXXXXXXXXXXXXXXXXXXXXXXXXXXXXXXXXXXXXXXXXXXXXXXXXXXXrOOOOOOOOOOOOOO::::::::::::*=OOOOOOO                     ",
"                     COOOOOO=*.......*BOOOz      &OO$#XXXXXXXXXXXXXXXXXXXXXXXXXXXXXXXXXXXXXXXXXXXXXXXXXXXXXXXXXXXXXXXXXXXXXXXXXXXXXXXXXXXXXXXXXXXXXXXXXXXXXXXXXXXXXXXXXXrOOOOOOOOOOOOOC:...........*=OOOOOOC                     ",
"                     COOOOOO=*.......*BOOOz      &OO$#XXXXXXXXXXXXXXXXXXXXXXXXXXXXXXXXXXXXXXXXXXXXXXXXXXXXXXXXXXXXXXXXXXXXXXXXXXXXXXXXXXXXXXXXXXXXXXXXXXXXXXXXXXXXXXX###4OOOOOOOOOOOOOc:...........*=OOOOOOC                     ",
"              7788888A999999=........*=99<Y87h   &OO$#XXXXXXXXXXXXXXXXXXXXXXXXXXXXXXXXXXXXXXXXXXXXXXXXXXXXXXXXXXXXXXXXXXXXXXXXXXXXXXXXXXXXXXXXXXXXXXXXXXXXXXXXXXXXXX#252uOOO<999999999A*............=999999A8888877              ",
"              OOOOOOO.******..........***:OOO;   &OO$#XXXXXXXXXXXXXXXXXXXXXXXXXXXXXXXXXXXXXXXXXXXXXXXXXXXXXXXXXXXXXXXXXXXXXXXXXXXXXXXXXXXXXXXXXXXXXXXXXXXXXXXXXXXXXX#aOOOOOOB:*********..............******.OOOOOOO              ",
"              OOOOOOO=...................:COOx   &OO$#XXXXXXXXXXXXXXXXXXXXXXXXXXXXXXXXXXXXXXXXXXXXXXXXXXXXXXXXXXXXXXXXXXXXXXXXXXXXXXXXXXXXXXXXXXXXXXXXXXXXXXXXXXXXXX#aOOOOOOB*.............................=OOOOOOO              ",
"              OOOOOOO=...................:cOOx   qOO$#XXXXXXXXXXXXXXXXXXXXXXXXXXXXXXXXXXXXXXXXXXXXXXXXXXXXXXXXXXXXXXXXXXXXXXXXXXXXXXXXXXXXXXXXXXXXXXXXXXXXXXXXXXXX###aOOOOOOB*.............===============.=OOOOOOO              ",
"          8OOO.******.....................***BOOOOOO$#XXXXXXXXXXXXXXXXXXXXXXXXXXXXXXXXXXXXXXXXXXXXXXXXXXXXXXXXXXXXXXXXXXXXXXXXXXXXXXXXXXXXXXXXXXXXXXXXXXXXXXXXXXXrOOOB******..............-oooooooooooooooooooo>**.OOO8          ",
"          8OOO..............................*BOOOOOO$#XXXXXXXXXXXXXXXXXXXXXXXXXXXXXXXXXXXXXXXXXXXXXXXXXXXXXXXXXXXXXXXXXXXXXXXXXXXXXXXXXXXXXXXXXXXXXXXXXXXXXXXXXXXrOOOB*...................-ooooooooooooooooooooq...OOO8          ",
"          8OOO..............................*BOOOOOO$#######XXXXXXXXXXXXXXXXXXXXXXXXXXXXXXXXXXXXXXXXXXXXXXXXXXXXXXXXXXXXXXXXXXXXXXXXXXXXXXXXXXXXXXXXXXXXXXXXXX###rOOOB*..................=-ooooooooooooooooooooq...OOO8          ",
"888888888vT<9<..........:qqqqqq:............*=<99cOO0222222r#XXXXXXXXXXXXXXXXXXXXXXXXXXXXXXXXXXXXXXXXXXXXXXXXXXXXXXXXXXXXXXXXXXXXXXXXXXXXXXXXXXXXXXXXXXXXXXXX#222Z99<=*............qqqqqqq;oooooooooooooooooooo-qqqAA9Tv888888888",
"OOOOOOOOOO<:**..........qoooooo-.............***:COOOOOOOOOa#XXXXXXXXXXXXXXXXXXXXXXXXXXXXXXXXXXXXXXXXXXXXXXXXXXXXXXXXXXXXXXXXXXXXXXXXXXXXXXXXXXXXXXXXXXXXXXXX#0OOC:***.............-ooooooooooooooooooooooooooooooooox9OOOOOOOOOO",
"OOOOOOOOOO9*............qoooooo-................:COOOOOOOOOa#XXXXXXXXXXXXXXXXXXXXXXXXXXXXXXXXXXXXXXXXXXXXXXXXXXXXXXXXXXXXXXXXXXXXXXXXXXXXXXXXXXXXXXXXXXXXXXXX#aOOf:................-ooooooooooooooooooooooooooooooooooAOOOOOOOOOO",
"OOOOOOOOOO9*...........=qoooooo-=...............:cOOOOOOOOO$###XXXXXXXXXXXXXXXXXXXXXXXXXXXXXXXXXXXXXXXXXXXXXXXXXXXXXXXXXXXXXXXXXXXXXXXXXXXXXXXXXXXXXXXX#######aOOf:...............=-ooooooooooooooooooooooooooooooooooAOOOOOOOOOO",
".....................oooooooooooooo*...................*COOO1OOrXXXXXXXXXXXXXXXXXXXXXXXXXXXXXXXXXXXXXXXXXXXXXXXXXXXXXXXXXXXXXXXXXXXXXXXXXXXXXXXXXXXXXX#0OOOOO1OOOf:............:ooooooooooq.........*ooooooooooooooooooooo=......",
".....................oooooooooooooo*...................:COOOOOOrXXXXXXXXXXXXXXXXXXXXXXXXXXXXXXXXXXXXXXXXXXXXXXXXXXXXXXXXXXXXXXXXXXXXXXXXXXXXXXXXXXXXXX#0OOOOOOOOOf:............:ooooooooooq.........*ooooooooooooooooooooo.......",
".....................oooooooooooooo*...................:COOOOOOr######XXXXXXXXXXXXXXXXXXXXXXXXXXXXXXXXXXXXXXX#######XXXXXXXXXXXXXXXXXXXXXXXXXXXXXXXXXX#0OOOOOOOOOC:............:ooooooooooq=........*ooooooooooooooooooooo=......",
".....................oooooooooooooo*...................*9<<<OOOu2222224XXXXXXXXXXXXXXXXXXXXXXXXXXXXXXXXXXXXXX2222222XXXXXXXXXXXXXXXXXXXXXXXXXXXXXXXXXX#0OOc9<<<<<A*............:ooooooo>>-:.........*>>>;ooooooooooooooooo=......",
".....................oooooooooooooo*....................**:=OOOOOOOOOOrXXXXXXXXXXXXXXXXXXXXXXXXXXXXXXXXXXXXX#OOOOOOO#XXXXXXXXXXXXXXXXXXXXXXXXXXXXXXXXX#0OOf:******.............:oooooo;=...............=>ooooooooooooooooo=......",
".....................oooooooooooooo*......................*BOOOOOOOOOOrXXXXXXXXXXXXXXXXXXXXXXXXXXXXXXXXXXXXX#OOOOOOO#XXXXXXXXXXXXXXXXXXXXXXXXXXXXXXXXX#0OOf:...................:oooooo;.................>ooooooooooooooooo=......",
".................=..=oooooooooooooo*=.....................*BOOOOOOOOOOr##############XXXXXXXXXXXXX###########OOOOOOO###########XXXXXXXXXXXXX###########0OOf:...................:oooooo;.................>ooooooooooooooooo=......",
"................=qoooooooooooooooooooo>.....................=========.<111111111111Or#XXXXXXXXXXX#u111111111O*=====*O111111111u#XXXXXXXXXXX#rO111111111OOOf:...................:oooooo;.................>ooooooooooooooooo=......",
".................qoooooooooooooooooooo-..............................:fOOOOOOOOOOOOO2#XXXXXXXXXXX#uOOOOOOOOOO:.....:OOOOOOOOOOu#XXXXXXXXXXX#2OOOOOOOOOOOOOf:...................:oooooo;.................>ooooooooooooooooo=......",
".................qoooooooooooooooooooo-..............................:fOOOOOOOOOOOOOr#############uOOOOOOOOOO:.....:OOOOOOOOOOu#############rOOOOOOOOOOOOOf:...................:oooooo;.................>ooooooooooooooooo=......",
".................qoooooo;>----------->q..............................*A<<<<<<<<<<<<<Zr22222222222rG<<<<<<<<<<*.....*<<<<<<<<<<Gr22222222222rZ<<<<<<<<<<<<<A*...................*-->;oo;.................>ooooooooooooo;---.......",
".................qoooooo>=............................................*************:<OOOOOOOOOOOOOA:*********.......*********:AOOOOOOOOOOOOO<:*************.......................=-oo;.................>oooooooooooooq=.........",
".................qoooooo>..........................................................*<OOOOOOOOOOOOOA*.........................*AOOOOOOOOOOOOO<*.....................................-oo;.................>oooooooooooooq..........",
".................qoooooo-..........................................................*<OOOOOOOOOOOOOA*.........................*AOOOOOOOOOOOOO<*.....................................-oo;................=>ooooooooooooo>..........",
".................********...........................................................===============...........................===============.............:o;;;;o-.................****.............*o;;ooooooo>*******..........",
".....................................................................................*************.............................*************.............=:oooooo-..................................*ooooooooooq.................",
"......................................................................................................=======...........................................=.:oooooo-===...............======..........*ooooooooooq.................",
"......................................................................................................qqqqqqq=.........................................:qq>oooooo;:qq*.............:qqqqqq*.........*----------:.................",
"......................................................................................................ooooooo=.........................................;ooooooooooooo:.............-ooooooq=.....................................",
"......................................................................................................ooooooo=.........................................;ooooooooooooo:.............-ooooooq=.....................................",
".....................................................................................................=ooooooo=........................................=;ooooooooooooo:=...........=-oooooo:=.....................................",
"........................................................-;;;;;o:..................................>;;;ooooooo;;;q..................................:;;;oooooooooooooo;;;-......:o;;ooooooo;;;-...................................",
"........................................................-oooooo:..................................>ooooooooooooo>.................................=qoooooooooooooooooooo-......:ooooooooooooo;...................................",
".........................=============...............===-oooooo:.....................======.......>ooooooooooooo>.==..............................=qoooooooooooooooooooo-......:ooooooooooooo;................................===",
"........................*q:::::::::::::.............*q::;ooo---:....................::::::q*......q---oooooooooo-::q..............................=qoooooooooooooooooooo-......:ooooooooooooo;...............................::::",
"........................qooooooooooooo-.............:oooooo-=.......................-ooooooq..........oooooooooooooo..............................=qoooooooooooooooooooo-......:ooooooooooooo;...............................>ooo",
"........................qooooooooooooo-.............:oooooo;........................-ooooooq..........oooooooooooooo..............................=qoooooooooooooooooooo-......:ooooooooooooo;...............................>ooo",
".......................=qooooooooooooo-............=:oooooo;.......................=>ooooooq=.....=...oooooooooooooo..............................=qoooooooooooooooooooo-......:oooooooooooooo...............................>ooo",
".....................;;;;oooooooooo:::*..........-;;;oooq:::.................>;;;;;;ooooooo;;;;;;;q=..:::>oooooo>:::..............................=qoooooooooooooooooooo-......*:::-ooooooq:::...............................>ooo",
".....................oooooooooooooo*=............;oooooo:....................-ooooooooooooooooooooq......>oooooo>.................................=qoooooooooooooooooooo-..........-oooooo:..................................>ooo",
".....................oooooooooooooo*............=;oooooo:....................-ooooooooooooooooooooq......>oooooo>..................................qoooooooooooooooooooo-..........-ooooooq=.................................>ooo",
".....................oooooooooooooo*.........*:::;oooooo:....................>---ooooooooooooooooo>:::...>ooo---q=..............................:::>oooooooooooooooooooo-..........>------:..................................>ooo",
".....................oooooooooooooo*.........:oooooooooo:.......................*ooooooooooooooooooooo=..>ooo=..=...............................oooooooooooooooooooooooo-....................................................>ooo",
".....................oooooooooooooo*.........:oooooooooo:.......................*ooooooooooooooooooooo=..>ooo=..................................;ooooooooooooooooooooooo-....................................................>ooo",
".....................oooooooooooooo*.........:oooooooooo:.......................*ooooooooooooooooooooo=..>ooo=.................................=;ooooooooooooooooooooooo;...................................................=>ooo",
";;;;;;;;;;q...;;;>...:::>oooooo-:::..........:oooooo;:::*........................:::-ooooooooooooooooo=..*:::...............................:;;-oooooooooooooooooooooq:::................................................=;;-;ooo",
"oooooooooo>...ooo>......qoooooo>.............:oooooo-=..............................-ooooooooooooooooo=....................................=qoooooooooooooooooooooooo:....................................................ooooooo",
"oooooooooo>...ooo>......qoooooo-.............:oooooo-...............................>ooooooooooooooooo=....................................=qoooooooooooooooooooooooo:....................................................ooooooo",
"ooooooo--;q...--;>:::...:;----;>..........:::qoooooo-...............................>;--oooooooooooooo:::*.................................=qooooooooooooooooooooo--;:....................................................ooooooo",
"ooooooo=........=qooo*....................;ooooooooo-...................................ooooooooooooooooo>.................................=qoooooooooooooooooooo-=.......................................................ooooooo",
"ooooooo..........qooo*....................;ooooooooo-..................................*ooooooooooooooooo>.................................=qoooooooooooooooooooo-........................................................ooooooo",
"ooooooo..........qooo.....................;ooooooooo-..................................*ooooooooooooooooo>.................................=qoooooooooooooooooooo-........................................................ooooooo",
"ooo-:::..........qooo--->.................;ooooooooo-...................................:::-ooooooooooooo>.................-----------------;oooooooooooooooooq:::....................*;------............................ooooooo",
"ooo>.............qoooooo-.................;ooooooooo-......................................>ooooooooooooo>................=ooooooooooooooooooooooooooooooooooo:.......................:oooooo;............................ooooooo",
"ooo>.............qoooooo>.................;ooooooooo-......................................>ooooooooooooo>................=ooooooooooooooooooooooooooooooooooo:.......................:oooooo;=...........................ooooooo",
"ooo>.............qoooooo-:::..............;ooooooooo-......................................>ooooooooooooo>..........:::::::ooooooooooooooooooooo;;;;ooooooo;;;:....................::::oooooo;:::*........................ooooooo",
"ooo>.............qoooooooooo*.............;ooooooooo-......................................>ooooooooooooo>.........=oooooooooooooooooooooooooooo*.=:oooooo-=.......................-oooooooooooooq=.......................ooooooo",
"ooo>.............qoooooooooo*.............;ooooooooo-......................................>ooooooooooooo>.........=oooooooooooooooooooooooooooo*.=qoooooo-........................-oooooooooooooq=.......................ooooooo",
"ooo>.............qoooooooooo*.............;ooooooooo-.....................................=>ooooooooooooo>.........=oooooooooooooooooooooooooooo*.=qoooooo-.......................=-oooooooooooooq=.......................ooooooo",
"ooo>.............qooo:::::::..............;ooooooooo-.................>---.............*---;oooooooooo::::..........::::::::::>ooooooooooooooooo*..*:::::::....................:---oooooooooooooo;---.....................ooooooo",
"ooo>.............qooo.....................;ooooooooo-.................-oo;.............*oooooooooooooo=.......................qooooooooooooooooo*..............................:ooooooooooooooooooooo.....................ooooooo",
"ooo>.............qooo*....................;ooooooooo-.................-oo;=............*oooooooooooooo=.......................qooooooooooooooooo*=.............................:ooooooooooooooooooooo.....................ooooooo",
"ooo>............=q;;;*....................;ooooooooo-.................-oo;*::*......*:::oooooooooo;;;;.......................=q;;;oooooooooooooo:::*...........................:;;;;;;;oooooooooooooo.....................ooooooo",
"ooo>.............=........................;ooooooooo-.................-ooooooq=.....-oooooooooooooq=..........................=..=ooooooooooooooooo-.................................=*oooooooooooooo.....................ooooooo",
"ooo>......................................;ooooooooo-.................-ooooooq=.....-oooooooooooooq...............................ooooooooooooooooo-..................................:oooooooooooooo.....................ooooooo",
"ooo>......................................;ooooooooo-.................-oooooo:=....=>oooooooooooooq...............................ooooooooooooooooo>=.................................:oooooooooooooo=....................ooooooo",
"ooo>......................................;ooooooooo-.................:q:qooo-------;oooooooooo:qq:...............................qq:>ooooooooooooo;---*..:---*.......................*qq:-oooooooooo---:.................ooooooo",
"ooo>......................................;ooooooooo-..................=.*ooooooooooooooooooooo===.................................=.qooooooooooooooooo:.=:ooo:........................===-oooooooooooooq.................ooooooo",
"ooo>......................................;ooooooooo-....................:ooooooooooooooooooooo......................................qooooooooooooooooo*=.:ooo:...........................-oooooooooooooq.................ooooooo",
"ooo>.............****.....................-;;ooooooo-***.................:ooooooooooooooooooooo...................................***qooooooooooooooooo:**qo;o:...........................>;;;ooooooooooq***..............ooooooo",
"ooo>.............qooo*......................=:oooooooooo:................:ooooooooooooooooooooo...................................oooooooooooooooooooooooo-=................................=*oooooooooooooo..............ooooooo",
"ooo>.............qooo*.......................:oooooooooo:................:ooooooooooooooooooooo...................................oooooooooooooooooooooooo-..................................*oooooooooooooo..............ooooooo",
"ooo>=...........=qooo*.......................:oooooooooo:................:ooooooooooooooooooooo..................................=oooooooooooooooooooooooo-..................................*oooooooooooooo=.............ooooooo",
"ooo;>--=......--->qqq........................:oooooo;qqq*................:oooooooooooooo:qqqqqq=..............................:->-ooooooooooooooooo-qqqqqq:..................................*qqq-oooooooooo->-:..........qqq-ooo",
"ooooooo.......ooo>.==........................:oooooo-===.................:oooooooooooooo=======...............................qoooooooooooooooooooo-======....................................===>oooooooooooooq..........==.>ooo",
"ooooooo.......ooo>...........................:oooooo-....................:oooooooooooooo......................................qoooooooooooooooooooo-.............................................-oooooooooooooq.............>ooo",
"ooooooo.......ooo>...........................:oooooo-....................:ooooooooooooo;.....................................=qoooooooooooooooooooo-.............................................>oooooooooooooq.............>ooo",
".........................................................................:oooooo;=............................................=....................................................................=.ooooooooooq.............>ooo",
".........................................................................:oooooo;...................................................................................................................*ooooooooooq.............>ooo",
".........................................................................*ooooooo...................................................................................................................*ooooooooooq.............>ooo",
"......................................................................q->-ooo>qqq=.................................................................:>>>>>>>>>>>>>>>>>>>->...........................*qqqqqqqoooq.............>ooo",
"......................................................................-ooooooq..=.................................................................=qoooooooooooooooooooo;...................................oooq.............>ooo",
"......................................................................-ooooooq.....................................................................qoooooooooooooooooooo-..................................*oooq.............>ooo",
"............................................................*********.-ooooooq.**............................................................*****.qoooooooooooooooooooo-..................................*oooq=............>ooo",
"...........................................................:ooooooooooooooooooooo..........................................................=qooooooooooooo-=...................................................=.................",
"...........................................................:oooooooooooooooooooo;..........................................................=qooooooooooooo-......................................................................",
"...........................................................:oooooooooooooooooooo;=.........................................................=qooooooooooooo-......................................................................",
"........................................................>>>-ooooooooooooooooooooo>>>:....................................................>>>-ooo>qqqqqqqqq:......................................................................",
"........................................................;oooooooooooooooooooooooooooq=...................................................ooooooo*................................................................................",
"........................................................-oooooooooooooooooooooooooooq=..................................................=ooooooo*................................................................................",
"........................................................-oooooooooooooooooooooooooooq=...................................................ooooooo*................................................................................",
"....................................................:oooooooooooooooooooooooooooooooq=................ooo>...........................qoooooooooooooooooooo-......................................................................",
"....................................................:oooooooooooooooooooooooooooooooq=................ooo>...........................qoooooooooooooooooooo-......................................................................",
"........................=...........................:oooooooooooooooooooooooooooooooq=.....=..........oooq=.........................=qoooooooooooooooooooo-=.....................................................................",
".................:>>>>>>q=..........................:oooooooooooooooooooooooooooooooq=....=q>>>>>>>>>>ooo->>>.....................>>>-oooooooooooooooooooo;>>>>>>>>>>>>>>>>>>>>>>>>>>>>>>>:......................................",
".................qoooooo>...........................:oooooooooooooooooooooooooooooooq=.....>ooooooooooooooooo=....................ooooooooooooooooooooooooooooooooooooooooooooooooooooooooq=.....................................",
".................qoooooo>...........................:oooooooooooooooooooooooooooooooq=.....>ooooooooooooooooo=....................ooooooooooooooooooooooooooooooooooooooooooooooooooooooooq=.....................................",
".................qoooooo>=..........................:oooooooooooooooooooooooooooooooq=.....-ooooooooooooooooo=....................ooooooooooooooooooooooooooooooooooooooooooooooooooooooooq=.....................................",
"..............oooooooooooooo*........................===-ooooooooooooooooooooooo;====.......==.ooooooooooooooooo>.................ooooooooooooooooooooooooooooooooooooooooooooooooooooooooq=.....................................",
"..............oooooooooooooo*...........................-ooooooooooooooooooooooo;..............ooooooooooooooooo>.................ooooooooooooooooooooooooooooooooooooooooooooooooooooooooq=.....................................",
".............=oooooooooooooo*..=........................;oooooooooooooooooooooooo..............ooooooooooooooooo>.................ooooooooooooooooooooooooooooooooooooooooooooooooooooooooq=.....................................",
"..........:>>>oooooooooooooo>>>q=......................=q>>>oooooo;q>q;oooooo>>>q..............ooooooooooooooooo>.................ooooooooooooooooooooooooooooooooooooooooooooooooooooooooq=.....................................",
"..........>oooooooooooooooooooo-........................=..:oooooo;=.=-oooooo:.................ooooooooooooooooo>.................ooooooooooooooooooooooooooooooooooooooooooooooooooooooooq=.....................................",
"..........qoooooooooooooooooooo-...........................:oooooo;...-ooooooq=................ooooooooooooooooo>.................ooooooooooooooooooooooooooooooooooooooooooooooooooooooooq=.....................................",
"..........qoooooooooooooooooooo-...........................:oooooo;...-ooooooq=................ooooooooooooooooo>.................ooooooooooooooooooooooooooooooooooooooooooooooooooooooooq=....................................."
};
