/* XPM */
static char *_92a54ae2754431786a00ff037290295WjTDUpOstVRlxhog[] = {
/* columns rows colors chars-per-pixel */
"64 48 254 2 ",
"   c #020301",
".  c #0B0501",
"X  c #0C0905",
"o  c #0D0D0A",
"O  c #050807",
"+  c #130B05",
"@  c #130D09",
"#  c #190E0A",
"$  c #180B04",
"%  c #14110D",
"&  c #1B130D",
"*  c #1A1306",
"=  c #0E1515",
"-  c #151512",
";  c #1C1511",
":  c #1C1A15",
">  c #1C1D1B",
",  c #151818",
"<  c #0B0F0F",
"1  c #27170A",
"2  c #371902",
"3  c #231B15",
"4  c #231D1A",
"5  c #2A1D1B",
"6  c #261915",
"7  c #280700",
"8  c #1D231A",
"9  c #23221D",
"0  c #2B231D",
"q  c #292216",
"w  c #32231C",
"e  c #362717",
"r  c #3B2A11",
"t  c #1C1E22",
"y  c #1C2622",
"u  c #242523",
"i  c #2B2522",
"p  c #2D2925",
"a  c #2C2C2A",
"s  c #252A28",
"d  c #342B24",
"f  c #332D2B",
"g  c #3C2E2B",
"h  c #372724",
"j  c #29312C",
"k  c #34312D",
"l  c #3C332C",
"z  c #3A3529",
"x  c #333332",
"c  c #3B3533",
"v  c #3A3935",
"b  c #3C3C3A",
"n  c #333935",
"m  c #2E3032",
"M  c #4B361A",
"N  c #4E3012",
"B  c #412D29",
"V  c #42342C",
"C  c #463A28",
"Z  c #443A34",
"A  c #433D3A",
"S  c #493937",
"D  c #533D35",
"F  c #3C4139",
"G  c #44413C",
"H  c #4B433D",
"J  c #4A4437",
"K  c #56483A",
"L  c #57472C",
"P  c #674C39",
"I  c #6A5439",
"U  c #6F552F",
"Y  c #694515",
"T  c #3E3F41",
"R  c #493E41",
"E  c #3D4342",
"W  c #444443",
"Q  c #4B4644",
"!  c #4D4A45",
"~  c #4C4C4A",
"^  c #464847",
"/  c #534A44",
"(  c #524D4B",
")  c #564845",
"_  c #54524D",
"`  c #5C5348",
"'  c #555453",
"]  c #5B5553",
"[  c #5C5955",
"{  c #5D5B5A",
"}  c #555857",
"|  c #4C4F51",
" . c #645A4C",
".. c #6A5949",
"X. c #775A49",
"o. c #645B55",
"O. c #6A5B55",
"+. c #635C5A",
"@. c #655855",
"#. c #685654",
"$. c #64625D",
"%. c #6A625B",
"&. c #6A6353",
"*. c #756757",
"=. c #72624B",
"-. c #705F61",
";. c #5B696C",
":. c #6B6462",
">. c #6D6964",
",. c #676868",
"<. c #726A64",
"1. c #736D6A",
"2. c #786968",
"3. c #7B736D",
"4. c #78756B",
"5. c #776E71",
"6. c #7C7573",
"7. c #7D7A75",
"8. c #777879",
"9. c #6C716D",
"0. c #4D5F61",
"q. c #87663B",
"w. c #856547",
"e. c #88775A",
"r. c #99785A",
"t. c #8B6E54",
"y. c #87786A",
"u. c #987D66",
"i. c #827775",
"p. c #837A75",
"a. c #887B78",
"s. c #8D7971",
"d. c #A57B52",
"f. c #7E807F",
"g. c #AD8559",
"h. c #988368",
"j. c #8C847D",
"k. c #878379",
"l. c #968677",
"z. c #90866D",
"x. c #A98869",
"c. c #A58B75",
"v. c #A89477",
"b. c #B79878",
"n. c #B2916E",
"m. c #B1A17F",
"M. c #C69E74",
"N. c #C4A37E",
"B. c #C8A06D",
"V. c #C09A5B",
"C. c #727B90",
"Z. c #627DA9",
"A. c #566C91",
"S. c #75888F",
"D. c #6A87A8",
"F. c #738FB3",
"G. c #728EC0",
"H. c #8C8481",
"J. c #898786",
"K. c #928783",
"L. c #948D8A",
"P. c #988B86",
"I. c #9B928C",
"U. c #999489",
"Y. c #9C9592",
"T. c #9B9895",
"R. c #8E9493",
"E. c #A89586",
"W. c #B49B87",
"Q. c #A49A95",
"!. c #A79C98",
"~. c #A69388",
"^. c #B8A489",
"/. c #AAA29C",
"(. c #A9A59A",
"). c #B7A696",
"_. c #B4AA92",
"`. c #8998AF",
"'. c #A49CA2",
"]. c #90A8B4",
"[. c #A9A6A4",
"{. c #B4AAA3",
"}. c #B8ABA4",
"|. c #BAB2AA",
" X c #A6B9B8",
".X c #BAB6B4",
"XX c #AEB0AD",
"oX c #C6A786",
"OX c #C4AA97",
"+X c #C9B499",
"@X c #D4B897",
"#X c #D2AE8A",
"$X c #CBB6A8",
"%X c #D5BBA4",
"&X c #C9BBB7",
"*X c #D4BCB2",
"=X c #E6BA93",
"-X c #ADC0BE",
";X c #DDC397",
":X c #D9C4A7",
">X c #CAC1BB",
",X c #D9C7B9",
"<X c #DED6B2",
"1X c #E7D3B8",
"2X c #E4C7AB",
"3X c #8B9FC5",
"4X c #91A9C8",
"5X c #A8B6CA",
"6X c #C7BEC3",
"7X c #B6C8CA",
"8X c #BDCCD5",
"9X c #A8C2C8",
"0X c #B7CEE9",
"qX c #CCC9C5",
"wX c #D6CBC7",
"eX c #C6D3D9",
"rX c #DAD6D6",
"tX c #D0D2D0",
"yX c #E5D3C7",
"uX c #E6DAD8",
"iX c #EDD6C7",
"pX c #EAE3DD",
"aX c #F1E3DC",
"sX c #CBD6E5",
"dX c #D4DCEC",
"fX c #D7DBE7",
"gX c #DADBF3",
"hX c #C8D4EA",
"jX c #E5DDE7",
"kX c #E3DDF3",
"lX c #DBE4EC",
"zX c #DBE3F4",
"xX c #CDE8F9",
"cX c #EAE6EA",
"vX c #F5EAE9",
"bX c #F9F3ED",
"nX c #E4E4F5",
"mX c #EAE4F5",
"MX c #EDEAF5",
"NX c #ECEBFA",
"BX c #E6E7FA",
"VX c #F3ECF4",
"CX c #FBEEF4",
"ZX c #F3EDFB",
"AX c #FAEEFB",
"SX c #ECF5FB",
"DX c #F4F3F4",
"FX c #FDF4F3",
"GX c #F5F3FB",
"HX c #FBF3FD",
"JX c #F4FCFC",
"KX c #FDFBFE",
"LX c #FAFAF5",
"PX c #DFE0DB",
/* pixels */
"]. X X7X8X8XsXsXdXdXgXkXkXmXmXmXnXNXMXmXZXAXVXbXbXvXKXHXDXMXgXgXBXSXKXJXMXDXHXHXHXAXZXAXAXZXZXMXcXcXMXMXnXBXgXBXkXgXfXrX(.[ %.(.",
" X X9X7X8XeXsXsXdXgXgXnXmXmXmXmXmXNXMXMXAXAXVXFXKXVXVXfXrX5XC.`.`.5XsXJXKXDXVXDXAXAXAXAXAXAXZXMXMXMXMXmXkXnXBXkXjXfX6X.X<.. * J ",
" X-X7X8XeXsXsXdXgXgXnXBXmXMXVXVXMXVXVXAXAXAXVXLXGXGX5X]. X5X4XZ.Z.D.F.0XJXKXGXKXAXAXAXHXHXGXDXDXGXGXMXDXZXVXHXcXVXrXI.+.z Z *.C ",
" X7X8XeXeXfXdXgXnXnXmXNXZXZXVXVXCXCXAXAXHXGXDXJXSX5XC.5XxXxXxXG.D.D.A.F.hXJXGXKXHXHXHXCXAXGXGXDXZXMXZXHXKXcXrXaX>X).y.e y.).*.*.",
"7X7XeXeXsXdXlXzXBXNXNXZXAXAXAXAXFXCXAXHXHXGXLXJXdXF.3X0X9X].D.F.F.F.D.D.5XSXGXHXHXHXHXAXHXHXHXGXKXHXKXvXpX$Xz._.).+Xc.e.,XW.y...",
"7X8XeXsXdXlXzXnXNXNXNXZXAXGXAXHXFXCXAXHXHXJXJXSX5XF.D.D.D.F.D.F.3XF.D.A.S.sXKXHXHXHXHXHXHXKXHXGXHXvXuXwX,X).I e.c.e.^.=.u.u.y.t.",
"8XeXsXdXlXzXnXBXNXNXZXAXGXHXHXAXCXCXHXHXDXJXJXlX].3XF.`.`.S.S.F.S.;.;.0.;.R.DXDXHXKXHXHXHXKXVXcXwX&X&X&X$X).e.v.m.I c.c.u.E.,XOX",
"eXsXsXdXzXzXBXNXNXNXZXGXGXHXAXHXAXAXHXHXDXJXSXfXC.C.`.`.;.E s 8 8 F 9.k.$._ pXLXHXKXKXHXHXAXaXyX&X$X,XyXv.u.e.+X^.^.h.c.$XOX*X$X",
"eXsXdXdXnXBXBXNXMXKXNXHXHXKXAXAXAXZXVXDXDXKXJXeX| ,.} x f V r L e.1X<X_.U.4.qXKXKXKXKXCXjX&XyXyXW.%X:X2X^.l.v.).).*XOXE.).l.c.s.",
"hXzXzXdXzXBXNXNXZXGXmXHXZXHXZXHXAXHXGXDXcXDXHXfX9.0 H }.*XiX;Xq.;XN.Y N C z.4.qXDXcXcXuXaX,X1X%Xc.OXv.c.^.).).,X&X&XyXwXyXs.y.=.",
"dXdXdXnXNXGXZXZXZXHXHXHXAXKXZXmXNXGXVXcXcXcXMXrXd e ).u.X.2 B.V.B.q.2 N r =.w Q.qX|.rXvXbX@X:X1Xb.+X+X^.c.s. .) :.!.FXvXuX&X .J ",
"sXzXBXBXnXjXmXVXVXjXAXVXAXjXZXKXZXHXDXDXDXDXAXjX1 e.I N N 7 d.g.d.g.U 2 L E.*.qXcXuXaX,X<X+X;X@Xv.v.^.l.D g i 5 ; 4 >.uXwXU.y.k.",
"sXdXdXfXfXcXVXVXVXvXVXVXHXAXZXZXHXKXGXHXHXHXKXAX` M X.7 7 N g.Y N U t.h.l...~.aXaXaXaX).OX+X:X^.K K .. .S A A R ' x f H /.}.&X>X",
"fXfXfXlXcXrXrXFXvXKXvXKXHXKXVXKXGXHXHXKXKXHXAXuX* $ h.U P X.M M N C e e D 1 O.,XvX&X&X}.!.y.y.y. .V l l 5 x A c i f _ 0 j.uX|.!.",
"fXnXlXtXXXk.L.rXKX&Xi.&XKXcXcXKXuXbXKXKXvXFXKXuXH 1 M h.e.B r C K ; z 6 . 1 1 s.$X-.R S g c A A ] c u u o > s - - X % 6 K iXaX*.",
"tXpX.X4.[ _ >.!.{.K.O.a.wX'.&XqX}.uXKXvX&XuXKXKX|.e * r 1 1 e * z Q ! %.q $ w O.#.h h h 4 f x a a R - - a b x b k 9 ; # q 4.P.&.",
"E.E. .J o.3.3.%.#.` 2.2.2.#.:.2.O.a.!.&Xa.i.vXKXi.6 q $ * d O.i.4.k.p.<.H & # Z ] 6 x f f i f a u o : : j n u 9 : 9 . 0 3 & 3.|.",
":Xe.L &.3.<.] S S D D S S ) ) S g O.O.K D 6 ) vXK.3 5 3 3 A <.>.%.H o.3.H 3 3 3 ( 4 p : : % : : % :   9 9 9 9 a f f i % & q /.wX",
"1Xv... . ./ Z ) w B B V B K g 1 V S ) w w Z h ` i.g f 0 5 ! [ / A ` [ %.o.0 . p p @ : X % o - - -   O % ! b k a b f p p ; & wXrX",
"^._.z.` V c d g ) D B h w B g w S Z g 6 5 d 3 + d f p + ; G H / o.` 4.1.l i v i + . % X : - - -   ,   : 9 - u > o   o X .   _ qX",
"^.v.e. .J ] ] Z h h h h w 5 w 6 5 g h f g 3 ; 5 & g l 3 0 A G ] H H H l 0 0 0 ; % ; > - > - o X     o o o a s W [ { ' ' _ F _ pX",
"+X^.I C l H Q S ) ) ) V h 6 6 & 5 # ; & # 6 0 6 & ; d p 0 0 4 3 q & & & & & % X : : : ; : % o   O   o   - s 8.[.J.J.,.9.,.^ ,.S.",
":X<X=.e d 0 6 6 # 5 g V h w 6 + + # 3 0 d 0 ; 3 & & 0 0 l d 0 @ ; + % 3 & # ; : ; - % % % o o X   - o X o x s ^ ' | W > b x - ^ ",
"%X+XK e 6 ; 6 . & & # 3 # & # # # 3 ; ; % 6 l 3 6 p 6 . l Z k q ; & + + & X X 4 4 ; o % o O O   ! J.$.> > - - > u u s < = , , 8.",
"@Xe.M e 6 & # 6 i l V d Z 5 # & + : . : X + + & & q + @ + & J d 3 . & & X & & @ : 4 - - o   % 1.' [ 1.T.J.b a v k ' W T W   5.[.",
"+Xt.2 1 1 & 5 d / ] ` l l 0 3 X : @   . 9 ( 7.+.& 3 0 ; & & @ + & + . . & # X 4 & % % X   _ [._ X ~ 4.$._ _ ! W x o o   > ,.XXJ.",
"OXe.r e w d H Q Q f & + ; 3 3 @ X   Q Y.|././.%.% 3 0 & 3 + . $ + & & & 0 H +._ [ ! x - ' L.p 1.>.! k % . X + X X X % f 6./.J.L.",
":Xc.r e D l i : # ; i / <.] i X 9 :.:.! c 4 0 c d d 6 & 0 w Z / ) +.%.1.i.K.i.d c $.f _ L.u { Y.Y..X$.p.|.Z   d Z &.k.Q.T.L.p.i.",
"b.b.D 1 1 & # @ i [ j.Q.I.:.Q [ .XT.c @ p p p Z ) 3 + & J 2.) l S @.@.%.O.] :.6.+./ ! ! ' Q [ L.(.U.{.(.{.(.3.j.k.&.K J d Z o.Z ",
"n.b.P r 1 + l >.H.:.Q ] [ Q ' T.7.J.1.( _ 0 6 q / <.l H V V ` V O.@.O.3.3.1.i.K.L.1.K.1.1.! T.Q.Y.U.j.j.p.U.|.l.*.&. .K K C C ` ",
"N.:Xb.P e ` >.] _ c x _ b p Q H.Y.I.+._ :.5   0 # Z o.*.y.). .O.}.!.{.{.Q.[.{.Q.I.Q.[.Y.L.!..X[.I.Y.p.y.y.4.l.l.z.*.&.K K  . .` ",
"#X#X:X%X=.V l k p p ! 1.] +.' c k 4 & f # Z / # 5 Z + V P.wXO.l |.Q.a.%.3.H.1.:.] 5.H.Y.j.J..XL.U.k.3.4.y.p.y.*.&.&. .&.K K O.*.",
"#X=XN.N.OXC * z G G c : k i @ 6 0 A H +.I.uXQ.# . V 0 Z :.i.c 4 [ ! i a W Q ] { ] ] ( >.Q >.T.L.L.$.7.7.4.7.k.4.] H J K  .&.&. .",
"d.M.#X#X@Xu.q $ +   . 3 . # 6 6 l &XwXwXFXuXwX) + i 5 f +.! a 4 5.7.H.L.T.C.L.[.'.T.J.8.H..XwXqX.XXX1.1.9.7.7.9.$._ A z l H %.y.",
"g.g.n.w.2 L =.l.` C e $ 6 h B ,XU.+.K.>XbX>XwX@.+ 6 6 f ( p f f { :.5.7.8.{ ,.8.8.,.:.,.5.L.|.[.T.(.>.7.7.7.8.1.:.$.] G d d Z / ",
"g.q.x.b.h.1XiX<X<X1X$XE.$XyX,X).{.3.S p.wX&X&XP.+ 5 4 A Q c Q W Q ( Q W W ~ ' { ^ ' [ ' Q +.Q.T.K.4.4.k.p.7.6.1.$.+.] _ / / ) ` ",
"w.n.@X@X#X@X+X:X:X%X:X:XiX$Xc.W.).|.|.Q.P.>XwXi.& 6 ; A ( A ' ~ ~ ' ( _ b ~ ~ ' n W W F v G 1.|.wX|.(.!.Y.Y.L.H.L.K.a.i.6.3.<.%.",
"b.oXoXb.@X@X@X+XoX@X+X1XOXu.E.W.~.wXFXQ.i.&X!.H 5 + + k ( x Q W A A b W p a u a x a W W k 9 X c T.&X{./.Y.Y.L.H.i.i.i.i.i.3.>.+.",
"n.n.oX#XoXoX@XN.@X@X%X^.e.h.c.~.).FXwXQ.K.Q.!.f 0 + X i v f b A f 9 p 9 > 8 > , : - - O   o : ; l 3.{.{.Q.I.L.K.H.a.3.1.1.1.:.+.",
"n.r.n.N.b.b.b.N.#X2XW.X.l.~.l.~.vXvXQ.|.Q.3.6.c 5 : X 5 4 v c G u > f o o o -     o   v {   : p 5 l |./.Q.Y.I.H.H.i.<.%.:.:.@.( ",
"r.r.r.r.x.x.b.oX%Xb...y.s.a.a.wXKX!.!.}.{.I.+.f 4 @ @ 9 ; % @ X X p o o o   O a o - > 9 L.9.- : 4 p A Y.!.L.Y.a.6.3.1.:.+.' ( ~ ",
"r.w.w.x.u.r.oX+Xx...*.s.a.2.!.KX&XI.!.!.&X/.+.H ; 4 . % 4 9 x : k - : % o O , - - - s } ' 4.9 o o % ; k 1./.K.j.i.1.:.+.] ( W W ",
"X.t.w.w.u.b.OXW.P X.s.i.2.K.HXjXP.P.P.!.|.K.Z %.9 X @ % 9 p.b k $.: > - o   o - < u ,.[ E b u   - - - - 4 [ a.j.1.>.$.{ ' W n x ",
"I I e.t.c.%Xl.K ) *.2.>.5.6XKX'.a.j.P.!.!.( 5 _ ( X @ . v $.{ ,.[ a - 8 8 j s a m y 8.$.a R.qX'   O O X X . p 1.6.>.{ ' ~ W x s ",
"L P =.y.).l.V K O.@.:.@.'.KX.X5.i.a.Q.!.I.l d : [ 9   X Q p a Q ! G x n > y T } 9.8.J.,.8.[.T.,.s   o   % %   ' 7.:._ W ^ E n s ",
"P *.z.!.Q.<.%.k.H.1.] 5.vXvXi.2.i.a.P.!.O.q 5 X k _     : 9 - u X W > o 8.R.S.8.9.,.^ | E | x ~ E O O       X > ! ' [ ~ F n j y ",
"K U.U.l.j.4.k.J.L.>.( &XFXH.#.3.3.a.j.i.0 # + %   Q u   - ! >XT.G - a ' { n s = <   O     O t > = , O   -     O o v ' ~ n s y , ",
"&. .H q + p G v G ! p.FX&X) #.#.-.i.I.l ; + & . %   b :   { J.x n n W x     O , s m t , <   > S.m   O             9 b n j j y < "
};
